;FLAVOR:Marlin
;TIME:14602
;Filament used: 0m, 1.58333m
;Layer height: 0.1
;MINX:159.052
;MINY:126.909
;MINZ:0.2
;MAXX:260.949
;MAXY:169.343
;MAXZ:27.1
;Generated with StratosEngine 1.5.5
T1
M82 ;absolute extrusion mode
;Machine Model: Sigmax R19 
;Materials used:  T1 PLA 
;Extruders used:  T1 0.4 
M141 S0 	;Set chamber temperature 
M140 S60 	;Heat build surface
M104 T1 S190	;Heat extruder 1
M190 S60 	;Wait until bed temperature reached 
M109 T1 S190	;Heat extruder 1 and wait
G21 		;metric values 
G90 		;absolute positioning 
M204 S600 	;set default acceleration 
M205 X12.5 Y12.5 ;set default jerk 
M107 		;start with the fan off 
G28 X0 Y0 	;move X/Y to min endstops 
G28 Z0 		;move Z to min endstops 
G1 Z5 F200 	;safety Z axis movement

T1
G92 E0 		;set zero the extruded length 
G1 E15 F30
G92 E0 
G4 S2 		;stabilize hotend 
G1 E-0.5 F1000 
G92 E0

G4 P1
G4 P2
G4 P3

G92 E0
;LAYER_COUNT:270
;LAYER:0
M107
M204 S580
M205 X9.38 Y9.38
G1 F600 Z0.4
G0 F2700 X194.863 Y166.601 Z0.4
M204 S435
;TYPE:SKIRT
G1 F600 Z0.2
G1 F1050 E0
G1 F900 X190.406 Y166.607 E0.06707
G1 X188.73 Y166.575 E0.0923
G1 X187.583 Y166.462 E0.10964
G1 X186.953 Y166.354 E0.11926
G1 X186.096 Y166.143 E0.13254
G1 X185.312 Y165.879 E0.14499
G1 X184.492 Y165.506 E0.15855
G1 X183.94 Y165.195 E0.16808
G1 X183.216 Y164.707 E0.18122
G1 X182.57 Y164.189 E0.19368
G1 X181.846 Y163.45 E0.20925
G1 X181.12 Y162.533 E0.22685
G1 X180.663 Y161.896 E0.23865
G1 X177.882 Y157.939 E0.31143
G1 X177.157 Y156.798 E0.33177
G1 X176.937 Y156.262 E0.34049
G1 X176.793 Y155.701 E0.34921
G1 X176.731 Y155.183 E0.35706
G1 X176.667 Y154.059 E0.374
G1 X176.649 Y153.639 E0.38033
G1 X176.459 Y150.92 E0.42134
G1 X176.188 Y148.187 E0.46267
G1 X175.85 Y145.532 E0.50295
G1 X175.434 Y142.878 E0.54337
G1 X174.932 Y140.169 E0.58483
G1 X174.374 Y137.57 E0.62484
G1 X174.054 Y136.267 E0.64503
G1 X173.875 Y135.494 E0.65697
G1 X173.784 Y134.921 E0.6657
G1 X173.772 Y134.342 E0.67441
G1 X173.84 Y133.767 E0.68313
G1 X173.986 Y133.206 E0.69185
G1 X174.209 Y132.671 E0.70057
G1 X174.696 Y131.886 E0.71447
G1 X175.107 Y131.307 E0.72516
G1 X175.602 Y130.621 E0.73789
G1 X175.765 Y130.41 E0.7419
G1 X176.291 Y129.771 E0.75436
G1 X176.885 Y129.136 E0.76744
G1 X177.657 Y128.462 E0.78286
G1 X178.353 Y127.981 E0.79559
G1 X178.793 Y127.731 E0.80321
G1 X179.476 Y127.423 E0.81448
G1 X180.646 Y127.059 E0.83292
G1 X181.711 Y126.939 E0.84905
G1 X181.955 Y126.928 E0.85273
G1 X182.968 Y126.91 E0.86797
G1 X249.194 Y126.909 E1.86457
G1 X251.664 Y126.919 E1.90174
G1 X252.629 Y126.936 E1.91627
G1 X253.425 Y126.997 E1.92828
G1 X254.437 Y127.19 E1.94378
G1 X255.457 Y127.526 E1.95994
G1 X255.842 Y127.687 E1.96622
G1 X256.595 Y128.101 E1.97916
G1 X257.483 Y128.766 E1.99585
G1 X258.109 Y129.395 E2.0092
G1 X258.777 Y130.301 E2.02614
G1 X259.149 Y130.971 E2.03768
G1 X259.562 Y132.006 E2.05444
G1 X259.765 Y132.715 E2.06554
G1 X259.911 Y133.509 E2.07769
G1 X259.998 Y134.748 E2.09638
G1 X260.006 Y135.303 E2.10474
G1 X260.007 Y144.602 E2.24467
G1 X259.997 Y145.494 E2.25809
G1 X259.962 Y146.465 E2.27272
G1 X259.874 Y147.356 E2.28619
G1 X259.719 Y148.207 E2.29921
G1 X259.508 Y149.01 E2.3117
G1 X259.183 Y149.898 E2.32593
G1 X258.815 Y150.669 E2.33879
G1 X258.401 Y151.409 E2.35155
G1 X258.123 Y151.847 E2.35935
G1 X257.017 Y153.471 E2.38892
G1 X253.853 Y157.991 E2.47195
G1 X251.593 Y161.228 E2.53136
G1 X250.773 Y162.397 E2.55285
G1 X250.437 Y162.859 E2.56144
G1 X249.891 Y163.564 E2.57486
G1 X249.343 Y164.185 E2.58733
G1 X248.666 Y164.804 E2.60113
G1 X247.744 Y165.443 E2.61801
G1 X246.905 Y165.875 E2.63221
G1 X246.181 Y166.153 E2.64388
G1 X245.307 Y166.379 E2.65747
G1 X244.328 Y166.533 E2.67238
G1 X243.24 Y166.592 E2.68878
G1 X242.648 Y166.6 E2.69769
G1 X194.863 Y166.601 E3.41678
M204 S580
G0 F2700 X194.862 Y166.121
M204 S435
G1 F900 X190.415 Y166.127 E3.4837
G1 X188.739 Y166.095 E3.50892
G1 X187.638 Y165.986 E3.52557
G1 X187.066 Y165.887 E3.53431
G1 X186.225 Y165.681 E3.54734
G1 X185.506 Y165.44 E3.55875
G1 X184.696 Y165.072 E3.57214
G1 X183.619 Y164.403 E3.59122
G1 X182.902 Y163.843 E3.60491
G1 X182.193 Y163.119 E3.62016
G1 X181.504 Y162.245 E3.63691
G1 X181.056 Y161.62 E3.64848
G1 X178.279 Y157.67 E3.72114
G1 X177.573 Y156.557 E3.74097
G1 X177.373 Y156.05 E3.74917
G1 X177.249 Y155.519 E3.75738
G1 X177.21 Y155.156 E3.76287
G1 X177.146 Y154.038 E3.77973
G1 X177.127 Y153.585 E3.78655
G1 X176.937 Y150.876 E3.82742
G1 X176.667 Y148.152 E3.86861
G1 X176.325 Y145.466 E3.90935
G1 X175.904 Y142.783 E3.95022
G1 X175.407 Y140.096 E3.99134
G1 X174.838 Y137.448 E4.0321
G1 X174.522 Y136.158 E4.05209
G1 X174.343 Y135.385 E4.06403
G1 X174.259 Y134.847 E4.07222
G1 X174.255 Y134.301 E4.08044
G1 X174.331 Y133.761 E4.08865
G1 X174.484 Y133.238 E4.09685
G1 X174.887 Y132.459 E4.11005
G1 X175.484 Y131.606 E4.12571
G1 X175.991 Y130.902 E4.13877
G1 X176.136 Y130.715 E4.14233
G1 X176.738 Y129.986 E4.15656
G1 X177.205 Y129.493 E4.16678
G1 X177.966 Y128.829 E4.18197
G1 X178.71 Y128.328 E4.19547
G1 X179.634 Y127.877 E4.21094
G1 X180.245 Y127.665 E4.22068
G1 X181.032 Y127.484 E4.23283
G1 X181.964 Y127.408 E4.2469
G1 X182.968 Y127.39 E4.26201
G1 X249.192 Y127.389 E5.25858
G1 X251.657 Y127.399 E5.29567
G1 X252.607 Y127.416 E5.30997
G1 X253.594 Y127.51 E5.32489
G1 X254.339 Y127.66 E5.33633
G1 X255.283 Y127.973 E5.3513
G1 X255.655 Y128.129 E5.35737
G1 X256.322 Y128.496 E5.36882
G1 X257.157 Y129.119 E5.3845
G1 X257.739 Y129.701 E5.39689
G1 X258.36 Y130.539 E5.41258
G1 X258.724 Y131.194 E5.42386
G1 X259.11 Y132.167 E5.43961
G1 X259.294 Y132.809 E5.44966
G1 X259.476 Y133.903 E5.46635
G1 X259.518 Y134.766 E5.47935
G1 X259.526 Y135.303 E5.48743
G1 X259.527 Y144.597 E5.62729
G1 X259.517 Y145.48 E5.64058
G1 X259.484 Y146.427 E5.65484
G1 X259.397 Y147.303 E5.66809
G1 X259.251 Y148.098 E5.68025
G1 X259.054 Y148.851 E5.69197
G1 X258.734 Y149.727 E5.706
G1 X258.388 Y150.45 E5.71806
G1 X257.994 Y151.154 E5.7302
G1 X257.726 Y151.576 E5.73773
G1 X256.624 Y153.195 E5.7672
G1 X253.46 Y157.715 E5.85022
G1 X251.201 Y160.952 E5.90963
G1 X250.384 Y162.116 E5.93103
G1 X250.057 Y162.565 E5.93938
G1 X249.511 Y163.27 E5.9528
G1 X248.829 Y164.015 E5.968
G1 X248.348 Y164.444 E5.9777
G1 X247.493 Y165.034 E5.99333
G1 X246.729 Y165.428 E6.00627
G1 X246.02 Y165.701 E6.0177
G1 X245.219 Y165.907 E6.03015
G1 X244.295 Y166.054 E6.04423
G1 X243.223 Y166.112 E6.06038
G1 X242.648 Y166.12 E6.06904
G1 X194.862 Y166.121 E6.78814
M204 S580
G0 F2700 X194.861 Y165.641
M204 S435
G1 F900 X190.424 Y165.647 E6.85491
G1 X188.748 Y165.615 E6.88014
G1 X187.693 Y165.509 E6.89609
G1 X186.466 Y165.248 E6.91497
G1 X185.7 Y165.001 E6.92708
G1 X184.9 Y164.637 E6.94031
G1 X183.886 Y164.004 E6.9583
G1 X183.235 Y163.497 E6.97072
G1 X182.54 Y162.787 E6.98567
G1 X181.888 Y161.956 E7.00156
G1 X181.449 Y161.344 E7.0129
G1 X178.676 Y157.4 E7.08545
G1 X177.991 Y156.318 E7.10472
G1 X177.812 Y155.842 E7.11237
G1 X177.689 Y155.128 E7.12328
G1 X177.626 Y154.018 E7.14001
G1 X177.607 Y153.568 E7.14678
G1 X177.415 Y150.83 E7.18809
G1 X177.146 Y148.113 E7.22917
G1 X176.8 Y145.399 E7.27035
G1 X176.376 Y142.695 E7.31153
G1 X175.879 Y140.008 E7.35266
G1 X175.306 Y137.341 E7.39371
G1 X174.99 Y136.05 E7.41371
G1 X174.811 Y135.277 E7.42565
G1 X174.735 Y134.774 E7.4333
G1 X174.739 Y134.265 E7.44096
G1 X174.823 Y133.763 E7.44862
G1 X174.984 Y133.281 E7.45627
G1 X175.491 Y132.424 E7.47125
G1 X175.886 Y131.869 E7.4815
G1 X176.381 Y131.183 E7.49423
G1 X176.506 Y131.02 E7.49733
G1 X177.032 Y130.381 E7.50978
G1 X177.526 Y129.85 E7.52069
G1 X178.274 Y129.197 E7.53564
G1 X178.946 Y128.747 E7.54781
G1 X179.791 Y128.33 E7.56199
G1 X180.402 Y128.118 E7.57172
G1 X181.302 Y127.936 E7.58554
G1 X181.972 Y127.888 E7.59565
G1 X182.968 Y127.87 E7.61064
G1 X249.19 Y127.869 E8.60717
G1 X251.649 Y127.878 E8.64418
G1 X252.586 Y127.895 E8.65828
G1 X253.52 Y127.984 E8.6724
G1 X254.241 Y128.13 E8.68347
G1 X255.108 Y128.42 E8.69723
G1 X255.468 Y128.571 E8.7031
G1 X256.049 Y128.89 E8.71308
G1 X256.831 Y129.471 E8.72774
G1 X257.369 Y130.007 E8.73917
G1 X257.944 Y130.777 E8.75363
G1 X258.299 Y131.417 E8.76464
G1 X258.658 Y132.329 E8.77939
G1 X258.894 Y133.257 E8.7938
G1 X259.011 Y134.105 E8.80668
G1 X259.046 Y135.263 E8.82412
G1 X259.047 Y144.592 E8.9645
G1 X259.038 Y145.465 E8.97764
G1 X259.005 Y146.388 E8.99154
G1 X258.92 Y147.249 E9.00456
G1 X258.698 Y148.357 E9.02156
G1 X258.443 Y149.144 E9.03401
G1 X258.139 Y149.884 E9.04605
G1 X257.679 Y150.744 E9.06073
G1 X257.329 Y151.306 E9.07069
G1 X256.23 Y152.92 E9.10008
G1 X253.066 Y157.44 E9.1831
G1 X250.808 Y160.677 E9.2425
G1 X249.995 Y161.835 E9.26379
G1 X249.678 Y162.271 E9.2719
G1 X249.132 Y162.976 E9.28532
G1 X248.495 Y163.67 E9.29949
G1 X248.031 Y164.084 E9.30885
G1 X247.241 Y164.625 E9.32326
G1 X246.553 Y164.982 E9.33493
G1 X245.502 Y165.353 E9.3517
G1 X244.631 Y165.528 E9.36507
G1 X243.74 Y165.611 E9.37853
G1 X242.685 Y165.64 E9.39441
G1 X194.861 Y165.641 E10.11409
M204 S580
G1 F2100 E3.61409
;MESH:flipper0_tpu_case-v1.stl
G0 F2700 X194.855 Y161.886
G0 X189.695 Y146.48
M204 S435
;TYPE:WALL-INNER
G1 F1050 E10.11409
G1 F900 X189.794 Y145.07 E10.1327
G1 X189.727 Y143.686 E10.15095
G1 X189.523 Y142.417 E10.16787
G1 X189.245 Y141.364 E10.18221
G1 X188.853 Y140.303 E10.19711
G1 X188.365 Y139.286 E10.21196
G1 X187.818 Y138.376 E10.22594
G1 X187.239 Y137.58 E10.2389
G1 X186.643 Y136.877 E10.25104
G1 X185.986 Y136.212 E10.26335
G1 X185.175 Y135.52 E10.27738
G1 X184.238 Y134.861 E10.29247
G1 X183.286 Y134.322 E10.30687
G1 X183.27 Y134.312 E10.30712
G1 X182.31 Y133.874 E10.32101
G1 X181.325 Y133.528 E10.33476
G1 X181.114 Y133.473 E10.33763
G1 X180.737 Y133.376 E10.34276
G1 X181.027 Y133.116 E10.34563
G1 X181.238 Y132.926 E10.34936
G1 X181.539 Y132.753 E10.35394
G1 X181.776 Y132.676 E10.35722
G1 X182.167 Y132.64 E10.36239
G1 X249.105 Y132.639 E11.24379
G1 X252.189 Y132.65 E11.28439
G1 X252.612 Y132.662 E11.28997
G1 X253.143 Y132.764 E11.29709
G1 X253.496 Y132.907 E11.3021
G1 X253.714 Y133.064 E11.30564
G1 X253.887 Y133.268 E11.30916
G1 X254.055 Y133.576 E11.31378
G1 X254.176 Y133.935 E11.31877
G1 X254.256 Y134.365 E11.32453
G1 X254.276 Y134.775 E11.32993
G1 X254.278 Y143.929 E11.45047
G1 X254.276 Y144.94 E11.46378
G1 X254.257 Y146.01 E11.47787
G1 X254.195 Y146.661 E11.48648
G1 X254.076 Y147.215 E11.49394
G1 X253.879 Y147.754 E11.5015
G1 X253.512 Y148.441 E11.51175
G1 X253.047 Y149.156 E11.52299
G1 X252.801 Y149.501 E11.52856
G1 X249.269 Y154.543 E11.60962
G1 X246.952 Y157.866 E11.66297
G1 X245.743 Y159.589 E11.69068
G1 X245.307 Y160.13 E11.69983
G1 X244.973 Y160.432 E11.70576
G1 X244.663 Y160.616 E11.71051
G1 X244.366 Y160.726 E11.71468
G1 X243.808 Y160.839 E11.72217
G1 X243.196 Y160.87 E11.73024
G1 X194.856 Y160.871 E12.36675
G1 X189.539 Y160.88 E12.43676
G1 X188.782 Y160.851 E12.44674
G1 X188.143 Y160.765 E12.45523
G1 X187.517 Y160.598 E12.46376
G1 X186.982 Y160.355 E12.4715
G1 X186.475 Y160.002 E12.47963
G1 X186.034 Y159.55 E12.48795
G1 X185.603 Y158.957 E12.4976
G1 X183.359 Y155.767 E12.54896
G1 X183.252 Y155.615 E12.5514
G1 X183.243 Y155.602 E12.55161
G1 X183.317 Y155.568 E12.55217
G1 X183.478 Y155.477 E12.55388
G1 X184.121 Y155.111 E12.56362
G1 X184.921 Y154.573 E12.57631
G1 X185.788 Y153.873 E12.59099
G1 X186.581 Y153.099 E12.60558
G1 X187.356 Y152.179 E12.62142
G1 X187.999 Y151.244 E12.63636
G1 X188.51 Y150.334 E12.6501
G1 X189.029 Y149.157 E12.66704
G1 X189.435 Y147.854 E12.68501
G1 X189.695 Y146.48 E12.70342
M204 S580
G0 F2700 X189.278 Y146.426
M204 S435
G1 F900 X189.373 Y145.065 E12.72139
G1 X189.309 Y143.73 E12.73898
G1 X189.112 Y142.504 E12.75533
G1 X188.844 Y141.491 E12.76913
G1 X188.466 Y140.467 E12.7835
G1 X187.995 Y139.485 E12.79785
G1 X187.468 Y138.608 E12.81132
G1 X186.909 Y137.84 E12.82383
G1 X186.333 Y137.161 E12.83555
G1 X185.7 Y136.52 E12.84741
G1 X184.917 Y135.852 E12.86096
G1 X184.013 Y135.216 E12.87552
G1 X183.079 Y134.686 E12.88966
G1 X183.062 Y134.679 E12.8899
G1 X182.153 Y134.264 E12.90306
G1 X181.203 Y133.93 E12.91632
G1 X180.378 Y133.717 E12.92754
G1 X180.241 Y133.682 E12.9294
G1 X179.974 Y133.621 E12.93301
G1 X180.057 Y133.525 E12.93302
G1 X180.149 Y133.417 E12.93455
G1 X180.487 Y133.023 E12.94138
G1 X180.992 Y132.583 E12.9502
G1 X181.365 Y132.368 E12.95587
G1 X181.691 Y132.262 E12.96039
G1 X182.128 Y132.223 E12.96616
G1 X182.151 Y132.22 E12.96647
G1 X249.106 Y132.219 E13.84809
G1 X252.201 Y132.23 E13.88884
G1 X252.654 Y132.243 E13.89481
G1 X253.264 Y132.36 E13.90299
G1 X253.7 Y132.537 E13.90919
G1 X254.001 Y132.753 E13.91406
G1 X254.234 Y133.028 E13.91881
G1 X254.441 Y133.406 E13.92449
G1 X254.584 Y133.833 E13.93041
G1 X254.673 Y134.312 E13.93683
G1 X254.674 Y134.344 E13.93725
G1 X254.694 Y134.753 E13.94264
G1 X254.696 Y134.775 E13.94293
G1 X254.698 Y143.929 E14.06347
G1 X254.696 Y144.947 E14.07687
G1 X254.677 Y146.032 E14.09116
G1 X254.61 Y146.729 E14.10038
G1 X254.482 Y147.326 E14.10842
G1 X254.26 Y147.933 E14.11693
G1 X253.875 Y148.655 E14.12771
G1 X253.398 Y149.386 E14.1392
G1 X253.144 Y149.743 E14.14497
G1 X249.613 Y154.784 E14.22601
G1 X247.296 Y158.107 E14.27935
G1 X246.077 Y159.845 E14.3073
G1 X245.615 Y160.418 E14.31699
G1 X245.224 Y160.771 E14.32393
G1 X244.843 Y160.997 E14.32976
G1 X244.477 Y161.132 E14.3349
G1 X243.867 Y161.256 E14.3431
G1 X243.83 Y161.257 E14.34358
G1 X243.218 Y161.288 E14.35165
G1 X243.197 Y161.29 E14.35193
G1 X194.856 Y161.291 E14.98846
G1 X189.524 Y161.3 E15.05866
G1 X188.752 Y161.27 E15.06884
G1 X188.058 Y161.177 E15.07806
G1 X187.377 Y160.996 E15.08734
G1 X186.771 Y160.72 E15.0961
G1 X186.203 Y160.325 E15.10521
G1 X185.715 Y159.825 E15.11441
G1 X185.259 Y159.199 E15.12461
G1 X182.753 Y155.636 E15.18197
G1 X182.609 Y155.431 E15.18527
G1 X182.837 Y155.327 E15.1873
G1 X183.125 Y155.194 E15.19147
G1 X183.9 Y154.754 E15.20321
G1 X184.671 Y154.235 E15.21545
G1 X185.509 Y153.559 E15.22962
G1 X186.273 Y152.813 E15.24368
G1 X187.022 Y151.924 E15.25899
G1 X187.642 Y151.022 E15.2734
G1 X188.134 Y150.146 E15.28663
G1 X188.635 Y149.009 E15.30299
G1 X189.027 Y147.752 E15.32033
G1 X189.278 Y146.426 E15.3381
M204 S580
G0 F2700 X188.861 Y146.372
M204 S435
G1 F900 X188.952 Y145.06 E15.35542
G1 X188.891 Y143.773 E15.37238
G1 X188.701 Y142.591 E15.38815
G1 X188.443 Y141.618 E15.4014
G1 X188.079 Y140.631 E15.41525
G1 X187.625 Y139.685 E15.42907
G1 X187.117 Y138.84 E15.44205
G1 X186.579 Y138.1 E15.4541
G1 X186.023 Y137.445 E15.46541
G1 X185.414 Y136.828 E15.47683
G1 X184.659 Y136.184 E15.48989
G1 X183.788 Y135.571 E15.50392
G1 X182.888 Y135.06 E15.51754
G1 X181.996 Y134.654 E15.53045
G1 X181.081 Y134.332 E15.54322
G1 X180.153 Y134.093 E15.55584
G1 X179.573 Y133.994 E15.56359
G1 X179.255 Y133.941 E15.56783
G1 X179.434 Y133.673 E15.57029
G1 X179.64 Y133.365 E15.57517
G1 X180.19 Y132.724 E15.58629
G1 X180.746 Y132.24 E15.596
G1 X181.195 Y131.981 E15.60283
G1 X181.602 Y131.849 E15.60846
G1 X181.652 Y131.845 E15.60912
G1 X182.112 Y131.803 E15.6152
G1 X182.135 Y131.8 E15.61551
G1 X249.107 Y131.799 E16.49735
G1 X252.213 Y131.81 E16.53825
G1 X252.696 Y131.824 E16.54461
G1 X253.385 Y131.956 E16.55385
G1 X253.904 Y132.167 E16.56123
G1 X254.289 Y132.443 E16.56747
G1 X254.581 Y132.788 E16.57342
G1 X254.601 Y132.826 E16.57398
G1 X254.827 Y133.236 E16.58015
G1 X254.981 Y133.7 E16.58659
G1 X254.992 Y133.731 E16.58702
G1 X255.09 Y134.259 E16.59409
G1 X255.091 Y134.29 E16.5945
G1 X255.114 Y134.753 E16.6006
G1 X255.116 Y134.775 E16.60089
G1 X255.118 Y143.929 E16.72143
G1 X255.116 Y144.954 E16.73492
G1 X255.097 Y146.055 E16.74942
G1 X255.025 Y146.796 E16.75923
G1 X254.888 Y147.437 E16.76786
G1 X254.641 Y148.112 E16.77732
G1 X254.237 Y148.869 E16.78862
G1 X253.749 Y149.616 E16.80037
G1 X253.74 Y149.628 E16.80057
G1 X253.487 Y149.985 E16.80633
G1 X249.957 Y155.025 E16.88735
G1 X247.64 Y158.348 E16.94069
G1 X246.406 Y160.107 E16.96898
G1 X245.923 Y160.706 E16.97912
G1 X245.475 Y161.11 E16.98706
G1 X245.022 Y161.379 E16.994
G1 X244.592 Y161.538 E17.00003
G1 X243.925 Y161.673 E17.00899
G1 X243.889 Y161.674 E17.00947
G1 X243.219 Y161.708 E17.0183
G1 X243.198 Y161.71 E17.01858
G1 X194.856 Y161.711 E17.65512
G1 X189.508 Y161.72 E17.72554
G1 X188.722 Y161.689 E17.73589
