;FLAVOR:Marlin
;TIME:11826
;Filament used: 0m, 1.76389m
;Layer height: 0.1
;MINX:173.55
;MINY:119.568
;MINZ:0.2
;MAXX:246.45
;MAXY:177.432
;MAXZ:13.5
;Generated with StratosEngine 1.5.5
T1
M82 ;absolute extrusion mode
;Machine Model: Sigmax R19 
;Materials used:  T1 PLA 
;Extruders used:  T1 0.4 
M141 S0 	;Set chamber temperature 
M140 S60 	;Heat build surface
M104 T1 S190	;Heat extruder 1
M190 S60 	;Wait until bed temperature reached 
M109 T1 S190	;Heat extruder 1 and wait
G21 		;metric values 
G90 		;absolute positioning 
M204 S600 	;set default acceleration 
M205 X12.5 Y12.5 ;set default jerk 
M107 		;start with the fan off 
G28 X0 Y0 	;move X/Y to min endstops 
G28 Z0 		;move Z to min endstops 
G1 Z5 F200 	;safety Z axis movement

T1
G92 E0 		;set zero the extruded length 
G1 E15 F30
G92 E0 
G4 S2 		;stabilize hotend 
G1 E-0.5 F1000 
G92 E0

G4 P1
G4 P2
G4 P3

G92 E0
;LAYER_COUNT:134
;LAYER:0
M107
M204 S580
M205 X9.38 Y9.38
G1 F600 Z0.4
G0 F2700 X178.396 Y177.432 Z0.4
M204 S435
;TYPE:SKIRT
G1 F600 Z0.2
G1 F1050 E0
G1 F900 X177.137 Y177.373 E0.01897
G1 X176.572 Y177.246 E0.02768
G1 X176.03 Y177.042 E0.0364
G1 X175.521 Y176.765 E0.04512
G1 X175.055 Y176.421 E0.05383
G1 X174.636 Y176.012 E0.06264
G1 X174.279 Y175.555 E0.07137
G1 X173.989 Y175.054 E0.08008
G1 X173.769 Y174.518 E0.0888
G1 X173.626 Y173.957 E0.09751
G1 X173.551 Y173.008 E0.11184
G1 X173.55 Y124.384 E0.84355
G1 X173.607 Y123.144 E0.86223
G1 X173.734 Y122.578 E0.87096
G1 X173.937 Y122.036 E0.87967
G1 X174.213 Y121.527 E0.88839
G1 X174.557 Y121.06 E0.89711
G1 X174.961 Y120.645 E0.90583
G1 X175.419 Y120.29 E0.91455
G1 X175.921 Y120.001 E0.92327
G1 X176.458 Y119.784 E0.93198
G1 X177.02 Y119.643 E0.9407
G1 X177.939 Y119.571 E0.95457
G1 X178.063 Y119.569 E0.95644
G1 X241.602 Y119.568 E1.9126
G1 X242.878 Y119.627 E1.93183
G1 X243.444 Y119.754 E1.94056
G1 X243.986 Y119.958 E1.94927
G1 X244.495 Y120.234 E1.95798
G1 X244.961 Y120.578 E1.9667
G1 X245.376 Y120.983 E1.97543
G1 X245.73 Y121.441 E1.98414
G1 X246.019 Y121.943 E1.99285
G1 X246.235 Y122.48 E2.00156
G1 X246.376 Y123.042 E2.01028
G1 X246.448 Y123.979 E2.02443
G1 X246.45 Y124.097 E2.0262
G1 X246.45 Y172.547 E2.7553
G1 X246.394 Y173.851 E2.77494
G1 X246.267 Y174.417 E2.78367
G1 X246.065 Y174.959 E2.79237
G1 X245.789 Y175.469 E2.8011
G1 X245.446 Y175.936 E2.80982
G1 X245.042 Y176.351 E2.81853
G1 X244.585 Y176.707 E2.82725
G1 X244.083 Y176.996 E2.83597
G1 X243.546 Y177.214 E2.84469
G1 X242.985 Y177.356 E2.8534
G1 X242.038 Y177.429 E2.86769
G1 X241.92 Y177.431 E2.86947
G1 X178.396 Y177.432 E3.82541
M204 S580
G0 F2700 X178.403 Y176.952
M204 S435
G1 F900 X177.178 Y176.894 E3.84386
G1 X176.648 Y176.767 E3.85206
G1 X176.142 Y176.564 E3.86027
G1 X175.671 Y176.289 E3.86847
G1 X175.011 Y175.711 E3.88168
G1 X174.659 Y175.26 E3.89029
G1 X174.391 Y174.785 E3.89849
G1 X174.196 Y174.276 E3.9067
G1 X174.078 Y173.744 E3.9149
G1 X174.03 Y172.898 E3.92765
G1 X174.03 Y124.391 E4.6576
G1 X174.087 Y123.184 E4.67579
G1 X174.213 Y122.654 E4.68398
G1 X174.415 Y122.148 E4.69218
G1 X174.689 Y121.677 E4.70038
G1 X175.029 Y121.251 E4.70858
G1 X175.428 Y120.879 E4.71679
G1 X175.877 Y120.569 E4.725
G1 X176.366 Y120.329 E4.7332
G1 X176.885 Y120.162 E4.74141
G1 X177.953 Y120.051 E4.75756
G1 X178.063 Y120.049 E4.75922
G1 X241.595 Y120.048 E5.71528
G1 X242.837 Y120.106 E5.73399
G1 X243.368 Y120.233 E5.7422
G1 X243.874 Y120.435 E5.7504
G1 X244.345 Y120.71 E5.75861
G1 X244.77 Y121.05 E5.7668
G1 X245.142 Y121.449 E5.77501
G1 X245.451 Y121.898 E5.78321
G1 X245.691 Y122.388 E5.79142
G1 X245.858 Y122.907 E5.79963
G1 X245.969 Y123.992 E5.81604
G1 X245.97 Y172.541 E6.54663
G1 X245.914 Y173.811 E6.56576
G1 X245.788 Y174.342 E6.57397
G1 X245.587 Y174.848 E6.58216
G1 X245.313 Y175.32 E6.59038
G1 X244.974 Y175.746 E6.59857
G1 X244.575 Y176.118 E6.60678
G1 X244.127 Y176.429 E6.61498
G1 X243.638 Y176.67 E6.62319
G1 X243.119 Y176.837 E6.63139
G1 X242.024 Y176.95 E6.64796
G1 X178.403 Y176.952 E7.60536
M204 S580
G0 F2700 X178.41 Y176.472
M204 S435
G1 F900 X177.222 Y176.414 E7.62325
G1 X176.729 Y176.288 E7.63091
G1 X176.262 Y176.087 E7.63856
G1 X175.832 Y175.814 E7.64623
G1 X175.35 Y175.369 E7.6561
G1 X175.04 Y174.966 E7.66375
G1 X174.798 Y174.519 E7.6714
G1 X174.628 Y174.039 E7.67906
G1 X174.519 Y173.287 E7.6905
G1 X174.51 Y172.898 E7.69635
G1 X174.51 Y124.397 E8.42622
G1 X174.566 Y123.227 E8.44384
G1 X174.692 Y122.734 E8.4515
G1 X174.893 Y122.267 E8.45915
G1 X175.165 Y121.837 E8.46681
G1 X175.5 Y121.455 E8.47446
G1 X175.892 Y121.13 E8.48212
G1 X176.329 Y120.87 E8.48977
G1 X176.802 Y120.683 E8.49742
G1 X177.298 Y120.571 E8.50508
G1 X178.063 Y120.529 E8.51661
G1 X241.588 Y120.528 E9.47256
G1 X242.794 Y120.586 E9.49073
G1 X243.287 Y120.711 E9.49838
G1 X243.754 Y120.913 E9.50604
G1 X244.184 Y121.185 E9.51369
G1 X244.566 Y121.521 E9.52135
G1 X244.89 Y121.913 E9.529
G1 X245.15 Y122.35 E9.53666
G1 X245.337 Y122.823 E9.54431
G1 X245.448 Y123.32 E9.55197
G1 X245.49 Y124.097 E9.56368
G1 X245.49 Y172.535 E10.2926
G1 X245.435 Y173.769 E10.31119
G1 X245.31 Y174.262 E10.31884
G1 X245.109 Y174.729 E10.32649
G1 X244.838 Y175.16 E10.33415
G1 X244.502 Y175.542 E10.34181
G1 X244.111 Y175.868 E10.34947
G1 X243.674 Y176.128 E10.35712
G1 X243.202 Y176.316 E10.36477
G1 X242.705 Y176.429 E10.37244
G1 X241.92 Y176.471 E10.38427
G1 X178.41 Y176.472 E11.33999
M204 S580
G1 F2100 E4.83999
;MESH:top_adapter_2.stl
G0 F2700 X178.454 Y172.528
G0 X240.72 Y125.298
M204 S435
;TYPE:WALL-INNER
G1 F1050 E11.33999
G1 F900 X240.72 Y125.507 E11.34275
G1 X240.72 Y171.701 E11.951
G1 X179.489 Y171.702 E12.75725
G1 X179.28 Y171.702 E12.76001
G1 X179.28 Y171.493 E12.76179
G1 X179.28 Y125.299 E13.37004
G1 X240.511 Y125.298 E14.17629
G1 X240.72 Y125.298 E14.17807
M204 S580
G0 F2700 X241.14 Y124.878
M204 S435
G1 F900 X241.14 Y125.087 E14.18083
G1 X241.14 Y172.121 E14.80014
G1 X179.069 Y172.122 E15.61745
G1 X178.86 Y172.122 E15.62021
G1 X178.86 Y171.913 E15.62199
G1 X178.86 Y124.879 E16.2413
G1 X240.931 Y124.878 E17.05861
G1 X241.14 Y124.878 E17.0604
M204 S580
G0 F2700 X241.56 Y124.458
M204 S435
G1 F900 X241.56 Y124.667 E17.06315
G1 X241.56 Y172.541 E17.69352
G1 X178.649 Y172.542 E18.5219
G1 X178.44 Y172.542 E18.52465
G1 X178.44 Y172.333 E18.52643
G1 X178.44 Y124.459 E19.15681
G1 X241.351 Y124.458 E19.98518
G1 X241.56 Y124.458 E19.98696
M204 S580
G0 F2700 X242.01 Y124.248
M204 S435
;TYPE:WALL-OUTER
G1 F900 X242.01 Y172.991 E20.72047
G1 X178.23 Y172.992 E21.68026
G1 X177.99 Y172.992 E21.68387
G1 X177.99 Y172.752 E21.6862
G1 X177.99 Y124.009 E22.41971
G1 X241.77 Y124.008 E23.3795
G1 X242.01 Y124.008 E23.38311
G1 X242.01 Y124.248 E23.38545
M204 S580
G0 F2700 X242.01 Y124.448
G0 X241.481 Y124.537
G0 X241.48 Y124.559
G0 X240.28 Y125.738
M204 S435
;TYPE:SKIN
G1 F900 X240.28 Y171.261 E24.0705
G1 X179.72 Y171.262 E24.98183
G1 X179.72 Y125.739 E25.66688
G1 X240.28 Y125.738 E26.57822
M204 S580
G0 F2700 X239.893 Y126.529
M204 S435
G1 F900 X239.487 Y126.124 E26.58685
G1 X239.893 Y126.123 E26.59296
M204 S580
G0 F2700 X239.487 Y126.124
M204 S435
G1 F900 X238.809 Y126.124 E26.60316
G1 X239.893 Y127.208 E26.62623
G1 X239.893 Y127.887 E26.63645
G1 X238.13 Y126.124 E26.67397
G1 X237.451 Y126.124 E26.68418
G1 X239.893 Y128.566 E26.73615
G1 X239.893 Y129.244 E26.74636
G1 X236.772 Y126.124 E26.81277
G1 X236.093 Y126.124 E26.82298
G1 X239.893 Y129.923 E26.90384
G1 X239.893 Y130.602 E26.91406
G1 X235.414 Y126.124 E27.00937
G1 X234.736 Y126.124 E27.01957
G1 X239.893 Y131.281 E27.12932
G1 X239.893 Y131.96 E27.13954
G1 X234.057 Y126.124 E27.26374
G1 X233.378 Y126.124 E27.27396
G1 X239.893 Y132.639 E27.41261
G1 X239.893 Y133.317 E27.42281
G1 X232.699 Y126.124 E27.5759
G1 X232.02 Y126.124 E27.58612
G1 X239.893 Y133.996 E27.75366
G1 X239.893 Y134.675 E27.76388
G1 X231.342 Y126.124 E27.94586
G1 X230.663 Y126.124 E27.95608
G1 X239.893 Y135.354 E28.15251
G1 X239.893 Y136.033 E28.16273
G1 X229.984 Y126.124 E28.37361
G1 X229.305 Y126.124 E28.38382
G1 X239.893 Y136.712 E28.60916
G1 X239.893 Y137.39 E28.61936
G1 X228.626 Y126.124 E28.85913
G1 X227.947 Y126.124 E28.86935
G1 X239.893 Y138.069 E29.12357
G1 X239.893 Y138.748 E29.13378
G1 X227.269 Y126.124 E29.40245
G1 X226.59 Y126.124 E29.41266
G1 X239.893 Y139.427 E29.69577
G1 X239.893 Y140.106 E29.70599
G1 X225.911 Y126.124 E30.00355
G1 X225.232 Y126.124 E30.01377
G1 X239.893 Y140.784 E30.32577
G1 X239.893 Y141.463 E30.33599
G1 X224.553 Y126.124 E30.66244
G1 X223.874 Y126.124 E30.67266
G1 X239.893 Y142.142 E31.01356
G1 X239.893 Y142.821 E31.02378
G1 X223.196 Y126.124 E31.37912
G1 X222.517 Y126.124 E31.38934
G1 X239.893 Y143.5 E31.75913
G1 X239.893 Y144.179 E31.76934
G1 X221.838 Y126.124 E32.15359
G1 X221.159 Y126.124 E32.1638
G1 X239.893 Y144.857 E32.56248
G1 X239.893 Y145.536 E32.5727
G1 X220.48 Y126.124 E32.98583
G1 X219.802 Y126.124 E32.99604
G1 X239.893 Y146.215 E33.42361
G1 X239.893 Y146.894 E33.43383
G1 X219.123 Y126.124 E33.87585
G1 X218.444 Y126.124 E33.88606
G1 X239.893 Y147.573 E34.34254
G1 X239.893 Y148.252 E34.35275
G1 X217.765 Y126.124 E34.82368
G1 X217.086 Y126.124 E34.83389
G1 X239.893 Y148.93 E35.31926
G1 X239.893 Y149.609 E35.32947
G1 X216.407 Y126.124 E35.82929
G1 X215.729 Y126.124 E35.83949
G1 X239.893 Y150.288 E36.35374
G1 X239.893 Y150.967 E36.36396
G1 X215.05 Y126.124 E36.89266
G1 X214.371 Y126.124 E36.90288
G1 X239.893 Y151.646 E37.44603
G1 X239.893 Y152.324 E37.45623
G1 X213.692 Y126.124 E38.01382
G1 X213.013 Y126.124 E38.02404
G1 X239.893 Y153.003 E38.59608
G1 X239.893 Y153.682 E38.6063
G1 X212.334 Y126.124 E39.19279
G1 X211.656 Y126.124 E39.203
G1 X239.893 Y154.361 E39.80393
G1 X239.893 Y155.04 E39.81415
G1 X210.977 Y126.124 E40.42953
G1 X210.298 Y126.124 E40.43975
G1 X239.893 Y155.719 E41.06958
G1 X239.893 Y156.397 E41.07978
G1 X209.62 Y126.125 E41.72403
G1 X208.941 Y126.125 E41.73425
G1 X239.893 Y157.076 E42.39295
G1 X239.893 Y157.755 E42.40317
G1 X208.262 Y126.125 E43.07632
G1 X207.583 Y126.125 E43.08654
G1 X239.893 Y158.434 E43.77414
G1 X239.893 Y159.113 E43.78436
G1 X206.905 Y126.125 E44.4864
G1 X206.226 Y126.125 E44.49662
G1 X239.893 Y159.791 E45.2131
G1 X239.893 Y160.47 E45.22331
G1 X205.547 Y126.125 E45.95425
G1 X204.868 Y126.125 E45.96446
G1 X239.893 Y161.149 E46.70985
G1 X239.893 Y161.828 E46.72006
G1 X204.189 Y126.125 E47.47989
G1 X203.51 Y126.125 E47.49011
G1 X239.893 Y162.507 E48.26439
G1 X239.893 Y163.186 E48.27461
G1 X202.832 Y126.125 E49.06333
G1 X202.153 Y126.125 E49.07355
G1 X239.893 Y163.864 E49.87671
G1 X239.893 Y164.543 E49.88693
G1 X201.474 Y126.125 E50.70454
G1 X200.795 Y126.125 E50.71476
G1 X239.893 Y165.222 E51.54682
G1 X239.893 Y165.901 E51.55704
G1 X200.116 Y126.125 E52.40355
G1 X199.438 Y126.125 E52.41376
G1 X239.893 Y166.58 E53.27471
G1 X239.893 Y167.259 E53.28493
G1 X198.759 Y126.125 E54.16033
G1 X198.08 Y126.125 E54.17055
G1 X239.893 Y167.937 E55.06039
G1 X239.893 Y168.616 E55.0706
G1 X197.401 Y126.125 E55.9749
G1 X196.722 Y126.125 E55.98511
G1 X239.893 Y169.295 E56.90386
G1 X239.893 Y169.974 E56.91407
G1 X196.043 Y126.125 E57.84727
G1 X195.365 Y126.125 E57.85747
G1 X239.893 Y170.653 E58.8051
G1 X239.893 Y170.875 E58.80844
G1 X239.436 Y170.875 E58.81532
G1 X194.686 Y126.125 E59.76768
G1 X194.007 Y126.125 E59.7779
G1 X238.757 Y170.875 E60.73025
G1 X238.078 Y170.875 E60.74047
G1 X193.328 Y126.125 E61.69283
G1 X192.649 Y126.125 E61.70304
G1 X237.399 Y170.875 E62.6554
G1 X236.72 Y170.875 E62.66562
G1 X191.971 Y126.125 E63.61797
G1 X191.292 Y126.125 E63.62818
G1 X236.042 Y170.875 E64.58054
G1 X235.363 Y170.875 E64.59076
G1 X190.613 Y126.125 E65.54311
G1 X189.934 Y126.125 E65.55333
G1 X234.684 Y170.875 E66.50569
G1 X234.005 Y170.875 E66.51591
G1 X189.255 Y126.125 E67.46826
G1 X188.576 Y126.125 E67.47848
G1 X233.326 Y170.875 E68.43084
G1 X232.648 Y170.875 E68.44104
G1 X187.898 Y126.125 E69.3934
G1 X187.219 Y126.125 E69.40362
G1 X231.969 Y170.875 E70.35597
G1 X231.29 Y170.875 E70.36619
G1 X186.54 Y126.125 E71.31855
G1 X185.861 Y126.125 E71.32877
G1 X230.611 Y170.875 E72.28112
G1 X229.932 Y170.875 E72.29134
G1 X185.182 Y126.125 E73.2437
G1 X184.503 Y126.125 E73.25391
G1 X229.253 Y170.875 E74.20627
G1 X228.575 Y170.875 E74.21647
G1 X183.825 Y126.125 E75.16883
G1 X183.146 Y126.125 E75.17905
G1 X227.896 Y170.875 E76.13141
G1 X227.217 Y170.875 E76.14162
G1 X182.467 Y126.125 E77.09398
G1 X181.788 Y126.125 E77.1042
G1 X226.538 Y170.875 E78.05655
G1 X225.859 Y170.875 E78.06677
G1 X181.109 Y126.125 E79.01913
G1 X180.431 Y126.125 E79.02933
G1 X225.18 Y170.875 E79.98168
G1 X224.502 Y170.875 E79.99188
G1 X180.105 Y126.478 E80.93673
G1 X180.105 Y127.156 E80.94693
G1 X223.823 Y170.875 E81.87733
G1 X223.144 Y170.875 E81.88755
G1 X180.105 Y127.835 E82.80351
G1 X180.105 Y128.514 E82.81372
G1 X222.465 Y170.875 E83.71523
G1 X221.786 Y170.875 E83.72545
G1 X180.105 Y129.193 E84.6125
G1 X180.105 Y129.872 E84.62272
G1 X221.108 Y170.875 E85.49533
G1 X220.429 Y170.875 E85.50555
G1 X180.105 Y130.551 E86.36371
G1 X180.105 Y131.229 E86.37392
G1 X219.75 Y170.875 E87.21764
G1 X219.071 Y170.875 E87.22786
G1 X180.105 Y131.908 E88.05713
G1 X180.105 Y132.587 E88.06735
G1 X218.392 Y170.875 E88.88217
G1 X217.713 Y170.875 E88.89239
G1 X180.105 Y133.266 E89.69276
G1 X180.105 Y133.945 E89.70298
G1 X217.035 Y170.875 E90.48892
G1 X216.356 Y170.875 E90.49913
G1 X180.105 Y134.623 E91.27063
G1 X180.105 Y135.302 E91.28085
G1 X215.677 Y170.875 E92.03789
G1 X214.998 Y170.875 E92.04811
G1 X180.105 Y135.981 E92.7907
G1 X180.105 Y136.66 E92.80092
G1 X214.319 Y170.875 E93.52906
G1 X213.641 Y170.875 E93.53927
G1 X180.105 Y137.339 E94.25297
G1 X180.105 Y138.018 E94.26319
G1 X212.962 Y170.875 E94.96244
G1 X212.283 Y170.875 E94.97266
G1 X180.105 Y138.696 E95.65747
G1 X180.105 Y139.375 E95.66769
G1 X211.604 Y170.875 E96.33805
G1 X210.925 Y170.875 E96.34827
G1 X180.105 Y140.054 E97.00418
G1 X180.105 Y140.733 E97.0144
G1 X210.246 Y170.875 E97.65586
G1 X209.568 Y170.875 E97.66607
G1 X180.105 Y141.412 E98.29309
G1 X180.105 Y142.09 E98.30329
G1 X208.889 Y170.875 E98.91588
G1 X208.21 Y170.875 E98.9261
G1 X180.105 Y142.769 E99.52423
G1 X180.105 Y143.448 E99.53445
G1 X207.531 Y170.875 E100.11813
G1 X206.852 Y170.875 E100.12835
G1 X180.105 Y144.127 E100.69758
G1 X180.105 Y144.806 E100.7078
G1 X206.173 Y170.875 E101.26258
G1 X205.495 Y170.875 E101.27278
G1 X180.105 Y145.485 E101.81313
G1 X180.105 Y146.163 E101.82333
G1 X204.816 Y170.875 E102.34923
G1 X204.137 Y170.875 E102.35945
G1 X180.105 Y146.842 E102.8709
G1 X180.105 Y147.521 E102.88112
G1 X203.458 Y170.875 E103.37812
G1 X202.779 Y170.875 E103.38834
G1 X180.105 Y148.2 E103.87089
G1 X180.105 Y148.879 E103.88111
G1 X202.101 Y170.875 E104.34922
G1 X201.422 Y170.875 E104.35944
G1 X180.105 Y149.558 E104.8131
G1 X180.105 Y150.236 E104.82331
G1 X200.743 Y170.875 E105.26253
G1 X200.064 Y170.875 E105.27275
G1 X180.105 Y150.915 E105.69752
G1 X180.105 Y151.594 E105.70774
G1 X199.385 Y170.875 E106.11806
G1 X198.706 Y170.875 E106.12828
G1 X180.105 Y152.273 E106.52415
G1 X180.105 Y152.952 E106.53437
G1 X198.028 Y170.875 E106.9158
G1 X197.349 Y170.875 E106.92602
G1 X180.105 Y153.63 E107.29301
G1 X180.105 Y154.309 E107.30323
G1 X196.67 Y170.875 E107.65577
G1 X195.991 Y170.875 E107.66599
G1 X180.105 Y154.988 E108.00408
G1 X180.105 Y155.667 E108.0143
G1 X195.312 Y170.875 E108.33794
G1 X194.633 Y170.875 E108.34816
G1 X180.105 Y156.346 E108.65735
G1 X180.105 Y157.025 E108.66757
G1 X193.955 Y170.875 E108.96232
G1 X193.276 Y170.875 E108.97254
G1 X180.105 Y157.703 E109.25285
G1 X180.105 Y158.382 E109.26307
G1 X192.597 Y170.875 E109.52893
G1 X191.918 Y170.875 E109.53915
G1 X180.105 Y159.061 E109.79056
G1 X180.105 Y159.74 E109.80078
G1 X191.239 Y170.875 E110.03774
G1 X190.561 Y170.875 E110.04794
G1 X180.105 Y160.419 E110.27046
G1 X180.105 Y161.098 E110.28068
G1 X189.882 Y170.875 E110.48875
G1 X189.203 Y170.875 E110.49897
G1 X180.105 Y161.776 E110.6926
G1 X180.105 Y162.455 E110.70282
G1 X188.524 Y170.875 E110.882
G1 X187.845 Y170.875 E110.89222
G1 X180.105 Y163.134 E111.05695
G1 X180.105 Y163.813 E111.06717
G1 X187.166 Y170.875 E111.21745
G1 X186.488 Y170.875 E111.22765
G1 X180.105 Y164.492 E111.36349
G1 X180.105 Y165.17 E111.37369
