;FLAVOR:Marlin
;TIME:5748
;Filament used: 0m, 0.751838m
;Layer height: 0.1
;MINX:180.8
;MINY:117.3
;MINZ:0.2
;MAXX:239.2
;MAXY:179.7
;MAXZ:9.5
;Generated with StratosEngine 1.5.5
T1
M82 ;absolute extrusion mode
;Machine Model: Sigmax R19 
;Materials used:  T1 PLA 
;Extruders used:  T1 0.4 
M141 S0 	;Set chamber temperature 
M140 S60 	;Heat build surface
M104 T1 S190	;Heat extruder 1
M190 S60 	;Wait until bed temperature reached 
M109 T1 S190	;Heat extruder 1 and wait
G21 		;metric values 
G90 		;absolute positioning 
M204 S600 	;set default acceleration 
M205 X12.5 Y12.5 ;set default jerk 
M107 		;start with the fan off 
G28 X0 Y0 	;move X/Y to min endstops 
G28 Z0 		;move Z to min endstops 
G1 Z5 F200 	;safety Z axis movement

T1
G92 E0 		;set zero the extruded length 
G1 E15 F30
G92 E0 
G4 S2 		;stabilize hotend 
G1 E-0.5 F1000 
G92 E0

G4 P1
G4 P2
G4 P3

G92 E0
;LAYER_COUNT:94
;LAYER:0
M107
M204 S580
M205 X9.38 Y9.38
G1 F600 Z0.4
G0 F2700 X185.653 Y179.7 Z0.4
M204 S435
;TYPE:SKIRT
G1 F600 Z0.2
G1 F1050 E0
G1 F900 X184.377 Y179.643 E0.01922
G1 X183.812 Y179.517 E0.02793
G1 X183.27 Y179.314 E0.03664
G1 X182.76 Y179.038 E0.04537
G1 X182.293 Y178.695 E0.05409
G1 X181.878 Y178.291 E0.0628
G1 X181.523 Y177.833 E0.07152
G1 X181.234 Y177.331 E0.08024
G1 X181.016 Y176.794 E0.08896
G1 X180.875 Y176.233 E0.09767
G1 X180.802 Y175.271 E0.11218
G1 X180.8 Y175.158 E0.11389
G1 X180.8 Y122.117 E0.91207
G1 X180.857 Y120.875 E0.93078
G1 X180.984 Y120.31 E0.93949
G1 X181.187 Y119.767 E0.94822
G1 X181.463 Y119.258 E0.95693
G1 X181.807 Y118.791 E0.96566
G1 X182.211 Y118.377 E0.97436
G1 X182.669 Y118.021 E0.98309
G1 X183.171 Y117.733 E0.9918
G1 X183.708 Y117.516 E1.00052
G1 X184.27 Y117.375 E1.00924
G1 X185.212 Y117.302 E1.02346
G1 X185.33 Y117.3 E1.02523
G1 X234.353 Y117.3 E1.76295
G1 X235.628 Y117.359 E1.78216
G1 X236.194 Y117.486 E1.79089
G1 X236.736 Y117.69 E1.7996
G1 X237.245 Y117.966 E1.80832
G1 X237.711 Y118.31 E1.81703
G1 X238.126 Y118.715 E1.82576
G1 X238.481 Y119.173 E1.83448
G1 X238.769 Y119.675 E1.84319
G1 X238.986 Y120.212 E1.8519
G1 X239.126 Y120.774 E1.86062
G1 X239.198 Y121.712 E1.87478
G1 X239.2 Y121.83 E1.87655
G1 X239.2 Y125.853 E1.93709
G1 X239.19 Y126.554 E1.94764
G1 X239.097 Y127.373 E1.96005
G1 X238.887 Y128.354 E1.97514
G1 X238.354 Y131.012 E2.01594
G1 X237.895 Y133.697 E2.05693
G1 X237.516 Y136.368 E2.09753
G1 X237.211 Y139.055 E2.13822
G1 X236.98 Y141.774 E2.17929
G1 X236.828 Y144.466 E2.21986
G1 X236.753 Y147.161 E2.26043
G1 X236.753 Y149.894 E2.30156
G1 X236.83 Y152.593 E2.34219
G1 X236.983 Y155.279 E2.38268
G1 X237.216 Y158.009 E2.42391
G1 X237.521 Y160.686 E2.46446
G1 X237.902 Y163.36 E2.5051
G1 X238.363 Y166.05 E2.54617
G1 X238.9 Y168.72 E2.58716
G1 X239.108 Y169.677 E2.60189
G1 X239.198 Y170.702 E2.61738
G1 X239.2 Y170.83 E2.6193
G1 X239.2 Y174.816 E2.67929
G1 X239.144 Y176.12 E2.69893
G1 X239.017 Y176.686 E2.70766
G1 X238.815 Y177.228 E2.71636
G1 X238.539 Y177.738 E2.72509
G1 X238.196 Y178.205 E2.73381
G1 X237.792 Y178.62 E2.74252
G1 X237.335 Y178.976 E2.75124
G1 X236.833 Y179.265 E2.75996
G1 X236.296 Y179.483 E2.76868
G1 X235.735 Y179.625 E2.77739
G1 X234.788 Y179.698 E2.79168
G1 X234.67 Y179.7 E2.79346
G1 X185.653 Y179.7 E3.53109
M204 S580
G0 F2700 X185.659 Y179.22
M204 S435
G1 F900 X184.418 Y179.164 E3.54978
G1 X183.887 Y179.038 E3.55799
G1 X183.381 Y178.836 E3.56619
G1 X182.91 Y178.562 E3.57439
G1 X182.483 Y178.222 E3.58261
G1 X182.111 Y177.824 E3.5908
G1 X181.802 Y177.375 E3.59901
G1 X181.561 Y176.886 E3.60721
G1 X181.394 Y176.367 E3.61541
G1 X181.281 Y175.259 E3.63217
G1 X181.28 Y122.124 E4.43177
G1 X181.337 Y120.916 E4.44997
G1 X181.463 Y120.385 E4.45818
G1 X181.665 Y119.879 E4.46638
G1 X181.939 Y119.408 E4.47458
G1 X182.279 Y118.982 E4.48279
G1 X182.678 Y118.61 E4.49099
G1 X183.127 Y118.3 E4.49921
G1 X183.616 Y118.06 E4.5074
G1 X184.135 Y117.893 E4.51561
G1 X185.226 Y117.781 E4.53211
G1 X234.346 Y117.78 E5.27129
G1 X235.587 Y117.838 E5.28999
G1 X236.118 Y117.965 E5.2982
G1 X236.624 Y118.167 E5.3064
G1 X237.095 Y118.442 E5.31461
G1 X237.52 Y118.782 E5.3228
G1 X237.892 Y119.181 E5.33101
G1 X238.201 Y119.63 E5.33921
G1 X238.441 Y120.12 E5.34742
G1 X238.608 Y120.639 E5.35563
G1 X238.719 Y121.725 E5.37205
G1 X238.72 Y125.846 E5.43407
G1 X238.71 Y126.547 E5.44462
G1 X238.628 Y127.273 E5.45561
G1 X238.417 Y128.254 E5.47071
G1 X237.886 Y130.904 E5.51138
G1 X237.421 Y133.621 E5.55286
G1 X237.039 Y136.314 E5.5938
G1 X236.734 Y138.997 E5.63443
G1 X236.501 Y141.741 E5.67587
G1 X236.35 Y144.425 E5.71633
G1 X236.273 Y147.184 E5.75786
G1 X236.273 Y149.908 E5.79885
G1 X236.35 Y152.597 E5.83934
G1 X236.506 Y155.347 E5.88078
G1 X236.735 Y158.032 E5.92134
G1 X237.044 Y160.739 E5.96234
G1 X237.433 Y163.47 E6.00385
G1 X237.887 Y166.118 E6.04428
G1 X238.424 Y168.791 E6.08531
G1 X238.598 Y169.571 E6.09733
G1 X238.708 Y170.388 E6.10974
G1 X238.72 Y170.83 E6.11639
G1 X238.72 Y174.81 E6.17629
G1 X238.664 Y176.08 E6.19542
G1 X238.538 Y176.611 E6.20363
G1 X238.337 Y177.117 E6.21182
G1 X238.063 Y177.589 E6.22003
G1 X237.724 Y178.015 E6.22823
G1 X237.325 Y178.387 E6.23644
G1 X236.877 Y178.698 E6.24464
G1 X236.388 Y178.939 E6.25285
G1 X235.869 Y179.106 E6.26105
G1 X234.774 Y179.219 E6.27762
G1 X185.659 Y179.22 E7.01672
M204 S580
G0 F2700 X185.665 Y178.74
M204 S435
G1 F900 X184.461 Y178.684 E7.03486
G1 X183.968 Y178.559 E7.04251
G1 X183.5 Y178.358 E7.05018
G1 X183.07 Y178.087 E7.05783
G1 X182.688 Y177.751 E7.06548
G1 X182.362 Y177.36 E7.07314
G1 X182.102 Y176.923 E7.0808
G1 X181.914 Y176.45 E7.08846
G1 X181.802 Y175.954 E7.09611
G1 X181.76 Y175.158 E7.1081
G1 X181.76 Y122.13 E7.90609
G1 X181.816 Y120.959 E7.92373
G1 X181.942 Y120.466 E7.93139
G1 X182.143 Y119.998 E7.93906
G1 X182.415 Y119.568 E7.94671
G1 X182.75 Y119.186 E7.95436
G1 X183.142 Y118.861 E7.96202
G1 X183.579 Y118.602 E7.96966
G1 X184.052 Y118.414 E7.97732
G1 X184.548 Y118.302 E7.98498
G1 X185.33 Y118.26 E7.99676
G1 X234.339 Y118.26 E8.73427
G1 X235.544 Y118.318 E8.75242
G1 X236.037 Y118.443 E8.76008
G1 X236.504 Y118.645 E8.76774
G1 X236.934 Y118.917 E8.77539
G1 X237.316 Y119.253 E8.78305
G1 X237.64 Y119.645 E8.7907
G1 X237.9 Y120.083 E8.79837
G1 X238.087 Y120.555 E8.80601
G1 X238.198 Y121.052 E8.81367
G1 X238.24 Y121.83 E8.82539
G1 X238.24 Y125.839 E8.88572
G1 X238.23 Y126.54 E8.89627
G1 X238.158 Y127.172 E8.90585
G1 X237.957 Y128.112 E8.92031
G1 X237.411 Y130.836 E8.96212
G1 X236.948 Y133.54 E9.0034
G1 X236.56 Y136.27 E9.0449
G1 X236.254 Y138.967 E9.08574
G1 X236.024 Y141.675 E9.12664
G1 X235.87 Y144.42 E9.16801
G1 X235.793 Y147.171 E9.20943
G1 X235.793 Y149.886 E9.25028
G1 X235.872 Y152.641 E9.29176
G1 X236.027 Y155.379 E9.33303
G1 X236.259 Y158.09 E9.37397
G1 X236.567 Y160.793 E9.41491
G1 X236.959 Y163.546 E9.45676
G1 X237.413 Y166.192 E9.49716
G1 X237.965 Y168.939 E9.53932
G1 X238.167 Y169.866 E9.5536
G1 X238.239 Y170.732 E9.56668
G1 X238.24 Y174.804 E9.62796
G1 X238.185 Y176.038 E9.64654
G1 X238.06 Y176.531 E9.6542
G1 X237.859 Y176.998 E9.66185
G1 X237.588 Y177.429 E9.66951
G1 X237.252 Y177.811 E9.67717
G1 X236.861 Y178.137 E9.68483
G1 X236.424 Y178.397 E9.69248
G1 X235.952 Y178.585 E9.70012
G1 X235.455 Y178.698 E9.70779
G1 X234.67 Y178.74 E9.71962
G1 X185.665 Y178.74 E10.45707
M204 S580
G1 F2100 E3.95707
;MESH:top_adapter_1.stl
G0 F2700 X185.704 Y174.796
G0 X193.164 Y171.974
M204 S435
;TYPE:WALL-INNER
G1 F1050 E10.45707
G1 F900 X194.601 Y172.03 E10.47601
G1 X233.47 Y172.03 E10.98781
G1 X233.47 Y173.97 E11.01336
G1 X186.53 Y173.97 E11.63143
G1 X186.53 Y123.03 E12.30218
G1 X233.47 Y123.03 E12.92026
G1 X233.47 Y124.97 E12.9458
G1 X193.941 Y124.97 E13.4663
G1 X193.126 Y125.034 E13.47706
G1 X192.28 Y125.24 E13.48853
G1 X191.48 Y125.573 E13.49994
G1 X190.741 Y126.025 E13.51134
G1 X190.082 Y126.592 E13.52279
G1 X189.52 Y127.251 E13.53419
G1 X189.066 Y127.99 E13.54561
G1 X188.736 Y128.792 E13.55703
G1 X188.526 Y129.661 E13.56881
G1 X188.47 Y131.022 E13.58674
G1 X188.47 Y166.559 E14.05467
G1 X188.534 Y167.374 E14.06544
G1 X188.74 Y168.22 E14.0769
G1 X189.073 Y169.02 E14.08831
G1 X189.525 Y169.759 E14.09972
G1 X190.092 Y170.418 E14.11116
G1 X190.751 Y170.98 E14.12257
G1 X191.49 Y171.434 E14.13399
G1 X192.292 Y171.764 E14.14541
G1 X193.164 Y171.974 E14.15722
M204 S580
G0 F2700 X193.222 Y171.556
M204 S435
G1 F900 X194.609 Y171.61 E14.1755
G1 X233.89 Y171.61 E14.69272
G1 X233.89 Y174.39 E14.72933
G1 X186.11 Y174.39 E15.35847
G1 X186.11 Y122.61 E16.04027
G1 X233.89 Y122.61 E16.66941
G1 X233.89 Y125.39 E16.70602
G1 X193.957 Y125.39 E17.23183
G1 X193.192 Y125.45 E17.24193
G1 X192.411 Y125.64 E17.25252
G1 X191.672 Y125.948 E17.26306
G1 X190.989 Y126.366 E17.2736
G1 X190.381 Y126.889 E17.28416
G1 X189.861 Y127.499 E17.29472
G1 X189.442 Y128.181 E17.30526
G1 X189.137 Y128.922 E17.31581
G1 X188.944 Y129.72 E17.32662
G1 X188.89 Y131.031 E17.3439
G1 X188.89 Y166.543 E17.8115
G1 X188.95 Y167.308 E17.8216
G1 X189.14 Y168.089 E17.83219
G1 X189.448 Y168.828 E17.84273
G1 X189.866 Y169.511 E17.85327
G1 X190.389 Y170.119 E17.86383
G1 X190.999 Y170.639 E17.87439
G1 X191.681 Y171.058 E17.88493
G1 X192.422 Y171.363 E17.89548
G1 X193.222 Y171.556 E17.90631
M204 S580
G0 F2700 X193.28 Y171.138
M204 S435
G1 F900 X194.617 Y171.19 E17.92393
G1 X234.31 Y171.19 E18.44658
G1 X234.31 Y174.81 E18.49425
G1 X185.69 Y174.81 E19.13445
G1 X185.69 Y122.19 E19.82732
G1 X234.31 Y122.19 E20.46751
G1 X234.31 Y125.81 E20.51518
G1 X193.973 Y125.81 E21.04631
G1 X193.258 Y125.866 E21.05576
G1 X192.542 Y126.04 E21.06546
G1 X191.864 Y126.323 E21.07513
G1 X191.237 Y126.707 E21.08481
G1 X190.679 Y127.186 E21.0945
G1 X190.202 Y127.746 E21.10418
G1 X189.818 Y128.372 E21.11385
G1 X189.538 Y129.052 E21.12354
G1 X189.362 Y129.779 E21.13339
G1 X189.31 Y131.04 E21.15
G1 X189.31 Y166.527 E21.61728
G1 X189.366 Y167.242 E21.62672
G1 X189.54 Y167.958 E21.63642
G1 X189.823 Y168.636 E21.6461
G1 X190.207 Y169.263 E21.65578
G1 X190.686 Y169.821 E21.66546
G1 X191.246 Y170.298 E21.67515
G1 X191.872 Y170.682 E21.68482
G1 X192.552 Y170.962 E21.6945
G1 X193.28 Y171.138 E21.70436
M204 S580
G0 F2700 X193.342 Y170.69
M204 S435
;TYPE:WALL-OUTER
G1 F900 X194.626 Y170.74 E21.7237
G1 X234.76 Y170.74 E22.32765
G1 X234.76 Y175.26 E22.39567
G1 X185.24 Y175.26 E23.14087
G1 X185.24 Y121.74 E23.94626
G1 X234.76 Y121.74 E24.69146
G1 X234.76 Y126.26 E24.75948
G1 X193.991 Y126.26 E25.37299
G1 X193.329 Y126.312 E25.38298
G1 X192.683 Y126.469 E25.39299
G1 X192.069 Y126.725 E25.403
G1 X191.503 Y127.072 E25.41299
G1 X190.999 Y127.505 E25.42299
G1 X190.567 Y128.011 E25.433
G1 X190.22 Y128.577 E25.44299
G1 X189.967 Y129.191 E25.45299
G1 X189.81 Y129.842 E25.46306
G1 X189.76 Y131.049 E25.48124
G1 X189.76 Y166.509 E26.01486
G1 X189.812 Y167.171 E26.02485
G1 X189.969 Y167.817 E26.03486
G1 X190.225 Y168.431 E26.04487
G1 X190.572 Y168.997 E26.05486
G1 X191.005 Y169.501 E26.06486
G1 X191.511 Y169.933 E26.07487
G1 X192.077 Y170.28 E26.08486
G1 X192.691 Y170.533 E26.09485
G1 X193.342 Y170.69 E26.10493
M204 S580
G0 F2700 X193.542 Y170.697
G0 X193.521 Y171.225
G0 X193.521 Y171.246
G0 X193.103 Y172.412
M204 S435
;TYPE:SKIN
G1 F900 X194.593 Y172.47 E26.12737
G1 X233.03 Y172.47 E26.70579
G1 X233.03 Y173.53 E26.72174
G1 X186.97 Y173.53 E27.41487
G1 X186.97 Y123.47 E28.16819
G1 X233.03 Y123.47 E28.86133
G1 X233.03 Y124.53 E28.87728
G1 X193.924 Y124.53 E29.46576
G1 X193.057 Y124.598 E29.47885
G1 X192.142 Y124.821 E29.49302
G1 X191.279 Y125.18 E29.50709
G1 X190.481 Y125.669 E29.52117
G1 X189.77 Y126.28 E29.53528
G1 X189.163 Y126.991 E29.54935
G1 X188.672 Y127.789 E29.56345
G1 X188.317 Y128.656 E29.57754
G1 X188.088 Y129.6 E29.59216
G1 X188.03 Y131.013 E29.61344
G1 X188.03 Y166.576 E30.14861
G1 X188.098 Y167.443 E30.1617
G1 X188.321 Y168.358 E30.17587
G1 X188.68 Y169.221 E30.18994
G1 X189.169 Y170.019 E30.20402
G1 X189.78 Y170.73 E30.21813
G1 X190.491 Y171.337 E30.2322
G1 X191.289 Y171.828 E30.2463
G1 X192.156 Y172.183 E30.26039
G1 X193.103 Y172.412 E30.27506
M204 S580
G0 F2700 X187.355 Y173.143
M204 S435
G1 F900 X187.398 Y173.143 E30.2757
G1 X188.077 Y173.143 E30.28592
G1 X187.355 Y172.42 E30.3013
G1 X187.355 Y171.742 E30.3115
G1 X188.756 Y173.143 E30.34132
G1 X189.435 Y173.143 E30.35153
G1 X187.355 Y171.063 E30.3958
G1 X187.355 Y170.384 E30.40602
G1 X190.114 Y173.143 E30.46473
G1 X190.792 Y173.143 E30.47494
G1 X187.355 Y169.705 E30.54809
G1 X187.355 Y169.026 E30.55831
G1 X191.471 Y173.143 E30.64592
G1 X192.15 Y173.143 E30.65613
G1 X191.228 Y172.221 E30.67576
G1 X192.036 Y172.551 E30.68889
G1 X192.301 Y172.615 E30.69299
G1 X192.829 Y173.143 E30.70423
G1 X193.508 Y173.143 E30.71445
G1 X193.166 Y172.801 E30.72173
G1 X193.872 Y172.828 E30.73236
G1 X194.187 Y173.143 E30.73906
G1 X194.865 Y173.143 E30.74926
G1 X194.578 Y172.856 E30.75537
G1 X194.584 Y172.856 E30.75546
G1 X195.257 Y172.856 E30.76559
G1 X195.544 Y173.143 E30.7717
G1 X196.223 Y173.143 E30.78192
G1 X195.936 Y172.856 E30.78802
G1 X196.615 Y172.856 E30.79824
G1 X196.902 Y173.143 E30.80435
G1 X197.581 Y173.143 E30.81457
G1 X197.294 Y172.856 E30.82068
G1 X197.972 Y172.856 E30.83088
G1 X198.26 Y173.143 E30.837
G1 X198.938 Y173.143 E30.8472
G1 X198.651 Y172.856 E30.85331
G1 X199.33 Y172.856 E30.86353
G1 X199.617 Y173.143 E30.86963
G1 X200.296 Y173.143 E30.87985
G1 X200.009 Y172.856 E30.88596
G1 X200.688 Y172.856 E30.89618
G1 X200.975 Y173.143 E30.90228
G1 X201.654 Y173.143 E30.9125
G1 X201.367 Y172.856 E30.91861
G1 X202.045 Y172.856 E30.92881
G1 X202.332 Y173.143 E30.93492
G1 X203.011 Y173.143 E30.94514
G1 X202.724 Y172.856 E30.95125
G1 X203.403 Y172.856 E30.96146
G1 X203.69 Y173.143 E30.96757
G1 X204.369 Y173.143 E30.97779
G1 X204.082 Y172.856 E30.9839
G1 X204.761 Y172.856 E30.99412
G1 X205.048 Y173.143 E31.00022
G1 X205.727 Y173.143 E31.01044
G1 X205.439 Y172.856 E31.01656
G1 X206.118 Y172.856 E31.02678
G1 X206.405 Y173.143 E31.03289
G1 X207.084 Y173.143 E31.0431
G1 X206.797 Y172.856 E31.04921
G1 X207.476 Y172.856 E31.05943
G1 X207.763 Y173.143 E31.06554
G1 X208.442 Y173.143 E31.07576
G1 X208.155 Y172.856 E31.08186
G1 X208.834 Y172.856 E31.09208
G1 X209.121 Y173.143 E31.09819
G1 X209.799 Y173.143 E31.10839
G1 X209.512 Y172.856 E31.1145
G1 X210.191 Y172.856 E31.12472
G1 X210.478 Y173.143 E31.13083
G1 X211.157 Y173.143 E31.14104
G1 X210.87 Y172.856 E31.14715
G1 X211.549 Y172.856 E31.15737
G1 X211.836 Y173.143 E31.16348
G1 X212.515 Y173.143 E31.17369
G1 X212.228 Y172.856 E31.1798
G1 X212.907 Y172.856 E31.19002
G1 X213.194 Y173.143 E31.19613
G1 X213.872 Y173.143 E31.20633
G1 X213.585 Y172.856 E31.21244
G1 X214.264 Y172.856 E31.22266
G1 X214.551 Y173.143 E31.22876
G1 X215.23 Y173.143 E31.23898
G1 X214.943 Y172.856 E31.24509
G1 X215.622 Y172.856 E31.25531
G1 X215.909 Y173.143 E31.26142
G1 X216.588 Y173.143 E31.27163
G1 X216.301 Y172.856 E31.27774
G1 X216.979 Y172.856 E31.28794
G1 X217.267 Y173.143 E31.29406
G1 X217.945 Y173.143 E31.30427
G1 X217.658 Y172.856 E31.31037
G1 X218.337 Y172.856 E31.32059
G1 X218.624 Y173.143 E31.3267
G1 X219.303 Y173.143 E31.33692
G1 X219.016 Y172.856 E31.34303
G1 X219.695 Y172.856 E31.35324
G1 X219.982 Y173.143 E31.35935
G1 X220.661 Y173.143 E31.36957
G1 X220.374 Y172.856 E31.37568
G1 X221.052 Y172.856 E31.38588
G1 X221.339 Y173.143 E31.39199
G1 X222.018 Y173.143 E31.40221
G1 X221.731 Y172.856 E31.40831
G1 X222.41 Y172.856 E31.41853
G1 X222.697 Y173.143 E31.42464
G1 X223.376 Y173.143 E31.43486
G1 X223.089 Y172.856 E31.44097
G1 X223.768 Y172.856 E31.45118
G1 X224.055 Y173.143 E31.45729
G1 X224.734 Y173.143 E31.46751
G1 X224.447 Y172.856 E31.47362
G1 X225.125 Y172.856 E31.48382
G1 X225.412 Y173.143 E31.48993
G1 X226.091 Y173.143 E31.50015
G1 X225.804 Y172.856 E31.50625
G1 X226.483 Y172.856 E31.51647
G1 X226.77 Y173.143 E31.52258
G1 X227.449 Y173.143 E31.5328
G1 X227.162 Y172.856 E31.5389
G1 X227.841 Y172.856 E31.54912
G1 X228.128 Y173.143 E31.55523
G1 X228.807 Y173.143 E31.56545
G1 X228.519 Y172.856 E31.57157
G1 X229.198 Y172.856 E31.58178
G1 X229.485 Y173.143 E31.58789
G1 X230.164 Y173.143 E31.59811
G1 X229.877 Y172.856 E31.60422
G1 X230.556 Y172.856 E31.61444
G1 X230.843 Y173.143 E31.62054
G1 X231.522 Y173.143 E31.63076
G1 X231.235 Y172.856 E31.63687
