;FLAVOR:Marlin
;TIME:1467
;Filament used: 0m, 0.141307m
;Layer height: 0.1
;MINX:200.872
;MINY:130.462
;MINZ:0.2
;MAXX:219.116
;MAXY:166.521
;MAXZ:15.2
;Generated with StratosEngine 1.5.5
T1
M82 ;absolute extrusion mode
;Machine Model: Sigmax R19 
;Materials used:  T1 PLA 
;Extruders used:  T1 0.4 
M141 S0 	;Set chamber temperature 
M140 S60 	;Heat build surface
M104 T1 S190	;Heat extruder 1
M190 S60 	;Wait until bed temperature reached 
M109 T1 S190	;Heat extruder 1 and wait
G21 		;metric values 
G90 		;absolute positioning 
M204 S600 	;set default acceleration 
M205 X12.5 Y12.5 ;set default jerk 
M107 		;start with the fan off 
G28 X0 Y0 	;move X/Y to min endstops 
G28 Z0 		;move Z to min endstops 
G1 Z5 F200 	;safety Z axis movement

T1
G92 E0 		;set zero the extruded length 
G1 E15 F30
G92 E0 
G4 S2 		;stabilize hotend 
G1 E-0.5 F1000 
G92 E0

G4 P1
G4 P2
G4 P3

G92 E0
;LAYER_COUNT:151
;LAYER:0
M107
M204 S580
M205 X9.38 Y9.38
G1 F600 Z0.4
G0 F2700 X210.156 Y166.521 Z0.4
M204 S435
;TYPE:SKIRT
G1 F600 Z0.2
G1 F1050 E0
G1 F900 X209.086 Y166.446 E0.01614
G1 X208.119 Y166.238 E0.03103
G1 X207.166 Y165.945 E0.04603
G1 X206.258 Y165.516 E0.06114
G1 X205.34 Y164.977 E0.07716
G1 X204.547 Y164.339 E0.09248
G1 X203.848 Y163.673 E0.10701
G1 X203.181 Y162.823 E0.12327
G1 X202.62 Y161.948 E0.13891
G1 X202.212 Y161.053 E0.15371
G1 X201.867 Y160.08 E0.16924
G1 X201.676 Y159.141 E0.18366
G1 X201.612 Y158.718 E0.1901
G1 X201.554 Y157.706 E0.20536
G1 X201.572 Y156.99 E0.21613
G1 X201.601 Y154.243 E0.25747
G1 X201.56 Y151.626 E0.29686
G1 X201.567 Y149.861 E0.32342
G1 X201.539 Y147.095 E0.36505
G1 X201.436 Y144.468 E0.40461
G1 X201.259 Y141.819 E0.44456
G1 X201.006 Y139.17 E0.48461
G1 X200.901 Y138.2 E0.49929
G1 X200.872 Y137.502 E0.5098
G1 X200.923 Y136.804 E0.52033
G1 X201.103 Y135.886 E0.53441
G1 X201.295 Y135.213 E0.54494
G1 X201.563 Y134.567 E0.55547
G1 X201.96 Y133.868 E0.56757
G1 X202.563 Y133.023 E0.58319
G1 X203.296 Y132.284 E0.59885
G1 X204.032 Y131.709 E0.61291
G1 X204.804 Y131.237 E0.62652
G1 X205.443 Y130.952 E0.63705
G1 X206.322 Y130.688 E0.65086
G1 X207.356 Y130.496 E0.66669
G1 X208.055 Y130.462 E0.67722
G1 X208.916 Y130.528 E0.69021
G1 X209.956 Y130.719 E0.70613
G1 X210.621 Y130.938 E0.71666
G1 X211.478 Y131.349 E0.73097
G1 X212.321 Y131.868 E0.74586
G1 X212.862 Y132.311 E0.75639
G1 X213.523 Y133.015 E0.77092
G1 X213.723 Y133.256 E0.77563
G1 X214.223 Y133.968 E0.78872
G1 X214.801 Y134.93 E0.80561
G1 X215.192 Y135.6 E0.81729
G1 X217.07 Y138.585 E0.87036
G1 X217.697 Y139.541 E0.88756
G1 X218.265 Y140.583 E0.90542
G1 X218.681 Y141.576 E0.92162
G1 X218.861 Y142.252 E0.93215
G1 X218.962 Y142.944 E0.94267
G1 X218.979 Y143.782 E0.95528
G1 X218.917 Y145.05 E0.97439
G1 X218.825 Y147.69 E1.01414
G1 X218.808 Y150.346 E1.05411
G1 X218.867 Y153.044 E1.09472
G1 X218.998 Y155.68 E1.13444
G1 X219.075 Y156.732 E1.15031
G1 X219.116 Y157.576 E1.16303
G1 X219.095 Y158.511 E1.1771
G1 X218.941 Y159.49 E1.19201
G1 X218.674 Y160.538 E1.20829
G1 X218.291 Y161.46 E1.22331
G1 X217.829 Y162.351 E1.23842
G1 X217.277 Y163.126 E1.25273
G1 X216.567 Y163.951 E1.26911
G1 X215.789 Y164.628 E1.28463
G1 X215.016 Y165.192 E1.29903
G1 X214.102 Y165.677 E1.3146
G1 X213.095 Y166.094 E1.33101
G1 X212.188 Y166.327 E1.3451
G1 X211.147 Y166.5 E1.36098
G1 X210.156 Y166.521 E1.37589
M204 S580
G0 F2700 X210.157 Y166.041
M204 S435
G1 F900 X209.132 Y165.968 E1.39136
G1 X208.231 Y165.771 E1.40524
G1 X207.316 Y165.488 E1.41965
G1 X206.475 Y165.088 E1.43366
G1 X205.593 Y164.568 E1.44907
G1 X204.857 Y163.973 E1.46331
G1 X204.186 Y163.331 E1.47729
G1 X203.566 Y162.537 E1.49245
G1 X203.031 Y161.698 E1.50742
G1 X202.653 Y160.864 E1.5212
G1 X202.323 Y159.93 E1.53611
G1 X202.149 Y159.057 E1.5495
G1 X202.088 Y158.651 E1.55568
G1 X202.034 Y157.718 E1.56975
G1 X202.052 Y157.007 E1.58045
G1 X202.081 Y154.24 E1.62209
G1 X202.04 Y151.628 E1.6614
G1 X202.047 Y149.856 E1.68807
G1 X202.019 Y147.106 E1.72945
G1 X201.914 Y144.418 E1.76993
G1 X201.737 Y141.778 E1.80975
G1 X201.483 Y139.111 E1.85007
G1 X201.378 Y138.153 E1.86457
G1 X201.352 Y137.482 E1.87468
G1 X201.406 Y136.813 E1.88478
G1 X201.571 Y135.991 E1.89739
G1 X201.758 Y135.346 E1.9075
G1 X202.019 Y134.728 E1.91759
G1 X202.547 Y133.848 E1.93304
G1 X202.948 Y133.31 E1.94313
G1 X203.607 Y132.649 E1.95718
G1 X204.3 Y132.107 E1.97042
G1 X205.049 Y131.651 E1.98362
G1 X205.664 Y131.381 E1.99372
G1 X206.438 Y131.153 E2.00587
G1 X207.433 Y130.97 E2.02109
G1 X208.104 Y130.943 E2.0312
G1 X209.025 Y131.027 E2.04511
G1 X209.858 Y131.19 E2.05789
G1 X210.495 Y131.405 E2.068
G1 X211.254 Y131.773 E2.0807
G1 X212.061 Y132.273 E2.09498
G1 X212.577 Y132.701 E2.10507
G1 X213.159 Y133.328 E2.11794
G1 X213.351 Y133.56 E2.12248
G1 X213.812 Y134.216 E2.13454
G1 X214.387 Y135.172 E2.15133
G1 X214.781 Y135.846 E2.16308
G1 X216.67 Y138.849 E2.21647
G1 X217.296 Y139.804 E2.23365
G1 X217.836 Y140.798 E2.25067
G1 X218.233 Y141.751 E2.26621
G1 X218.401 Y142.401 E2.27631
G1 X218.491 Y143.067 E2.28642
G1 X218.499 Y143.758 E2.29682
G1 X218.441 Y144.948 E2.31475
G1 X218.344 Y147.705 E2.35627
G1 X218.328 Y150.353 E2.39612
G1 X218.387 Y153.043 E2.43661
G1 X218.519 Y155.696 E2.47658
G1 X218.596 Y156.756 E2.49257
G1 X218.636 Y157.587 E2.50509
G1 X218.615 Y158.493 E2.51873
G1 X218.469 Y159.405 E2.53263
G1 X218.211 Y160.407 E2.5482
G1 X217.852 Y161.267 E2.56222
G1 X217.407 Y162.12 E2.5767
G1 X216.893 Y162.837 E2.58998
G1 X216.21 Y163.629 E2.60571
G1 X215.482 Y164.258 E2.62019
G1 X214.74 Y164.798 E2.634
G1 X213.888 Y165.247 E2.6485
G1 X212.922 Y165.645 E2.66422
G1 X212.079 Y165.859 E2.67731
G1 X211.079 Y166.024 E2.69256
G1 X210.157 Y166.041 E2.70643
M204 S580
G0 F2700 X210.158 Y165.561
M204 S435
G1 F900 X209.178 Y165.489 E2.72122
G1 X208.343 Y165.304 E2.73409
G1 X207.468 Y165.032 E2.74788
G1 X206.691 Y164.66 E2.76084
G1 X205.848 Y164.16 E2.77559
G1 X205.166 Y163.606 E2.78882
G1 X204.525 Y162.99 E2.80219
G1 X203.952 Y162.25 E2.81628
G1 X203.442 Y161.449 E2.83057
G1 X203.094 Y160.674 E2.84335
G1 X202.78 Y159.78 E2.85761
G1 X202.621 Y158.972 E2.87
G1 X202.563 Y158.584 E2.87591
G1 X202.514 Y157.73 E2.88878
G1 X202.532 Y157.019 E2.89948
G1 X202.562 Y154.237 E2.94135
G1 X202.52 Y151.629 E2.9806
G1 X202.527 Y149.851 E3.00736
G1 X202.499 Y147.083 E3.04901
G1 X202.394 Y144.403 E3.08938
G1 X202.218 Y141.769 E3.1291
G1 X201.958 Y139.052 E3.17017
G1 X201.856 Y138.106 E3.18449
G1 X201.833 Y137.464 E3.19416
G1 X201.957 Y136.466 E3.20929
G1 X202.219 Y135.48 E3.22465
G1 X202.474 Y134.891 E3.23431
G1 X202.948 Y134.112 E3.24803
G1 X203.333 Y133.598 E3.25769
G1 X203.918 Y133.015 E3.27012
G1 X204.567 Y132.505 E3.28254
G1 X205.293 Y132.066 E3.29531
G1 X205.883 Y131.813 E3.30497
G1 X206.691 Y131.587 E3.31759
G1 X207.509 Y131.445 E3.33009
G1 X208.151 Y131.424 E3.33975
G1 X208.955 Y131.501 E3.35191
G1 X209.759 Y131.661 E3.36425
G1 X210.366 Y131.871 E3.37391
G1 X211.153 Y132.265 E3.38716
G1 X211.799 Y132.676 E3.39868
G1 X212.29 Y133.09 E3.40834
G1 X212.882 Y133.744 E3.42162
G1 X213.401 Y134.463 E3.43496
G1 X213.972 Y135.415 E3.45167
G1 X214.355 Y136.07 E3.46308
G1 X216.271 Y139.117 E3.51725
G1 X216.894 Y140.067 E3.53435
G1 X217.406 Y141.012 E3.55052
G1 X217.785 Y141.925 E3.5654
G1 X217.941 Y142.548 E3.57506
G1 X218.017 Y143.186 E3.58473
G1 X218.02 Y143.735 E3.59299
G1 X217.961 Y144.932 E3.61103
G1 X217.865 Y147.686 E3.65249
G1 X217.847 Y150.361 E3.69275
G1 X217.906 Y153.042 E3.7331
G1 X218.042 Y155.757 E3.77401
G1 X218.116 Y156.781 E3.78946
G1 X218.156 Y157.597 E3.80176
G1 X218.134 Y158.474 E3.81496
G1 X217.997 Y159.319 E3.82784
G1 X217.749 Y160.275 E3.8427
G1 X217.412 Y161.074 E3.85575
G1 X216.986 Y161.889 E3.86959
G1 X216.51 Y162.548 E3.88182
G1 X215.854 Y163.306 E3.89691
G1 X215.175 Y163.889 E3.91038
G1 X214.464 Y164.404 E3.92359
G1 X213.675 Y164.817 E3.93699
G1 X212.751 Y165.196 E3.95202
G1 X211.97 Y165.392 E3.96414
G1 X211.012 Y165.547 E3.97874
G1 X210.158 Y165.561 E3.99159
M204 S580
G0 F2700 X209.834 Y165.072
M204 S435
G1 F900 X208.91 Y164.946 E4.00563
G1 X208.2 Y164.771 E4.01663
G1 X207.292 Y164.425 E4.03125
G1 X206.621 Y164.078 E4.04262
G1 X205.83 Y163.538 E4.05703
G1 X205.297 Y163.083 E4.06758
G1 X204.633 Y162.362 E4.08233
G1 X204.169 Y161.726 E4.09418
G1 X203.718 Y160.912 E4.10818
G1 X203.426 Y160.214 E4.11957
G1 X203.17 Y159.314 E4.13365
G1 X203.038 Y158.517 E4.1458
G1 X202.994 Y157.742 E4.15748
G1 X203.012 Y157.024 E4.16829
G1 X203.042 Y154.235 E4.21027
G1 X203 Y151.631 E4.24946
G1 X203.007 Y149.846 E4.27632
G1 X202.978 Y147.059 E4.31826
G1 X202.876 Y144.424 E4.35794
G1 X202.693 Y141.69 E4.39918
G1 X202.435 Y138.993 E4.43995
G1 X202.334 Y138.059 E4.45409
G1 X202.313 Y137.447 E4.4633
G1 X202.425 Y136.571 E4.47659
G1 X202.681 Y135.615 E4.49148
G1 X202.929 Y135.056 E4.50069
G1 X203.349 Y134.376 E4.51271
G1 X203.718 Y133.888 E4.52192
G1 X204.415 Y133.222 E4.53643
G1 X205.006 Y132.789 E4.54745
G1 X205.535 Y132.481 E4.55666
G1 X206.099 Y132.245 E4.56587
G1 X206.979 Y132.014 E4.57956
G1 X207.583 Y131.92 E4.58876
G1 X208.195 Y131.906 E4.59797
G1 X209.061 Y132.002 E4.61108
G1 X209.659 Y132.131 E4.62029
G1 X210.567 Y132.496 E4.63501
G1 X211.536 Y133.079 E4.65203
G1 X212 Y133.478 E4.66124
G1 X212.607 Y134.166 E4.67505
G1 X212.989 Y134.711 E4.68506
G1 X213.558 Y135.657 E4.70167
G1 X213.943 Y136.316 E4.71316
G1 X215.878 Y139.392 E4.76784
G1 X216.493 Y140.33 E4.78472
G1 X216.977 Y141.227 E4.80006
G1 X217.336 Y142.098 E4.81424
G1 X217.479 Y142.693 E4.82345
G1 X217.542 Y143.301 E4.83265
G1 X217.54 Y143.712 E4.83883
G1 X217.481 Y144.915 E4.85696
G1 X217.385 Y147.666 E4.89838
G1 X217.367 Y150.368 E4.93904
G1 X217.427 Y153.077 E4.97982
G1 X217.561 Y155.773 E5.02044
G1 X217.637 Y156.806 E5.03603
G1 X217.676 Y157.607 E5.04809
G1 X217.654 Y158.454 E5.06084
G1 X217.489 Y159.41 E5.07544
G1 X217.287 Y160.142 E5.08687
G1 X216.973 Y160.881 E5.09895
G1 X216.565 Y161.656 E5.11213
G1 X216.038 Y162.373 E5.12552
G1 X215.499 Y162.981 E5.13775
G1 X214.868 Y163.52 E5.15024
G1 X214.19 Y164.009 E5.16282
G1 X213.461 Y164.387 E5.17518
G1 X213.153 Y164.53 E5.18029
G1 X212.287 Y164.825 E5.19405
G1 X211.553 Y164.989 E5.20537
G1 X210.615 Y165.082 E5.21956
G1 X209.834 Y165.072 E5.23131
M204 S580
G0 F2700 X209.851 Y164.592
M204 S435
G1 F900 X209.022 Y164.479 E5.2439
G1 X208.323 Y164.307 E5.25473
G1 X207.508 Y163.997 E5.26785
G1 X206.85 Y163.656 E5.27901
G1 X206.14 Y163.172 E5.29194
G1 X205.614 Y162.723 E5.30235
G1 X205.018 Y162.075 E5.31559
G1 X204.564 Y161.453 E5.32718
G1 X204.159 Y160.723 E5.33974
G1 X203.872 Y160.038 E5.35092
G1 X203.642 Y159.23 E5.36356
G1 X203.513 Y158.449 E5.37548
G1 X203.473 Y157.754 E5.38595
G1 X203.493 Y156.967 E5.3978
G1 X203.522 Y154.232 E5.43896
G1 X203.48 Y151.633 E5.47807
G1 X203.487 Y149.841 E5.50504
G1 X203.459 Y147.07 E5.54674
G1 X203.354 Y144.374 E5.58734
G1 X203.171 Y141.65 E5.62843
G1 X202.911 Y138.93 E5.66955
G1 X202.811 Y138.011 E5.68346
G1 X202.794 Y137.432 E5.69217
G1 X202.976 Y136.307 E5.70932
G1 X203.142 Y135.752 E5.71804
G1 X203.564 Y134.922 E5.73205
G1 X204.101 Y134.178 E5.74586
G1 X204.726 Y133.587 E5.75881
G1 X205.274 Y133.187 E5.76902
G1 X205.776 Y132.897 E5.77774
G1 X206.594 Y132.599 E5.79084
G1 X207.656 Y132.396 E5.80711
G1 X208.488 Y132.411 E5.81963
G1 X209.557 Y132.601 E5.83597
G1 X210.342 Y132.92 E5.84872
G1 X210.789 Y133.162 E5.85637
G1 X211.272 Y133.481 E5.86508
G1 X211.908 Y134.081 E5.87824
G1 X212.578 Y134.958 E5.89485
G1 X213.144 Y135.899 E5.91137
G1 X213.553 Y136.599 E5.92357
G1 X215.461 Y139.632 E5.9775
G1 X216.091 Y140.593 E5.99479
G1 X216.548 Y141.442 E6.0093
G1 X216.887 Y142.269 E6.02275
G1 X217.016 Y142.834 E6.03147
G1 X217.061 Y143.688 E6.04434
G1 X216.999 Y144.956 E6.06344
G1 X216.905 Y147.646 E6.10395
G1 X216.887 Y150.376 E6.14503
G1 X216.947 Y153.075 E6.18566
G1 X217.082 Y155.792 E6.22659
G1 X217.152 Y156.738 E6.24087
G1 X217.196 Y157.617 E6.25411
G1 X217.201 Y157.853 E6.25766
G1 X217.135 Y158.689 E6.27028
G1 X216.988 Y159.451 E6.28196
G1 X216.732 Y160.235 E6.29437
G1 X216.427 Y160.917 E6.30562
G1 X215.984 Y161.651 E6.31852
G1 X215.538 Y162.23 E6.32952
G1 X214.947 Y162.83 E6.34219
G1 X214.395 Y163.285 E6.35295
G1 X213.651 Y163.757 E6.36621
G1 X212.954 Y164.093 E6.37786
G1 X212.178 Y164.357 E6.39019
G1 X211.458 Y164.519 E6.4013
G1 X210.616 Y164.602 E6.41403
G1 X209.851 Y164.592 E6.42554
M204 S580
G0 F2700 X209.868 Y164.113
M204 S435
G1 F900 X209.133 Y164.013 E6.43671
G1 X208.447 Y163.843 E6.44734
G1 X207.725 Y163.568 E6.45897
G1 X207.078 Y163.234 E6.46993
G1 X206.45 Y162.805 E6.48137
G1 X205.931 Y162.362 E6.49164
G1 X205.403 Y161.789 E6.50336
G1 X204.958 Y161.18 E6.51471
G1 X204.6 Y160.533 E6.52584
G1 X204.318 Y159.861 E6.53681
G1 X204.115 Y159.145 E6.54801
G1 X203.989 Y158.382 E6.55965
G1 X203.953 Y157.766 E6.56893
G1 X203.973 Y156.979 E6.58078
G1 X204.001 Y154.267 E6.62159
G1 X203.96 Y151.635 E6.6612
G1 X203.967 Y149.836 E6.68828
G1 X203.938 Y147.048 E6.73023
G1 X203.834 Y144.358 E6.77074
G1 X203.649 Y141.606 E6.81225
G1 X203.392 Y138.913 E6.85296
G1 X203.289 Y137.964 E6.86733
G1 X203.275 Y137.419 E6.87553
G1 X203.445 Y136.413 E6.89088
G1 X203.603 Y135.891 E6.89909
G1 X203.965 Y135.186 E6.91102
G1 X204.483 Y134.47 E6.92431
G1 X205.037 Y133.953 E6.93572
G1 X205.542 Y133.585 E6.94512
G1 X206.015 Y133.315 E6.95332
G1 X206.906 Y133.015 E6.96746
G1 X207.727 Y132.872 E6.98001
G1 X208.636 Y132.911 E6.9937
G1 X209.453 Y133.071 E7.00623
G1 X210.356 Y133.47 E7.02108
G1 X211.006 Y133.882 E7.03266
G1 X211.703 Y134.579 E7.0475
G1 X212.167 Y135.205 E7.05922
G1 X212.729 Y136.141 E7.07565
G1 X213.127 Y136.822 E7.08752
G1 X215.061 Y139.896 E7.14217
G1 X215.69 Y140.856 E7.15944
G1 X216.118 Y141.656 E7.1731
G1 X216.436 Y142.439 E7.18582
G1 X216.551 Y142.972 E7.19402
G1 X216.582 Y143.665 E7.20446
G1 X216.52 Y144.933 E7.22356
G1 X216.425 Y147.661 E7.26464
G1 X216.407 Y150.383 E7.3056
G1 X216.467 Y153.11 E7.34665
G1 X216.602 Y155.808 E7.3873
G1 X216.678 Y156.855 E7.4031
G1 X216.721 Y157.863 E7.41828
G1 X216.663 Y158.604 E7.42947
G1 X216.52 Y159.348 E7.44087
G1 X216.293 Y160.042 E7.45186
G1 X215.993 Y160.712 E7.4629
G1 X215.601 Y161.362 E7.47433
G1 X215.163 Y161.929 E7.48511
G1 X214.641 Y162.461 E7.49632
G1 X214.096 Y162.909 E7.50694
G1 X213.438 Y163.327 E7.51867
G1 X212.756 Y163.656 E7.53007
G1 X212.068 Y163.89 E7.541
G1 X211.363 Y164.048 E7.55187
G1 X210.617 Y164.122 E7.56316
G1 X209.868 Y164.113 E7.57443
M204 S580
G0 F2700 X209.885 Y163.633
M204 S435
G1 F900 X209.245 Y163.546 E7.58415
G1 X208.57 Y163.379 E7.59461
G1 X207.941 Y163.14 E7.60474
G1 X207.307 Y162.812 E7.61548
G1 X206.759 Y162.438 E7.62546
G1 X206.248 Y162.002 E7.63557
G1 X205.788 Y161.503 E7.64578
G1 X205.353 Y160.907 E7.65689
G1 X205.041 Y160.344 E7.66657
G1 X204.764 Y159.684 E7.67735
G1 X204.587 Y159.061 E7.68709
G1 X204.464 Y158.315 E7.69847
G1 X204.433 Y157.779 E7.70655
G1 X204.453 Y156.992 E7.7184
G1 X204.481 Y154.264 E7.75945
G1 X204.44 Y151.637 E7.79899
G1 X204.447 Y149.786 E7.82684
G1 X204.419 Y147.058 E7.8679
G1 X204.312 Y144.308 E7.90931
G1 X204.128 Y141.562 E7.95073
G1 X203.869 Y138.859 E7.99159
G1 X203.767 Y137.917 E8.00585
G1 X203.757 Y137.408 E8.01351
G1 X203.913 Y136.518 E8.02711
G1 X204.063 Y136.032 E8.03476
G1 X204.552 Y135.166 E8.04973
G1 X204.864 Y134.765 E8.05737
G1 X205.348 Y134.319 E8.06728
G1 X205.81 Y133.983 E8.07587
G1 X206.253 Y133.734 E8.08352
G1 X207.023 Y133.481 E8.09572
G1 X207.796 Y133.348 E8.10752
G1 X208.674 Y133.401 E8.12076
G1 X209.346 Y133.54 E8.13108
G1 X210.131 Y133.895 E8.14405
G1 X210.738 Y134.282 E8.15488
G1 X211.339 Y134.892 E8.16777
G1 X211.755 Y135.453 E8.17828
G1 X212.315 Y136.384 E8.19463
G1 X212.716 Y137.069 E8.20657
G1 X214.661 Y140.162 E8.26155
G1 X215.289 Y141.12 E8.27879
G1 X215.689 Y141.871 E8.2916
G1 X215.985 Y142.606 E8.30352
G1 X216.084 Y143.105 E8.31118
G1 X216.102 Y143.641 E8.31925
G1 X216.04 Y144.909 E8.33835
G1 X215.945 Y147.641 E8.37949
G1 X215.927 Y150.391 E8.42087
G1 X215.987 Y153.109 E8.46178
G1 X216.124 Y155.866 E8.50332
G1 X216.199 Y156.88 E8.51862
G1 X216.241 Y157.873 E8.53358
G1 X216.19 Y158.519 E8.54333
G1 X216.051 Y159.244 E8.55444
G1 X215.853 Y159.849 E8.56402
G1 X215.559 Y160.507 E8.57487
G1 X215.217 Y161.073 E8.58482
