;FLAVOR:Marlin
;TIME:4602
;Filament used: 0.616636m, 0m
;Layer height: 0.1
;MINX:194.84
;MINY:133.34
;MINZ:0.2
;MAXX:225.16
;MAXY:163.66
;MAXZ:20
;Generated with StratosEngine 1.5.5
T0
M82 ;absolute extrusion mode
;Machine Model: Sigmax R19 
;Materials used: T0 PLA  
;Extruders used: T0 0.4  
M141 S0 	;Set chamber temperature 
M140 S60 	;Heat build surface
M104 T0 S190	;Heat extruder 0
M190 S60 	;Wait until bed temperature reached 
M109 T0 S190	;Heat extruder 0 and wait
G21 		;metric values 
G90 		;absolute positioning 
M204 S600 	;set default acceleration 
M205 X12.5 Y12.5 ;set default jerk 
M107 		;start with the fan off 
G28 X0 Y0 	;move X/Y to min endstops 
G28 Z0 		;move Z to min endstops 
G1 Z5 F200 	;safety Z axis movement

T0
G92 E0 		;set zero the extruded length 
G1 E15 F30
G92 E0 
G4 S2 		;stabilize hotend 
G1 E-0.5 F1000 
G92 E0

G4 P1
G4 P2
G4 P3

G92 E0
;LAYER_COUNT:199
;LAYER:0
M107
M204 S580
M205 X9.38 Y9.38
G1 F600 Z0.4
G0 F2700 X200.64 Y163.66 Z0.4
M204 S435
;TYPE:SKIRT
G1 F600 Z0.2
G1 F1050 E0
G1 F900 X199.302 Y163.602 E0.02015
G1 X198.673 Y163.475 E0.02981
G1 X198.064 Y163.27 E0.03948
G1 X197.485 Y162.992 E0.04915
G1 X196.946 Y162.643 E0.05881
G1 X196.454 Y162.231 E0.06847
G1 X196.017 Y161.76 E0.07813
G1 X195.642 Y161.239 E0.08779
G1 X195.334 Y160.675 E0.09746
G1 X195.099 Y160.078 E0.10712
G1 X194.94 Y159.455 E0.11679
G1 X194.851 Y158.63 E0.12928
G1 X194.84 Y158.158 E0.13639
G1 X194.84 Y139.104 E0.42312
G1 X194.898 Y137.799 E0.44278
G1 X195.026 Y137.169 E0.45245
G1 X195.231 Y136.561 E0.46211
G1 X195.51 Y135.982 E0.47178
G1 X195.859 Y135.443 E0.48144
G1 X196.271 Y134.951 E0.4911
G1 X196.742 Y134.515 E0.50076
G1 X197.264 Y134.14 E0.51043
G1 X197.828 Y133.833 E0.52009
G1 X198.425 Y133.598 E0.52975
G1 X199.048 Y133.439 E0.53942
G1 X199.864 Y133.351 E0.55177
G1 X200.33 Y133.34 E0.55879
G1 X219.293 Y133.34 E0.84415
G1 X220.705 Y133.4 E0.86542
G1 X221.334 Y133.528 E0.87508
G1 X221.943 Y133.733 E0.88475
G1 X222.521 Y134.013 E0.89441
G1 X223.06 Y134.362 E0.90408
G1 X223.552 Y134.775 E0.91374
G1 X223.988 Y135.246 E0.9234
G1 X224.362 Y135.768 E0.93307
G1 X224.669 Y136.332 E0.94273
G1 X224.903 Y136.93 E0.95239
G1 X225.061 Y137.553 E0.96206
G1 X225.149 Y138.365 E0.97435
G1 X225.16 Y138.83 E0.98135
G1 X225.16 Y157.828 E1.26724
G1 X225.103 Y159.195 E1.28783
G1 X224.976 Y159.825 E1.2975
G1 X224.771 Y160.434 E1.30717
G1 X224.493 Y161.012 E1.31683
G1 X224.145 Y161.552 E1.32649
G1 X223.733 Y162.044 E1.33615
G1 X223.262 Y162.482 E1.34583
G1 X222.741 Y162.857 E1.35549
G1 X222.178 Y163.165 E1.36515
G1 X221.58 Y163.4 E1.37482
G1 X220.958 Y163.56 E1.38448
G1 X220.136 Y163.649 E1.39692
G1 X219.67 Y163.66 E1.40394
G1 X200.64 Y163.66 E1.69031
M204 S580
G0 F2700 X200.647 Y163.18
M204 S435
G1 F900 X199.339 Y163.123 E1.71001
G1 X198.741 Y162.996 E1.71921
G1 X198.164 Y162.792 E1.72842
G1 X197.619 Y162.515 E1.73762
G1 X197.115 Y162.169 E1.74682
G1 X196.66 Y161.76 E1.75603
G1 X196.262 Y161.295 E1.76524
G1 X195.929 Y160.783 E1.77443
G1 X195.665 Y160.231 E1.78364
G1 X195.475 Y159.65 E1.79284
G1 X195.362 Y159.049 E1.80204
G1 X195.32 Y158.158 E1.81546
G1 X195.32 Y139.111 E2.10209
G1 X195.378 Y137.836 E2.1213
G1 X195.505 Y137.238 E2.13049
G1 X195.709 Y136.661 E2.1397
G1 X195.987 Y136.116 E2.14891
G1 X196.333 Y135.612 E2.15811
G1 X196.742 Y135.158 E2.16731
G1 X197.207 Y134.76 E2.17652
G1 X197.72 Y134.427 E2.18572
G1 X198.272 Y134.163 E2.19493
G1 X198.853 Y133.974 E2.20412
G1 X199.454 Y133.862 E2.21332
G1 X200.33 Y133.82 E2.22652
G1 X219.36 Y133.82 E2.51289
G1 X220.668 Y133.879 E2.5326
G1 X221.266 Y134.007 E2.5418
G1 X221.842 Y134.212 E2.551
G1 X222.387 Y134.49 E2.56021
G1 X222.89 Y134.836 E2.56939
G1 X223.345 Y135.246 E2.57861
G1 X223.742 Y135.711 E2.58781
G1 X224.075 Y136.224 E2.59701
G1 X224.338 Y136.776 E2.60622
G1 X224.527 Y137.358 E2.61542
G1 X224.638 Y137.959 E2.62462
G1 X224.68 Y138.83 E2.63774
G1 X224.68 Y157.822 E2.92354
G1 X224.623 Y159.159 E2.94368
G1 X224.497 Y159.757 E2.95288
G1 X224.293 Y160.334 E2.96209
G1 X224.016 Y160.879 E2.97129
G1 X223.67 Y161.383 E2.98049
G1 X223.262 Y161.838 E2.98968
G1 X222.797 Y162.236 E2.99889
G1 X222.285 Y162.57 E3.00809
G1 X221.733 Y162.835 E3.01731
G1 X221.152 Y163.025 E3.02651
G1 X220.551 Y163.137 E3.03571
G1 X219.67 Y163.18 E3.04898
G1 X200.647 Y163.18 E3.33525
M204 S580
G0 F2700 X200.653 Y162.7
M204 S435
G1 F900 X199.377 Y162.643 E3.35447
G1 X198.812 Y162.517 E3.36318
G1 X198.27 Y162.314 E3.37189
G1 X197.76 Y162.038 E3.38062
G1 X197.293 Y161.695 E3.38934
G1 X196.878 Y161.291 E3.39805
G1 X196.523 Y160.833 E3.40677
G1 X196.234 Y160.331 E3.41549
G1 X196.016 Y159.794 E3.42421
G1 X195.875 Y159.233 E3.43291
G1 X195.802 Y158.271 E3.44743
G1 X195.8 Y158.158 E3.44913
G1 X195.8 Y139.117 E3.73567
G1 X195.857 Y137.875 E3.75438
G1 X195.984 Y137.31 E3.76309
G1 X196.187 Y136.767 E3.77182
G1 X196.463 Y136.258 E3.78053
G1 X196.807 Y135.791 E3.78926
G1 X197.211 Y135.377 E3.79796
G1 X197.669 Y135.021 E3.80669
G1 X198.171 Y134.733 E3.8154
G1 X198.708 Y134.516 E3.82412
G1 X199.27 Y134.375 E3.83284
G1 X200.212 Y134.302 E3.84706
G1 X200.33 Y134.3 E3.84883
G1 X219.353 Y134.3 E4.1351
G1 X220.628 Y134.359 E4.15431
G1 X221.194 Y134.486 E4.16304
G1 X221.736 Y134.69 E4.17175
G1 X222.245 Y134.966 E4.18046
G1 X222.711 Y135.31 E4.18918
G1 X223.126 Y135.715 E4.19791
G1 X223.481 Y136.173 E4.20663
G1 X223.769 Y136.675 E4.21534
G1 X223.986 Y137.212 E4.22405
G1 X224.126 Y137.774 E4.23277
G1 X224.198 Y138.712 E4.24692
G1 X224.2 Y138.83 E4.2487
G1 X224.2 Y157.816 E4.53441
G1 X224.144 Y159.12 E4.55405
G1 X224.017 Y159.686 E4.56278
G1 X223.815 Y160.228 E4.57148
G1 X223.539 Y160.738 E4.58021
G1 X223.196 Y161.205 E4.58893
G1 X222.792 Y161.62 E4.59765
G1 X222.335 Y161.976 E4.60636
G1 X221.833 Y162.265 E4.61508
G1 X221.296 Y162.483 E4.6238
G1 X220.735 Y162.625 E4.63251
G1 X219.788 Y162.698 E4.6468
G1 X219.67 Y162.7 E4.64858
G1 X200.653 Y162.7 E4.93476
M204 S580
G0 F2700 X200.659 Y162.22
M204 S435
G1 F900 X199.418 Y162.164 E4.95345
G1 X198.887 Y162.038 E4.96166
G1 X198.381 Y161.836 E4.96986
G1 X197.91 Y161.562 E4.97806
G1 X197.483 Y161.222 E4.98628
G1 X197.111 Y160.824 E4.99447
G1 X196.802 Y160.375 E5.00268
G1 X196.561 Y159.886 E5.01088
G1 X196.394 Y159.367 E5.01908
G1 X196.281 Y158.259 E5.03584
G1 X196.28 Y139.124 E5.3238
G1 X196.337 Y137.916 E5.342
G1 X196.463 Y137.385 E5.35021
G1 X196.665 Y136.879 E5.35841
G1 X196.939 Y136.408 E5.36661
G1 X197.279 Y135.982 E5.37481
G1 X197.678 Y135.61 E5.38302
G1 X198.127 Y135.3 E5.39123
G1 X198.616 Y135.06 E5.39943
G1 X199.135 Y134.893 E5.40763
G1 X200.226 Y134.781 E5.42413
G1 X219.346 Y134.78 E5.71186
G1 X220.587 Y134.838 E5.73056
G1 X221.118 Y134.965 E5.73877
G1 X221.624 Y135.167 E5.74697
G1 X222.095 Y135.442 E5.75518
G1 X222.52 Y135.782 E5.76337
G1 X222.892 Y136.181 E5.77158
G1 X223.201 Y136.63 E5.77978
G1 X223.441 Y137.12 E5.78799
G1 X223.608 Y137.639 E5.7962
G1 X223.719 Y138.725 E5.81262
G1 X223.72 Y157.81 E6.09982
G1 X223.664 Y159.08 E6.11895
G1 X223.538 Y159.611 E6.12717
G1 X223.337 Y160.117 E6.13536
G1 X223.063 Y160.589 E6.14357
G1 X222.724 Y161.015 E6.15176
G1 X222.325 Y161.387 E6.15997
G1 X221.877 Y161.698 E6.16818
G1 X221.388 Y161.939 E6.17638
G1 X220.869 Y162.106 E6.18459
G1 X219.774 Y162.219 E6.20115
G1 X200.659 Y162.22 E6.48881
M204 S580
G0 F2700 X200.665 Y161.74
M204 S435
G1 F900 X199.461 Y161.684 E6.50694
G1 X198.968 Y161.559 E6.5146
G1 X198.5 Y161.358 E6.52226
G1 X198.07 Y161.087 E6.52991
G1 X197.688 Y160.751 E6.53757
G1 X197.362 Y160.36 E6.54523
G1 X197.102 Y159.923 E6.55288
G1 X196.914 Y159.45 E6.56054
G1 X196.802 Y158.954 E6.56819
G1 X196.76 Y158.158 E6.58019
G1 X196.76 Y139.13 E6.86653
G1 X196.816 Y137.959 E6.88417
G1 X196.942 Y137.466 E6.89183
G1 X197.143 Y136.998 E6.89949
G1 X197.415 Y136.568 E6.90715
G1 X197.75 Y136.186 E6.91479
G1 X198.142 Y135.861 E6.92246
G1 X198.579 Y135.602 E6.9301
G1 X199.052 Y135.414 E6.93776
G1 X199.548 Y135.302 E6.94541
G1 X200.33 Y135.26 E6.9572
G1 X219.339 Y135.26 E7.24325
G1 X220.544 Y135.318 E7.26141
G1 X221.037 Y135.443 E7.26906
G1 X221.504 Y135.645 E7.27672
G1 X221.934 Y135.917 E7.28438
G1 X222.316 Y136.253 E7.29203
G1 X222.64 Y136.645 E7.29968
G1 X222.9 Y137.083 E7.30735
G1 X223.087 Y137.555 E7.31499
G1 X223.198 Y138.052 E7.32265
G1 X223.24 Y138.83 E7.33438
G1 X223.24 Y157.804 E7.61991
G1 X223.185 Y159.038 E7.63849
G1 X223.06 Y159.531 E7.64615
G1 X222.859 Y159.998 E7.6538
G1 X222.588 Y160.429 E7.66146
G1 X222.252 Y160.811 E7.66912
G1 X221.861 Y161.137 E7.67678
G1 X221.424 Y161.397 E7.68443
G1 X220.952 Y161.585 E7.69207
G1 X220.455 Y161.698 E7.69974
G1 X219.67 Y161.74 E7.71157
G1 X200.665 Y161.74 E7.99757
M204 S580
G1 F2100 E1.49757
;MESH:xyzCalibration_cube.stl
G0 F2700 X200.704 Y157.796
G0 X218.47 Y156.97
M204 S435
;TYPE:WALL-INNER
G1 F1050 E7.99757
G1 F900 X201.53 Y156.97 E8.22063
G1 X201.53 Y140.03 E8.44368
G1 X218.47 Y140.03 E8.66674
G1 X218.47 Y156.97 E8.88979
M204 S580
G0 F2700 X218.89 Y157.39
M204 S435
G1 F900 X201.11 Y157.39 E9.12391
G1 X201.11 Y139.61 E9.35803
G1 X218.89 Y139.61 E9.59214
G1 X218.89 Y157.39 E9.82626
M204 S580
G0 F2700 X219.31 Y157.81
M204 S435
G1 F900 X200.69 Y157.81 E10.07143
G1 X200.69 Y139.19 E10.31661
G1 X219.31 Y139.19 E10.56179
G1 X219.31 Y157.81 E10.80696
M204 S580
G0 F2700 X219.76 Y158.26
M204 S435
;TYPE:WALL-OUTER
G1 F900 X200.24 Y158.26 E11.10071
G1 X200.24 Y138.74 E11.39446
G1 X219.76 Y138.74 E11.6882
G1 X219.76 Y158.26 E11.98195
M204 S580
G0 F2700 X219.56 Y158.26
G0 X219.232 Y157.732
G0 X219.21 Y157.732
G0 X218.03 Y156.53
M204 S435
;TYPE:SKIN
G1 F900 X201.97 Y156.53 E12.22363
G1 X201.97 Y140.47 E12.4653
G1 X218.03 Y140.47 E12.70698
G1 X218.03 Y156.53 E12.94866
M204 S580
G0 F2700 X217.643 Y140.936
M204 S435
G1 F900 X217.562 Y140.855 E12.95038
G1 X217.643 Y140.855 E12.9516
M204 S580
G0 F2700 X217.562 Y140.855
M204 S435
G1 F900 X216.883 Y140.855 E12.96182
G1 X217.643 Y141.615 E12.97799
G1 X217.643 Y142.294 E12.98821
G1 X216.204 Y140.855 E13.01884
G1 X215.526 Y140.855 E13.02904
G1 X217.643 Y142.973 E13.0741
G1 X217.643 Y143.652 E13.08432
G1 X214.847 Y140.855 E13.14384
G1 X214.168 Y140.855 E13.15405
G1 X217.643 Y144.331 E13.22802
G1 X217.643 Y145.009 E13.23822
G1 X213.489 Y140.855 E13.32663
G1 X212.81 Y140.855 E13.33684
G1 X217.643 Y145.688 E13.4397
G1 X217.643 Y146.367 E13.44992
G1 X212.132 Y140.855 E13.56721
G1 X211.453 Y140.855 E13.57743
G1 X217.643 Y147.046 E13.70917
G1 X217.643 Y147.725 E13.71939
G1 X210.774 Y140.855 E13.86558
G1 X210.095 Y140.855 E13.8758
G1 X217.643 Y148.404 E14.03645
G1 X217.643 Y149.082 E14.04665
G1 X209.416 Y140.855 E14.22173
G1 X208.737 Y140.855 E14.23195
G1 X217.643 Y149.761 E14.42149
G1 X217.643 Y150.44 E14.43171
G1 X208.059 Y140.855 E14.63568
G1 X207.38 Y140.855 E14.6459
G1 X217.643 Y151.119 E14.86432
G1 X217.643 Y151.798 E14.87454
G1 X206.701 Y140.855 E15.10742
G1 X206.022 Y140.855 E15.11763
G1 X217.643 Y152.476 E15.36495
G1 X217.643 Y153.155 E15.37517
G1 X205.343 Y140.855 E15.63693
G1 X204.664 Y140.855 E15.64715
G1 X217.643 Y153.834 E15.92337
G1 X217.643 Y154.513 E15.93358
G1 X203.986 Y140.855 E16.22424
G1 X203.307 Y140.855 E16.23446
G1 X217.643 Y155.192 E16.53956
G1 X217.643 Y155.871 E16.54978
G1 X202.628 Y140.855 E16.86933
G1 X202.355 Y140.855 E16.87344
G1 X202.354 Y141.26 E16.87954
G1 X217.238 Y156.144 E17.19629
G1 X216.559 Y156.144 E17.20651
G1 X202.354 Y141.939 E17.50882
G1 X202.354 Y142.618 E17.51904
G1 X215.88 Y156.144 E17.80689
G1 X215.201 Y156.144 E17.81711
G1 X202.354 Y143.297 E18.09052
G1 X202.354 Y143.976 E18.10074
G1 X214.522 Y156.144 E18.35969
G1 X213.843 Y156.144 E18.36991
G1 X202.354 Y144.654 E18.61443
G1 X202.354 Y145.333 E18.62464
G1 X213.165 Y156.144 E18.85472
G1 X212.486 Y156.144 E18.86494
G1 X202.354 Y146.012 E19.08056
G1 X202.354 Y146.691 E19.09078
G1 X211.807 Y156.144 E19.29196
G1 X211.128 Y156.144 E19.30218
G1 X202.354 Y147.37 E19.4889
G1 X202.354 Y148.049 E19.49912
G1 X210.449 Y156.144 E19.6714
G1 X209.771 Y156.144 E19.6816
G1 X202.354 Y148.727 E19.83944
G1 X202.354 Y149.406 E19.84966
G1 X209.092 Y156.144 E19.99306
G1 X208.413 Y156.144 E20.00328
G1 X202.354 Y150.085 E20.13222
G1 X202.354 Y150.764 E20.14244
G1 X207.734 Y156.144 E20.25694
G1 X207.055 Y156.144 E20.26715
G1 X202.354 Y151.443 E20.3672
G1 X202.354 Y152.122 E20.37742
G1 X206.376 Y156.144 E20.46301
G1 X205.698 Y156.144 E20.47322
G1 X202.354 Y152.8 E20.54438
G1 X202.354 Y153.479 E20.5546
G1 X205.019 Y156.144 E20.61132
G1 X204.34 Y156.144 E20.62153
G1 X202.354 Y154.158 E20.6638
G1 X202.354 Y154.837 E20.67402
G1 X203.661 Y156.144 E20.70183
G1 X202.982 Y156.144 E20.71205
G1 X202.354 Y155.516 E20.72541
M204 S580
G0 F2700 X202.354 Y156.144
M104 S190
M204 S435
G1 F900 X202.982 Y156.144 E20.73486
M204 S580
;MESH:NONMESH
G0 F600 X202.982 Y156.144 Z0.3
G0 F2700 X218.725 Y157.225
;TIME_ELAPSED:103.229083
;LAYER:1
M106 S51
M204 S435
;TYPE:WALL-INNER
;MESH:xyzCalibration_cube.stl
G1 F1425 X201.275 Y157.225 E20.8306
G1 X201.275 Y139.775 E20.92634
G1 X218.725 Y139.775 E21.02208
G1 X218.725 Y157.225 E21.11782
M204 S690
M205 X10.94 Y10.94
G0 F5850 X219.075 Y157.575
M204 S435
M205 X9.38 Y9.38
G1 F1425 X200.925 Y157.575 E21.21739
G1 X200.925 Y139.425 E21.31697
G1 X219.075 Y139.425 E21.41655
G1 X219.075 Y157.575 E21.51613
M204 S690
M205 X10.94 Y10.94
G0 F5850 X219.425 Y157.925
M204 S435
M205 X9.38 Y9.38
G1 F1425 X200.575 Y157.925 E21.61955
G1 X200.575 Y139.075 E21.72297
G1 X219.425 Y139.075 E21.82639
G1 X219.425 Y157.925 E21.92981
M204 S690
M205 X10.94 Y10.94
G0 F5850 X219.8 Y158.3
M204 S352
M205 X7.03 Y7.03
;TYPE:WALL-OUTER
G1 F900 X200.2 Y158.3 E22.0527
G1 X200.2 Y138.7 E22.1756
G1 X219.8 Y138.7 E22.29849
G1 X219.8 Y158.3 E22.42139
M204 S690
M205 X10.94 Y10.94
G0 F5850 X219.6 Y158.3
G0 X219.36 Y157.86
G0 X219.325 Y157.86
G0 X218.36 Y156.86
M204 S435
M205 X9.38 Y9.38
;TYPE:SKIN
G1 F1425 X201.64 Y156.86 E22.52623
G1 X201.64 Y140.14 E22.63106
G1 X218.36 Y140.14 E22.7359
G1 X218.36 Y156.86 E22.84074
M204 S690
M205 X10.94 Y10.94
G0 F5850 X218.053 Y156.553
M204 S435
M205 X9.38 Y9.38
G1 F1425 X218.053 Y156.43 E22.84151
G1 X217.929 Y156.554 E22.84261
G1 X217.363 Y156.554 E22.84616
G1 X218.053 Y155.864 E22.85228
G1 X218.053 Y155.299 E22.85582
G1 X216.798 Y156.554 E22.86695
G1 X216.232 Y156.554 E22.8705
G1 X218.053 Y154.733 E22.88664
G1 X218.053 Y154.167 E22.89019
G1 X215.666 Y156.554 E22.91136
G1 X215.101 Y156.554 E22.9149
G1 X218.053 Y153.601 E22.94108
G1 X218.053 Y153.036 E22.94463
G1 X214.535 Y156.554 E22.97582
G1 X213.969 Y156.554 E22.97937
G1 X218.053 Y152.47 E23.01558
G1 X218.053 Y151.904 E23.01913
G1 X213.404 Y156.554 E23.06036
G1 X212.838 Y156.554 E23.06391
G1 X218.053 Y151.339 E23.11015
G1 X218.053 Y150.773 E23.1137
G1 X212.272 Y156.554 E23.16497
G1 X211.707 Y156.554 E23.16851
G1 X218.053 Y150.207 E23.22479
G1 X218.053 Y149.642 E23.22833
G1 X211.141 Y156.554 E23.28962
G1 X210.575 Y156.554 E23.29317
G1 X218.053 Y149.076 E23.35948
G1 X218.053 Y148.51 E23.36303
G1 X210.01 Y156.554 E23.43435
G1 X209.444 Y156.554 E23.4379
G1 X218.053 Y147.945 E23.51424
G1 X218.053 Y147.379 E23.51779
G1 X208.878 Y156.554 E23.59915
G1 X208.312 Y156.554 E23.6027
G1 X218.053 Y146.813 E23.68907
G1 X218.053 Y146.248 E23.69262
G1 X207.747 Y156.554 E23.784
G1 X207.181 Y156.554 E23.78755
G1 X218.053 Y145.682 E23.88396
G1 X218.053 Y145.116 E23.88751
G1 X206.615 Y156.554 E23.98893
G1 X206.05 Y156.554 E23.99248
G1 X218.053 Y144.551 E24.09891
G1 X218.053 Y143.985 E24.10246
G1 X205.484 Y156.554 E24.21391
G1 X204.918 Y156.554 E24.21746
G1 X218.053 Y143.419 E24.33394
G1 X218.053 Y142.853 E24.33748
G1 X204.353 Y156.554 E24.45897
G1 X203.787 Y156.554 E24.46252
G1 X218.053 Y142.288 E24.58902
G1 X218.053 Y141.722 E24.59257
G1 X203.221 Y156.554 E24.72409
G1 X202.656 Y156.554 E24.72764
G1 X218.053 Y141.156 E24.86417
G1 X218.053 Y140.591 E24.86771
G1 X202.09 Y156.554 E25.00926
G1 X201.944 Y156.554 E25.01018
G1 X201.945 Y156.133 E25.01282
G1 X217.633 Y140.445 E25.15193
G1 X217.067 Y140.445 E25.15548
G1 X201.945 Y155.567 E25.28957
G1 X201.945 Y155.002 E25.29311
G1 X216.501 Y140.445 E25.42219
G1 X215.936 Y140.445 E25.42573
G1 X201.945 Y154.436 E25.5498
G1 X201.945 Y153.87 E25.55335
G1 X215.37 Y140.445 E25.67239
