;FLAVOR:Marlin
;TIME:5866
;Filament used: 0m, 0.581311m
;Layer height: 0.1
;MINX:195.38
;MINY:133.88
;MINZ:0.15
;MAXX:224.62
;MAXY:163.12
;MAXZ:19.95
;Generated with StratosEngine 1.5.5
T1
M82 ;absolute extrusion mode
;Machine Model: Sigmax R19 
;Materials used:  T1 PLA 
;Extruders used:  T1 0.3 
M141 S0 	;Set chamber temperature 
M140 S60 	;Heat build surface
M104 T1 S230	;Heat extruder 1
M190 S60 	;Wait until bed temperature reached 
M109 T1 S230	;Heat extruder 1 and wait
G21 		;metric values 
G90 		;absolute positioning 
M204 S600 	;set default acceleration 
M205 X12.5 Y12.5 ;set default jerk 
M107 		;start with the fan off 
G28 X0 Y0 	;move X/Y to min endstops 
G28 Z0 		;move Z to min endstops 
G1 Z5 F200 	;safety Z axis movement

T1
G92 E0 		;set zero the extruded length 
G1 E15 F30
G92 E0 
G4 S2 		;stabilize hotend 
G1 E-0.5 F1000 
G92 E0

G4 P1
G4 P2
G4 P3

G92 E0
;LAYER_COUNT:199
;LAYER:0
M107
M204 S513
M205 X9.38 Y9.38
G1 F600 Z0.35
G0 F2700 X200.647 Y163.12 Z0.35
M204 S385
;TYPE:SKIRT
G1 F600 Z0.15
G1 F1050 E0
G1 F900 X199.344 Y163.063 E0.01104
G1 X198.749 Y162.936 E0.01619
G1 X198.177 Y162.732 E0.02133
G1 X197.636 Y162.455 E0.02648
G1 X197.137 Y162.109 E0.03162
G1 X196.687 Y161.701 E0.03676
G1 X196.294 Y161.237 E0.0419
G1 X195.966 Y160.726 E0.04704
G1 X195.707 Y160.176 E0.05219
G1 X195.523 Y159.597 E0.05733
G1 X195.417 Y158.999 E0.06247
G1 X195.38 Y158.158 E0.0696
G1 X195.38 Y139.111 E0.23083
G1 X195.438 Y137.841 E0.24159
G1 X195.565 Y137.247 E0.24673
G1 X195.769 Y136.674 E0.25188
G1 X196.046 Y136.134 E0.25702
G1 X196.392 Y135.634 E0.26216
G1 X196.801 Y135.184 E0.26731
G1 X197.265 Y134.792 E0.27245
G1 X197.776 Y134.464 E0.27759
G1 X198.327 Y134.206 E0.28274
G1 X198.906 Y134.023 E0.28788
G1 X199.88 Y133.891 E0.2962
G1 X200.33 Y133.88 E0.30001
G1 X219.359 Y133.88 E0.46109
G1 X220.663 Y133.939 E0.47214
G1 X221.257 Y134.067 E0.47728
G1 X221.829 Y134.271 E0.48242
G1 X222.369 Y134.549 E0.48756
G1 X222.869 Y134.896 E0.49271
G1 X223.318 Y135.305 E0.49786
G1 X223.71 Y135.769 E0.503
G1 X224.038 Y136.281 E0.50814
G1 X224.295 Y136.831 E0.51328
G1 X224.478 Y137.41 E0.51842
G1 X224.609 Y138.38 E0.52671
G1 X224.62 Y138.83 E0.53052
G1 X224.62 Y157.821 E0.69127
G1 X224.563 Y159.154 E0.70257
G1 X224.437 Y159.748 E0.70771
G1 X224.233 Y160.321 E0.71286
G1 X223.956 Y160.862 E0.718
G1 X223.611 Y161.362 E0.72314
G1 X223.203 Y161.812 E0.72828
G1 X222.739 Y162.205 E0.73343
G1 X222.228 Y162.533 E0.73857
G1 X221.678 Y162.792 E0.74372
G1 X221.099 Y162.976 E0.74886
G1 X220.501 Y163.083 E0.754
G1 X219.67 Y163.12 E0.76104
G1 X200.647 Y163.12 E0.92207
M204 S513
G0 F2700 X200.652 Y162.76
M204 S385
G1 F900 X199.373 Y162.703 E0.93291
G1 X198.803 Y162.577 E0.93785
G1 X198.256 Y162.374 E0.94279
G1 X197.742 Y162.098 E0.94772
G1 X197.27 Y161.754 E0.95267
G1 X196.85 Y161.349 E0.95761
G1 X196.489 Y160.891 E0.96254
G1 X196.194 Y160.388 E0.96748
G1 X195.971 Y159.849 E0.97242
G1 X195.823 Y159.284 E0.97736
G1 X195.742 Y158.273 E0.98595
G1 X195.74 Y158.158 E0.98692
G1 X195.74 Y139.116 E1.1481
G1 X195.797 Y137.87 E1.15866
G1 X195.924 Y137.3 E1.16361
G1 X196.127 Y136.754 E1.16854
G1 X196.404 Y136.24 E1.17348
G1 X196.748 Y135.768 E1.17842
G1 X197.153 Y135.348 E1.18336
G1 X197.611 Y134.988 E1.18829
G1 X198.115 Y134.693 E1.19324
G1 X198.654 Y134.47 E1.19817
G1 X199.219 Y134.323 E1.20312
G1 X200.211 Y134.242 E1.21154
G1 X200.33 Y134.24 E1.21255
G1 X219.354 Y134.24 E1.37358
G1 X220.633 Y134.299 E1.38442
G1 X221.203 Y134.426 E1.38936
G1 X221.75 Y134.63 E1.3943
G1 X222.263 Y134.907 E1.39924
G1 X222.734 Y135.251 E1.40418
G1 X223.154 Y135.656 E1.40912
G1 X223.514 Y136.115 E1.41405
G1 X223.808 Y136.619 E1.41899
G1 X224.031 Y137.158 E1.42393
G1 X224.178 Y137.723 E1.42887
G1 X224.258 Y138.71 E1.43725
G1 X224.26 Y138.83 E1.43827
G1 X224.26 Y157.817 E1.59899
G1 X224.204 Y159.125 E1.61007
G1 X224.077 Y159.695 E1.61502
G1 X223.875 Y160.242 E1.61995
G1 X223.599 Y160.756 E1.62489
G1 X223.256 Y161.228 E1.62983
G1 X222.851 Y161.648 E1.63477
G1 X222.393 Y162.009 E1.6397
G1 X221.889 Y162.305 E1.64465
G1 X221.351 Y162.528 E1.64958
G1 X220.786 Y162.676 E1.65453
G1 X219.789 Y162.758 E1.66299
G1 X219.67 Y162.76 E1.664
G1 X200.652 Y162.76 E1.82498
M204 S513
G0 F2700 X200.657 Y162.4
M204 S385
G1 F900 X199.402 Y162.344 E1.83562
G1 X198.859 Y162.218 E1.84034
G1 X198.338 Y162.015 E1.84507
G1 X197.852 Y161.741 E1.84979
G1 X197.411 Y161.399 E1.85452
G1 X197.022 Y160.999 E1.85924
G1 X196.695 Y160.547 E1.86396
G1 X196.435 Y160.052 E1.86869
G1 X196.249 Y159.526 E1.87342
G1 X196.14 Y158.979 E1.87814
G1 X196.1 Y158.158 E1.88509
G1 X196.1 Y139.121 E2.04624
G1 X196.157 Y137.9 E2.05659
G1 X196.283 Y137.356 E2.06131
G1 X196.486 Y136.836 E2.06604
G1 X196.761 Y136.35 E2.07076
G1 X197.102 Y135.909 E2.07548
G1 X197.503 Y135.52 E2.08021
G1 X197.956 Y135.193 E2.08494
G1 X198.45 Y134.934 E2.08966
G1 X198.976 Y134.748 E2.09438
G1 X199.524 Y134.639 E2.09911
G1 X200.33 Y134.6 E2.10595
G1 X219.349 Y134.6 E2.26694
G1 X220.603 Y134.658 E2.27756
G1 X221.147 Y134.785 E2.28229
G1 X221.667 Y134.988 E2.28702
G1 X222.152 Y135.264 E2.29174
G1 X222.594 Y135.605 E2.29647
G1 X222.982 Y136.007 E2.30119
G1 X223.308 Y136.459 E2.30591
G1 X223.567 Y136.954 E2.31064
G1 X223.753 Y137.48 E2.31536
G1 X223.861 Y138.028 E2.32009
G1 X223.9 Y138.83 E2.32689
G1 X223.9 Y157.812 E2.48757
G1 X223.844 Y159.096 E2.49845
G1 X223.718 Y159.639 E2.50316
G1 X223.516 Y160.16 E2.50789
G1 X223.242 Y160.646 E2.51262
G1 X222.901 Y161.088 E2.51734
G1 X222.5 Y161.477 E2.52207
G1 X222.048 Y161.804 E2.52679
G1 X221.554 Y162.064 E2.53152
G1 X221.028 Y162.251 E2.53624
G1 X220.481 Y162.36 E2.54097
G1 X219.67 Y162.4 E2.54784
G1 X200.657 Y162.4 E2.70878
M204 S513
G0 F2700 X200.661 Y162.04
M204 S385
G1 F900 X199.434 Y161.984 E2.71918
G1 X198.917 Y161.858 E2.72368
G1 X198.425 Y161.657 E2.72818
G1 X197.968 Y161.384 E2.73269
G1 X197.558 Y161.045 E2.73719
G1 X197.203 Y160.649 E2.74169
G1 X196.911 Y160.205 E2.74619
G1 X196.69 Y159.721 E2.75069
G1 X196.543 Y159.21 E2.75519
G1 X196.461 Y158.254 E2.76332
G1 X196.46 Y139.126 E2.92523
G1 X196.516 Y137.931 E2.93536
G1 X196.642 Y137.415 E2.93985
G1 X196.844 Y136.923 E2.94435
G1 X197.118 Y136.467 E2.94886
G1 X197.456 Y136.057 E2.95335
G1 X197.852 Y135.702 E2.95786
G1 X198.297 Y135.41 E2.96236
G1 X198.781 Y135.189 E2.96687
G1 X199.292 Y135.042 E2.97137
G1 X200.231 Y134.961 E2.97934
G1 X219.344 Y134.96 E3.14113
G1 X220.571 Y135.018 E3.15153
G1 X221.088 Y135.144 E3.15603
G1 X221.58 Y135.347 E3.16054
G1 X222.036 Y135.62 E3.16504
G1 X222.446 Y135.959 E3.16954
G1 X222.8 Y136.356 E3.17404
G1 X223.091 Y136.801 E3.17854
G1 X223.312 Y137.284 E3.18304
G1 X223.458 Y137.796 E3.18755
G1 X223.539 Y138.73 E3.19548
G1 X223.54 Y157.808 E3.35697
G1 X223.484 Y159.065 E3.36762
G1 X223.359 Y159.581 E3.37212
G1 X223.158 Y160.074 E3.37662
G1 X222.885 Y160.53 E3.38112
G1 X222.547 Y160.941 E3.38563
G1 X222.151 Y161.296 E3.39013
G1 X221.706 Y161.588 E3.39463
G1 X221.223 Y161.81 E3.39913
G1 X220.712 Y161.957 E3.40364
G1 X219.769 Y162.039 E3.41165
G1 X200.661 Y162.04 E3.57339
M204 S513
G0 F2700 X200.666 Y161.68
M204 S385
G1 F900 X199.466 Y161.624 E3.58356
G1 X198.978 Y161.499 E3.58782
G1 X198.516 Y161.299 E3.59209
G1 X198.091 Y161.027 E3.59636
G1 X197.714 Y160.692 E3.60063
G1 X197.395 Y160.302 E3.60489
G1 X197.142 Y159.867 E3.60915
G1 X196.961 Y159.396 E3.61342
G1 X196.856 Y158.903 E3.61769
G1 X196.82 Y158.158 E3.624
G1 X196.82 Y139.131 E3.78506
G1 X196.876 Y137.964 E3.79495
G1 X197.001 Y137.476 E3.79922
G1 X197.202 Y137.014 E3.80348
G1 X197.474 Y136.589 E3.80775
G1 X197.809 Y136.213 E3.81201
G1 X198.199 Y135.894 E3.81628
G1 X198.635 Y135.641 E3.82055
G1 X199.106 Y135.46 E3.82482
G1 X199.92 Y135.33 E3.83179
G1 X200.33 Y135.32 E3.83527
G1 X219.339 Y135.32 E3.99617
G1 X220.538 Y135.377 E4.00633
G1 X221.026 Y135.503 E4.0106
G1 X221.488 Y135.705 E4.01487
G1 X221.913 Y135.976 E4.01913
G1 X222.289 Y136.312 E4.0234
G1 X222.607 Y136.702 E4.02766
G1 X222.86 Y137.139 E4.03194
G1 X223.041 Y137.609 E4.0362
G1 X223.145 Y138.102 E4.04047
G1 X223.18 Y138.83 E4.04663
G1 X223.18 Y157.803 E4.20724
G1 X223.125 Y159.032 E4.21765
G1 X223 Y159.521 E4.22192
G1 X222.799 Y159.983 E4.22619
G1 X222.528 Y160.408 E4.23045
G1 X222.194 Y160.785 E4.23472
G1 X221.804 Y161.104 E4.23898
G1 X221.368 Y161.357 E4.24325
G1 X220.898 Y161.539 E4.24752
G1 X220.405 Y161.644 E4.25178
G1 X219.67 Y161.68 E4.25801
G1 X200.666 Y161.68 E4.41888
M204 S513
G1 F2100 E-2.08112
;MESH:xyzCalibration_cube.stl
G0 F2700 X200.666 Y157.97
G0 X218.59 Y157.09
M204 S385
;TYPE:WALL-INNER
G1 F1050 E4.41888
G1 F900 X201.41 Y157.09 E4.54006
G1 X201.41 Y139.91 E4.66125
G1 X218.59 Y139.91 E4.78244
G1 X218.59 Y157.09 E4.90362
M204 S513
G0 F2700 X218.89 Y157.39
M204 S385
G1 F900 X201.11 Y157.39 E5.02904
G1 X201.11 Y139.61 E5.15446
G1 X218.89 Y139.61 E5.27988
G1 X218.89 Y157.39 E5.4053
M204 S513
G0 F2700 X219.19 Y157.69
M204 S385
G1 F900 X200.81 Y157.69 E5.53495
G1 X200.81 Y139.31 E5.6646
G1 X219.19 Y139.31 E5.79426
G1 X219.19 Y157.69 E5.92391
M204 S513
G0 F2700 X219.49 Y157.99
M204 S385
G1 F900 X200.51 Y157.99 E6.05779
G1 X200.51 Y139.01 E6.19168
G1 X219.49 Y139.01 E6.32556
G1 X219.49 Y157.99 E6.45944
M204 S513
G0 F2700 X219.82 Y158.32
M204 S385
;TYPE:WALL-OUTER
G1 F900 X200.18 Y158.32 E6.62569
G1 X200.18 Y138.68 E6.79194
G1 X219.82 Y138.68 E6.95819
G1 X219.82 Y158.32 E7.12444
M204 S513
G0 F2700 X219.67 Y158.32
G0 X219.424 Y157.924
G0 X219.39 Y157.924
G0 X218.27 Y156.77
M204 S385
;TYPE:SKIN
G1 F900 X201.73 Y156.77 E7.26444
G1 X201.73 Y140.23 E7.40445
G1 X218.27 Y140.23 E7.54446
G1 X218.27 Y156.77 E7.68446
M204 S513
G0 F2700 X202.02 Y156.478
M204 S385
G1 F900 X202.299 Y156.478 E7.68682
G1 X202.02 Y156.199 E7.69016
G1 X202.02 Y155.69 E7.69447
G1 X202.808 Y156.478 E7.70391
G1 X203.317 Y156.478 E7.70821
G1 X202.02 Y155.181 E7.72374
G1 X202.02 Y154.672 E7.72805
G1 X203.826 Y156.478 E7.74967
G1 X204.335 Y156.478 E7.75398
G1 X202.02 Y154.163 E7.78169
G1 X202.02 Y153.654 E7.786
G1 X204.844 Y156.478 E7.81981
G1 X205.353 Y156.478 E7.82411
G1 X202.02 Y153.145 E7.86401
G1 X202.02 Y152.636 E7.86832
G1 X205.862 Y156.478 E7.91431
G1 X206.371 Y156.478 E7.91862
G1 X202.02 Y152.126 E7.97071
G1 X202.02 Y151.617 E7.97502
G1 X206.881 Y156.478 E8.03321
G1 X207.39 Y156.478 E8.03752
G1 X202.02 Y151.108 E8.10181
G1 X202.02 Y150.599 E8.10611
G1 X207.899 Y156.478 E8.17649
G1 X208.408 Y156.478 E8.1808
G1 X202.02 Y150.09 E8.25727
G1 X202.02 Y149.581 E8.26158
G1 X208.917 Y156.478 E8.34414
G1 X209.426 Y156.478 E8.34845
G1 X202.02 Y149.072 E8.43711
G1 X202.02 Y148.563 E8.44142
G1 X209.935 Y156.478 E8.53617
G1 X210.444 Y156.478 E8.54048
G1 X202.02 Y148.054 E8.64132
G1 X202.02 Y147.544 E8.64564
G1 X210.953 Y156.478 E8.75258
G1 X211.463 Y156.478 E8.7569
G1 X202.02 Y147.035 E8.86994
G1 X202.02 Y146.526 E8.87425
G1 X211.972 Y156.478 E8.99338
G1 X212.481 Y156.478 E8.99769
G1 X202.02 Y146.017 E9.12292
G1 X202.02 Y145.508 E9.12723
G1 X212.99 Y156.478 E9.25855
G1 X213.499 Y156.478 E9.26286
G1 X202.02 Y144.999 E9.40027
G1 X202.02 Y144.49 E9.40458
G1 X214.008 Y156.478 E9.54809
G1 X214.517 Y156.478 E9.5524
G1 X202.02 Y143.981 E9.702
G1 X202.02 Y143.471 E9.70632
G1 X215.026 Y156.478 E9.86202
G1 X215.536 Y156.478 E9.86633
G1 X202.02 Y142.962 E10.02813
G1 X202.02 Y142.453 E10.03244
G1 X216.045 Y156.478 E10.20033
G1 X216.554 Y156.478 E10.20464
G1 X202.02 Y141.944 E10.37863
G1 X202.02 Y141.435 E10.38294
G1 X217.063 Y156.478 E10.56302
G1 X217.572 Y156.478 E10.56732
G1 X202.02 Y140.926 E10.7535
G1 X202.02 Y140.52 E10.75693
G1 X202.123 Y140.52 E10.75781
G1 X217.978 Y156.375 E10.94761
G1 X217.978 Y155.866 E10.95191
G1 X202.632 Y140.52 E11.13562
G1 X203.141 Y140.52 E11.13993
G1 X217.978 Y155.357 E11.31754
G1 X217.978 Y154.847 E11.32186
G1 X203.65 Y140.52 E11.49337
G1 X204.16 Y140.52 E11.49769
G1 X217.978 Y154.338 E11.6631
G1 X217.978 Y153.829 E11.66741
G1 X204.669 Y140.52 E11.82673
G1 X205.178 Y140.52 E11.83104
G1 X217.978 Y153.32 E11.98427
G1 X217.978 Y152.811 E11.98858
G1 X205.687 Y140.52 E12.13572
G1 X206.196 Y140.52 E12.14002
G1 X217.978 Y152.302 E12.28107
G1 X217.978 Y151.793 E12.28537
G1 X206.705 Y140.52 E12.42032
G1 X207.214 Y140.52 E12.42463
G1 X217.978 Y151.284 E12.55349
G1 X217.978 Y150.774 E12.5578
G1 X207.723 Y140.52 E12.68056
G1 X208.233 Y140.52 E12.68488
G1 X217.978 Y150.265 E12.80153
G1 X217.978 Y149.756 E12.80584
G1 X208.742 Y140.52 E12.91641
G1 X209.251 Y140.52 E12.92072
G1 X217.978 Y149.247 E13.02519
G1 X217.978 Y148.738 E13.02949
G1 X209.76 Y140.52 E13.12787
G1 X210.269 Y140.52 E13.13218
G1 X217.978 Y148.229 E13.22446
G1 X217.978 Y147.72 E13.22877
G1 X210.778 Y140.52 E13.31496
G1 X211.287 Y140.52 E13.31927
G1 X217.978 Y147.211 E13.39937
G1 X217.978 Y146.702 E13.40368
G1 X211.796 Y140.52 E13.47768
G1 X212.305 Y140.52 E13.48199
G1 X217.978 Y146.192 E13.5499
G1 X217.978 Y145.683 E13.55421
G1 X212.815 Y140.52 E13.61601
G1 X213.324 Y140.52 E13.62032
G1 X217.978 Y145.174 E13.67603
G1 X217.978 Y144.665 E13.68034
G1 X213.833 Y140.52 E13.72996
G1 X214.342 Y140.52 E13.73427
G1 X217.978 Y144.156 E13.7778
G1 X217.978 Y143.647 E13.78211
G1 X214.851 Y140.52 E13.81954
G1 X215.36 Y140.52 E13.82385
G1 X217.978 Y143.138 E13.85519
G1 X217.978 Y142.629 E13.8595
G1 X215.869 Y140.52 E13.88474
G1 X216.378 Y140.52 E13.88905
G1 X217.978 Y142.119 E13.9082
G1 X217.978 Y141.61 E13.91251
G1 X216.888 Y140.52 E13.92556
G1 X217.397 Y140.52 E13.92986
G1 X217.978 Y141.101 E13.93682
G1 X217.978 Y140.592 E13.94113
G1 X217.906 Y140.52 E13.94199
M104 S230
G1 X217.978 Y140.52 E13.9426
M204 S513
;MESH:NONMESH
G0 F600 X217.978 Y140.52 Z0.25
G0 F2700 X218.825 Y157.325
;TIME_ELAPSED:123.124974
;LAYER:1
M106 S51
M204 S385
;TYPE:WALL-INNER
;MESH:xyzCalibration_cube.stl
G1 F1425 X201.175 Y157.325 E14.01177
G1 X201.175 Y139.675 E14.08093
G1 X218.825 Y139.675 E14.1501
G1 X218.825 Y157.325 E14.21927
M204 S657
M205 X10.94 Y10.94
G0 F5850 X219.075 Y157.575
M204 S385
M205 X9.38 Y9.38
G1 F1425 X200.925 Y157.575 E14.2904
G1 X200.925 Y139.425 E14.36153
G1 X219.075 Y139.425 E14.43265
G1 X219.075 Y157.575 E14.50378
M204 S657
M205 X10.94 Y10.94
G0 F5850 X219.325 Y157.825
M204 S385
M205 X9.38 Y9.38
G1 F1425 X200.675 Y157.825 E14.57687
G1 X200.675 Y139.175 E14.64995
G1 X219.325 Y139.175 E14.72304
G1 X219.325 Y157.825 E14.79613
M204 S657
M205 X10.94 Y10.94
G0 F5850 X219.575 Y158.075
M204 S385
M205 X9.38 Y9.38
G1 F1425 X200.425 Y158.075 E14.87117
G1 X200.425 Y138.925 E14.94622
G1 X219.575 Y138.925 E15.02127
G1 X219.575 Y158.075 E15.09631
M204 S657
M205 X10.94 Y10.94
G0 F5850 X219.85 Y158.35
M204 S278
M205 X7.03 Y7.03
;TYPE:WALL-OUTER
G1 F900 X200.15 Y158.35 E15.18896
G1 X200.15 Y138.65 E15.2816
G1 X219.85 Y138.65 E15.37424
G1 X219.85 Y158.35 E15.46688
M204 S657
M205 X10.94 Y10.94
G0 F5850 X219.7 Y158.35
G0 X219.52 Y158.02
G0 X219.475 Y158.02
G0 X218.56 Y157.06
M204 S385
M205 X9.38 Y9.38
;TYPE:SKIN
G1 F1425 X201.44 Y157.06 E15.54739
G1 X201.44 Y139.94 E15.6279
G1 X218.56 Y139.94 E15.70841
G1 X218.56 Y157.06 E15.78892
M204 S657
M205 X10.94 Y10.94
G0 F5850 X218.328 Y156.828
M204 S385
M205 X9.38 Y9.38
G1 F1425 X218.328 Y156.721 E15.78942
G1 X218.22 Y156.828 E15.79014
G1 X217.796 Y156.828 E15.79213
G1 X218.328 Y156.296 E15.79567
G1 X218.328 Y155.872 E15.79766
G1 X217.372 Y156.828 E15.80402
G1 X216.948 Y156.828 E15.80601
G1 X218.328 Y155.448 E15.81519
G1 X218.328 Y155.023 E15.81719
G1 X216.523 Y156.828 E15.82919
G1 X216.099 Y156.828 E15.83119
G1 X218.328 Y154.599 E15.84601
G1 X218.328 Y154.175 E15.84801
G1 X215.675 Y156.828 E15.86565
G1 X215.251 Y156.828 E15.86764
G1 X218.328 Y153.751 E15.88811
G1 X218.328 Y153.326 E15.89011
G1 X214.826 Y156.828 E15.9134
G1 X214.402 Y156.828 E15.91539
G1 X218.328 Y152.902 E15.9415
G1 X218.328 Y152.478 E15.94349
G1 X213.978 Y156.828 E15.97242
G1 X213.554 Y156.828 E15.97442
G1 X218.328 Y152.054 E16.00617
G1 X218.328 Y151.629 E16.00817
G1 X213.129 Y156.828 E16.04274
G1 X212.705 Y156.828 E16.04474
G1 X218.328 Y151.205 E16.08213
G1 X218.328 Y150.781 E16.08413
G1 X212.281 Y156.828 E16.12434
G1 X211.856 Y156.828 E16.12634
G1 X218.328 Y150.357 E16.16938
G1 X218.328 Y149.932 E16.17138
G1 X211.432 Y156.828 E16.21724
G1 X211.008 Y156.828 E16.21923
