;FLAVOR:Marlin
;TIME:27197
;Filament used: 0m, 4.2723m
;Layer height: 0.1
;MINX:170.28
;MINY:78.78
;MINZ:0.2
;MAXX:249.72
;MAXY:220.22
;MAXZ:32
;Generated with StratosEngine 1.5.5
T1
M82 ;absolute extrusion mode
;Machine Model: Sigmax R19 
;Materials used:  T1 PLA 
;Extruders used:  T1 0.4 
M141 S0 	;Set chamber temperature 
M140 S60 	;Heat build surface
M104 T1 S190	;Heat extruder 1
M190 S60 	;Wait until bed temperature reached 
M109 T1 S190	;Heat extruder 1 and wait
G21 		;metric values 
G90 		;absolute positioning 
M204 S600 	;set default acceleration 
M205 X12.5 Y12.5 ;set default jerk 
M107 		;start with the fan off 
G28 X0 Y0 	;move X/Y to min endstops 
G28 Z0 		;move Z to min endstops 
G1 Z5 F200 	;safety Z axis movement

T1
G92 E0 		;set zero the extruded length 
G1 E15 F30
G92 E0 
G4 S2 		;stabilize hotend 
G1 E-0.5 F1000 
G92 E0

G4 P1
G4 P2
G4 P3

G92 E0
;LAYER_COUNT:319
;LAYER:0
M107
M204 S580
M205 X9.38 Y9.38
G1 F600 Z0.4
G0 F2700 X174.659 Y220.22 Z0.4
M204 S435
;TYPE:SKIRT
G1 F600 Z0.2
G1 F1050 E0
G1 F900 X173.418 Y220.164 E0.01869
G1 X172.887 Y220.038 E0.02691
G1 X172.381 Y219.836 E0.03511
G1 X171.91 Y219.562 E0.04331
G1 X171.483 Y219.222 E0.05152
G1 X171.111 Y218.824 E0.05972
G1 X170.802 Y218.375 E0.06792
G1 X170.561 Y217.886 E0.07612
G1 X170.394 Y217.367 E0.08433
G1 X170.281 Y216.259 E0.10109
G1 X170.28 Y83.124 E2.10456
G1 X170.337 Y81.916 E2.12276
G1 X170.463 Y81.385 E2.13097
G1 X170.665 Y80.879 E2.13917
G1 X170.939 Y80.408 E2.14737
G1 X171.279 Y79.982 E2.15558
G1 X171.678 Y79.61 E2.16378
G1 X172.127 Y79.3 E2.172
G1 X172.616 Y79.06 E2.18019
G1 X173.135 Y78.893 E2.1884
G1 X174.226 Y78.781 E2.2049
G1 X245.346 Y78.78 E3.27515
G1 X246.587 Y78.838 E3.29384
G1 X247.118 Y78.965 E3.30206
G1 X247.624 Y79.167 E3.31026
G1 X248.095 Y79.442 E3.31846
G1 X248.52 Y79.782 E3.32665
G1 X248.892 Y80.181 E3.33486
G1 X249.201 Y80.63 E3.34307
G1 X249.441 Y81.12 E3.35128
G1 X249.608 Y81.639 E3.35948
G1 X249.719 Y82.725 E3.37591
G1 X249.72 Y215.81 E5.37863
G1 X249.664 Y217.08 E5.39776
G1 X249.538 Y217.611 E5.40597
G1 X249.337 Y218.117 E5.41417
G1 X249.063 Y218.589 E5.42238
G1 X248.724 Y219.015 E5.43057
G1 X248.325 Y219.387 E5.43878
G1 X247.877 Y219.698 E5.44699
G1 X247.388 Y219.939 E5.45519
G1 X246.869 Y220.106 E5.4634
G1 X245.774 Y220.219 E5.47996
G1 X174.659 Y220.22 E6.55013
M204 S580
G0 F2700 X174.665 Y219.74
M204 S435
G1 F900 X173.461 Y219.684 E6.56827
G1 X172.968 Y219.559 E6.57592
G1 X172.5 Y219.358 E6.58359
G1 X172.07 Y219.087 E6.59124
G1 X171.688 Y218.751 E6.59889
G1 X171.362 Y218.36 E6.60655
G1 X171.102 Y217.923 E6.61421
G1 X170.914 Y217.45 E6.62187
G1 X170.802 Y216.954 E6.62952
G1 X170.76 Y216.158 E6.64151
G1 X170.76 Y83.13 E8.64338
G1 X170.816 Y81.959 E8.66102
G1 X170.942 Y81.466 E8.66868
G1 X171.143 Y80.998 E8.67634
G1 X171.415 Y80.568 E8.684
G1 X171.75 Y80.186 E8.69164
G1 X172.142 Y79.861 E8.69931
G1 X172.579 Y79.602 E8.70695
G1 X173.052 Y79.414 E8.71461
G1 X173.548 Y79.302 E8.72226
G1 X174.33 Y79.26 E8.73405
G1 X245.339 Y79.26 E9.80262
G1 X246.544 Y79.318 E9.82078
G1 X247.037 Y79.443 E9.82843
G1 X247.504 Y79.645 E9.83609
G1 X247.934 Y79.917 E9.84374
G1 X248.316 Y80.253 E9.8514
G1 X248.64 Y80.645 E9.85905
G1 X248.9 Y81.083 E9.86672
G1 X249.087 Y81.555 E9.87436
G1 X249.198 Y82.052 E9.88202
G1 X249.24 Y82.83 E9.89375
G1 X249.24 Y215.804 E11.8948
G1 X249.185 Y217.038 E11.91339
G1 X249.06 Y217.531 E11.92104
G1 X248.859 Y217.998 E11.92869
G1 X248.588 Y218.429 E11.93635
G1 X248.252 Y218.811 E11.94401
G1 X247.861 Y219.137 E11.95167
G1 X247.424 Y219.397 E11.95932
G1 X246.952 Y219.585 E11.96697
G1 X246.455 Y219.698 E11.97464
G1 X245.67 Y219.74 E11.98647
G1 X174.665 Y219.74 E13.05498
M204 S580
G1 F2100 E6.55498
;MESH:green-magic_deck_box-cover.stl
G0 F2700 X174.704 Y215.796
G0 X244.47 Y214.97
M204 S435
;TYPE:WALL-INNER
G1 F1050 E13.05498
G1 F900 X175.53 Y214.97 E13.96274
G1 X175.53 Y84.03 E15.68688
G1 X244.47 Y84.03 E16.59464
G1 X244.47 Y214.97 E18.31878
M204 S580
G0 F2700 X244.89 Y215.39
M204 S435
G1 F900 X175.11 Y215.39 E19.2376
G1 X175.11 Y83.61 E20.9728
G1 X244.89 Y83.61 E21.89162
G1 X244.89 Y215.39 E23.62682
M204 S580
G0 F2700 X245.31 Y215.81
M204 S435
G1 F900 X174.69 Y215.81 E24.5567
G1 X174.69 Y83.19 E26.30296
G1 X245.31 Y83.19 E27.23284
G1 X245.31 Y215.81 E28.9791
M204 S580
G0 F2700 X245.76 Y216.26
M204 S435
;TYPE:WALL-OUTER
G1 F900 X174.24 Y216.26 E30.05536
G1 X174.24 Y82.74 E32.06463
G1 X245.76 Y82.74 E33.14089
G1 X245.76 Y216.26 E35.15016
M204 S580
G0 F2700 X245.56 Y216.26
G0 X245.232 Y215.732
G0 X245.21 Y215.732
G0 X244.03 Y214.53
M204 S435
;TYPE:SKIN
G1 F900 X175.97 Y214.53 E36.17436
G1 X175.97 Y84.47 E38.13156
G1 X244.03 Y84.47 E39.15576
G1 X244.03 Y214.53 E41.11296
M204 S580
G0 F2700 X176.355 Y214.143
M204 S435
G1 F900 X176.808 Y214.143 E41.11978
G1 X176.355 Y213.69 E41.12942
M204 S580
G0 F2700 X176.808 Y214.143
M204 S435
G1 F900 X177.487 Y214.143 E41.13963
G1 X176.355 Y213.011 E41.16372
G1 X176.355 Y212.332 E41.17394
G1 X178.166 Y214.143 E41.21248
G1 X178.844 Y214.143 E41.22269
G1 X176.355 Y211.654 E41.27566
G1 X176.355 Y210.975 E41.28587
G1 X179.523 Y214.143 E41.3533
G1 X180.202 Y214.143 E41.36351
G1 X176.355 Y210.296 E41.44538
G1 X176.355 Y209.617 E41.4556
G1 X180.881 Y214.143 E41.55192
G1 X181.56 Y214.143 E41.56214
G1 X176.355 Y208.938 E41.67291
G1 X176.355 Y208.259 E41.68313
G1 X182.239 Y214.143 E41.80835
G1 X182.917 Y214.143 E41.81855
G1 X176.355 Y207.581 E41.95821
G1 X176.355 Y206.902 E41.96842
G1 X183.596 Y214.143 E42.12252
G1 X184.275 Y214.143 E42.13274
G1 X176.355 Y206.223 E42.30129
G1 X176.355 Y205.544 E42.31151
G1 X184.954 Y214.143 E42.49451
G1 X185.633 Y214.143 E42.50473
G1 X176.355 Y204.865 E42.70218
G1 X176.355 Y204.186 E42.7124
G1 X186.312 Y214.143 E42.9243
G1 X186.99 Y214.143 E42.9345
G1 X176.355 Y203.508 E43.16084
G1 X176.355 Y202.829 E43.17105
G1 X187.669 Y214.143 E43.41184
G1 X188.348 Y214.143 E43.42205
G1 X176.355 Y202.15 E43.67728
G1 X176.355 Y201.471 E43.6875
G1 X189.027 Y214.143 E43.95718
G1 X189.706 Y214.143 E43.9674
G1 X176.355 Y200.792 E44.25153
G1 X176.355 Y200.114 E44.26174
G1 X190.384 Y214.143 E44.5603
G1 X191.063 Y214.143 E44.57052
G1 X176.355 Y199.435 E44.88353
G1 X176.355 Y198.756 E44.89375
G1 X191.742 Y214.143 E45.22121
G1 X192.421 Y214.143 E45.23143
G1 X176.355 Y198.077 E45.57334
G1 X176.355 Y197.398 E45.58356
G1 X193.1 Y214.143 E45.93992
G1 X193.779 Y214.143 E45.95014
G1 X176.355 Y196.719 E46.32095
G1 X176.355 Y196.041 E46.33115
G1 X194.457 Y214.143 E46.71639
G1 X195.136 Y214.143 E46.72661
G1 X176.355 Y195.362 E47.1263
G1 X176.355 Y194.683 E47.13652
G1 X195.815 Y214.143 E47.55066
G1 X196.494 Y214.143 E47.56088
G1 X176.355 Y194.004 E47.98947
G1 X176.355 Y193.325 E47.99969
G1 X197.173 Y214.143 E48.44273
G1 X197.852 Y214.143 E48.45295
G1 X176.355 Y192.646 E48.91044
G1 X176.355 Y191.968 E48.92065
G1 X198.53 Y214.143 E49.39257
G1 X199.209 Y214.143 E49.40279
G1 X176.355 Y191.289 E49.88916
G1 X176.355 Y190.61 E49.89938
G1 X199.888 Y214.143 E50.4002
G1 X200.567 Y214.143 E50.41042
G1 X176.355 Y189.931 E50.92569
G1 X176.355 Y189.252 E50.93591
G1 X201.246 Y214.143 E51.46563
G1 X201.924 Y214.143 E51.47583
G1 X176.355 Y188.574 E52.01999
G1 X176.355 Y187.895 E52.0302
G1 X202.603 Y214.143 E52.58881
G1 X203.282 Y214.143 E52.59903
G1 X176.355 Y187.216 E53.17208
G1 X176.355 Y186.537 E53.1823
G1 X203.961 Y214.143 E53.7698
G1 X204.64 Y214.143 E53.78002
G1 X176.355 Y185.858 E54.38197
G1 X176.355 Y185.179 E54.39219
G1 X205.319 Y214.143 E55.00859
G1 X205.997 Y214.143 E55.01879
G1 X176.355 Y184.501 E55.64963
G1 X176.355 Y183.822 E55.65984
G1 X206.676 Y214.143 E56.30513
G1 X207.355 Y214.143 E56.31535
G1 X176.355 Y183.143 E56.97508
G1 X176.355 Y182.464 E56.9853
G1 X208.034 Y214.143 E57.65948
G1 X208.713 Y214.143 E57.6697
G1 X176.355 Y181.785 E58.35833
G1 X176.355 Y181.107 E58.36853
G1 X209.391 Y214.143 E59.0716
G1 X210.07 Y214.143 E59.08182
G1 X176.355 Y180.428 E59.79933
G1 X176.355 Y179.749 E59.80955
G1 X210.749 Y214.143 E60.54151
G1 X211.428 Y214.143 E60.55173
G1 X176.355 Y179.07 E61.29814
G1 X176.355 Y178.391 E61.30836
G1 X212.107 Y214.143 E62.06922
G1 X212.786 Y214.143 E62.07944
G1 X176.355 Y177.712 E62.85475
G1 X176.355 Y177.034 E62.86496
G1 X213.464 Y214.143 E63.6547
G1 X214.143 Y214.143 E63.66492
G1 X176.355 Y176.355 E64.46911
G1 X176.355 Y175.676 E64.47933
G1 X214.822 Y214.143 E65.29797
G1 X215.501 Y214.143 E65.30819
G1 X176.355 Y174.997 E66.14129
G1 X176.355 Y174.318 E66.1515
G1 X216.18 Y214.143 E66.99905
G1 X216.859 Y214.143 E67.00927
G1 X176.355 Y173.639 E67.87126
G1 X176.355 Y172.961 E67.88146
G1 X217.537 Y214.143 E68.75789
G1 X218.216 Y214.143 E68.7681
G1 X176.355 Y172.282 E69.65898
G1 X176.355 Y171.603 E69.6692
G1 X218.895 Y214.143 E70.57452
G1 X219.574 Y214.143 E70.58474
G1 X176.355 Y170.924 E71.50451
G1 X176.355 Y170.245 E71.51473
G1 X220.253 Y214.143 E72.44896
G1 X220.931 Y214.143 E72.45916
G1 X176.355 Y169.567 E73.40781
G1 X176.355 Y168.888 E73.41803
G1 X221.61 Y214.143 E74.38113
G1 X222.289 Y214.143 E74.39135
G1 X176.355 Y168.209 E75.36891
G1 X176.355 Y167.53 E75.37912
G1 X222.968 Y214.143 E76.37113
G1 X223.647 Y214.143 E76.38135
G1 X176.355 Y166.851 E77.3878
G1 X176.355 Y166.172 E77.39802
G1 X224.326 Y214.143 E78.41892
G1 X225.004 Y214.143 E78.42913
G1 X176.355 Y165.494 E79.46446
G1 X176.355 Y164.815 E79.47468
G1 X225.683 Y214.143 E80.52446
G1 X226.362 Y214.143 E80.53468
G1 X176.355 Y164.136 E81.59892
G1 X176.355 Y163.457 E81.60913
G1 X227.041 Y214.143 E82.68782
G1 X227.72 Y214.143 E82.69804
G1 X176.355 Y162.778 E83.79117
G1 X176.355 Y162.099 E83.80139
G1 X228.399 Y214.143 E84.90898
G1 X229.077 Y214.143 E84.91918
G1 X176.355 Y161.421 E86.04119
G1 X176.355 Y160.742 E86.05141
G1 X229.756 Y214.143 E87.18788
G1 X230.435 Y214.143 E87.19809
G1 X176.355 Y160.063 E88.34901
G1 X176.355 Y159.384 E88.35923
G1 X231.114 Y214.143 E89.52459
G1 X231.793 Y214.143 E89.53481
G1 X176.355 Y158.705 E90.71463
G1 X176.355 Y158.027 E90.72483
G1 X232.471 Y214.143 E91.91907
G1 X233.15 Y214.143 E91.92929
G1 X176.355 Y157.348 E93.13799
G1 X176.355 Y156.669 E93.14821
G1 X233.829 Y214.143 E94.37135
G1 X234.508 Y214.143 E94.38157
G1 X176.355 Y155.99 E95.61916
G1 X176.355 Y155.311 E95.62938
G1 X235.187 Y214.143 E96.88143
G1 X235.866 Y214.143 E96.89165
G1 X176.355 Y154.632 E98.15814
G1 X176.355 Y153.954 E98.16834
G1 X236.544 Y214.143 E99.44927
G1 X237.223 Y214.143 E99.45949
G1 X176.355 Y153.275 E100.75486
G1 X176.355 Y152.596 E100.76508
G1 X237.902 Y214.143 E102.07491
G1 X238.581 Y214.143 E102.08512
G1 X176.355 Y151.917 E103.4094
G1 X176.355 Y151.238 E103.41962
G1 X239.26 Y214.143 E104.75834
G1 X239.939 Y214.143 E104.76856
G1 X176.355 Y150.56 E106.12173
G1 X176.355 Y149.881 E106.13195
G1 X240.617 Y214.143 E107.49955
G1 X241.296 Y214.143 E107.50977
G1 X176.355 Y149.202 E108.89183
G1 X176.355 Y148.523 E108.90204
G1 X241.975 Y214.143 E110.29855
G1 X242.654 Y214.143 E110.30877
G1 X176.355 Y147.844 E111.71972
G1 X176.355 Y147.165 E111.72994
G1 X243.333 Y214.143 E113.15535
G1 X243.642 Y214.143 E113.16
G1 X243.643 Y213.775 E113.16554
G1 X176.355 Y146.487 E114.59754
G1 X176.355 Y145.808 E114.60776
G1 X243.643 Y213.096 E116.03976
G1 X243.643 Y212.417 E116.04998
G1 X176.355 Y145.129 E117.48198
G1 X176.355 Y144.45 E117.4922
G1 X243.643 Y211.738 E118.92421
G1 X243.643 Y211.06 E118.93441
G1 X176.355 Y143.771 E120.36642
G1 X176.355 Y143.092 E120.37664
G1 X243.643 Y210.381 E121.80866
G1 X243.643 Y209.702 E121.81887
G1 X176.355 Y142.414 E123.25088
G1 X176.355 Y141.735 E123.2611
G1 X243.643 Y209.023 E124.6931
G1 X243.643 Y208.344 E124.70332
G1 X176.355 Y141.056 E126.13532
G1 X176.355 Y140.377 E126.14554
G1 X243.643 Y207.665 E127.57754
G1 X243.643 Y206.987 E127.58775
G1 X176.355 Y139.698 E129.01976
G1 X176.355 Y139.02 E129.02996
G1 X243.643 Y206.308 E130.46197
G1 X243.643 Y205.629 E130.47219
G1 X176.355 Y138.341 E131.90419
G1 X176.355 Y137.662 E131.91441
G1 X243.643 Y204.95 E133.34641
G1 X243.643 Y204.271 E133.35663
G1 X176.355 Y136.983 E134.78863
G1 X176.355 Y136.304 E134.79885
G1 X243.643 Y203.593 E136.23087
G1 X243.643 Y202.914 E136.24109
G1 X176.355 Y135.625 E137.6731
G1 X176.355 Y134.947 E137.6833
G1 X243.643 Y202.235 E139.11531
G1 X243.643 Y201.556 E139.12552
G1 X176.355 Y134.268 E140.55753
G1 X176.355 Y133.589 E140.56775
G1 X243.643 Y200.877 E141.99975
G1 X243.643 Y200.198 E142.00997
G1 X176.355 Y132.91 E143.44197
G1 X176.355 Y132.231 E143.45219
G1 X243.643 Y199.52 E144.88421
G1 X243.643 Y198.841 E144.89442
G1 X176.355 Y131.552 E146.32644
G1 X176.355 Y130.874 E146.33664
G1 X243.643 Y198.162 E147.76864
G1 X243.643 Y197.483 E147.77886
G1 X176.355 Y130.195 E149.21087
G1 X176.355 Y129.516 E149.22108
G1 X243.643 Y196.804 E150.65309
G1 X243.643 Y196.125 E150.66331
G1 X176.355 Y128.837 E152.09531
G1 X176.355 Y128.158 E152.10553
G1 X243.643 Y195.447 E153.53754
G1 X243.643 Y194.768 E153.54776
G1 X176.355 Y127.48 E154.97977
G1 X176.355 Y126.801 E154.98998
G1 X243.643 Y194.089 E156.42199
G1 X243.643 Y193.41 E156.43221
G1 X176.355 Y126.122 E157.86421
G1 X176.355 Y125.443 E157.87443
G1 X243.643 Y192.731 E159.30643
G1 X243.643 Y192.053 E159.31663
G1 X176.355 Y124.764 E160.74865
G1 X176.355 Y124.085 E160.75887
G1 X243.643 Y191.374 E162.19088
G1 X243.643 Y190.695 E162.2011
G1 X176.355 Y123.407 E163.6331
G1 X176.355 Y122.728 E163.64332
G1 X243.643 Y190.016 E165.07533
G1 X243.643 Y189.337 E165.08554
G1 X176.355 Y122.049 E166.51755
G1 X176.355 Y121.37 E166.52777
G1 X243.643 Y188.658 E167.95977
G1 X243.643 Y187.98 E167.96997
G1 X176.355 Y120.691 E169.40199
G1 X176.355 Y120.012 E169.4122
G1 X243.643 Y187.301 E170.84422
G1 X243.643 Y186.622 E170.85444
G1 X176.355 Y119.334 E172.28644
G1 X176.355 Y118.655 E172.29666
G1 X243.643 Y185.943 E173.72866
G1 X243.643 Y185.264 E173.73888
G1 X176.355 Y117.976 E175.17089
G1 X176.355 Y117.297 E175.1811
G1 X243.643 Y184.585 E176.61311
G1 X243.643 Y183.907 E176.62331
G1 X176.355 Y116.618 E178.05532
G1 X176.355 Y115.94 E178.06553
G1 X243.643 Y183.228 E179.49753
G1 X243.643 Y182.549 E179.50775
G1 X176.355 Y115.261 E180.93975
G1 X176.355 Y114.582 E180.94997
G1 X243.643 Y181.87 E182.38198
G1 X243.643 Y181.191 E182.39219
G1 X176.355 Y113.903 E183.8242
G1 X176.355 Y113.224 E183.83442
G1 X243.643 Y180.513 E185.26643
G1 X243.643 Y179.834 E185.27665
G1 X176.355 Y112.545 E186.70866
G1 X176.355 Y111.867 E186.71887
G1 X243.643 Y179.155 E188.15087
G1 X243.643 Y178.476 E188.16109
G1 X176.355 Y111.188 E189.59309
G1 X176.355 Y110.509 E189.60331
G1 X243.643 Y177.797 E191.03531
G1 X243.643 Y177.118 E191.04553
G1 X176.355 Y109.83 E192.47754
G1 X176.355 Y109.151 E192.48775
G1 X243.643 Y176.44 E193.91977
G1 X243.643 Y175.761 E193.92999
G1 X176.355 Y108.473 E195.36199
G1 X176.355 Y107.794 E195.37221
G1 X243.643 Y175.082 E196.80421
G1 X243.643 Y174.403 E196.81443
G1 X176.355 Y107.115 E198.24643
G1 X176.355 Y106.436 E198.25665
G1 X243.643 Y173.724 E199.68866
G1 X243.643 Y173.045 E199.69887
G1 X176.355 Y105.757 E201.13088
G1 X176.355 Y105.078 E201.1411
G1 X243.643 Y172.367 E202.57311
G1 X243.643 Y171.688 E202.58333
G1 X176.355 Y104.4 E204.01533
G1 X176.355 Y103.721 E204.02555
G1 X243.643 Y171.009 E205.45755
G1 X243.643 Y170.33 E205.46777
G1 X176.355 Y103.042 E206.89978
G1 X176.355 Y102.363 E206.90999
G1 X243.643 Y169.651 E208.342
G1 X243.643 Y168.973 E208.3522
G1 X176.355 Y101.684 E209.78422
G1 X176.355 Y101.005 E209.79443
G1 X243.643 Y168.294 E211.22645
G1 X243.643 Y167.615 E211.23667
G1 X176.355 Y100.327 E212.66867
G1 X176.355 Y99.648 E212.67889
G1 X243.643 Y166.936 E214.11089
G1 X243.643 Y166.257 E214.12111
G1 X176.355 Y98.969 E215.55311
G1 X176.355 Y98.29 E215.56333
G1 X243.643 Y165.578 E216.99534
G1 X243.643 Y164.9 E217.00554
G1 X176.355 Y97.611 E218.43755
G1 X176.355 Y96.933 E218.44776
G1 X243.643 Y164.221 E219.87976
G1 X243.643 Y163.542 E219.88998
G1 X176.355 Y96.254 E221.32198
G1 X176.355 Y95.575 E221.3322
G1 X243.643 Y162.863 E222.7642
G1 X243.643 Y162.184 E222.77442
G1 X176.355 Y94.896 E224.20643
G1 X176.355 Y94.217 E224.21664
G1 X243.643 Y161.506 E225.64866
G1 X243.643 Y160.827 E225.65888
G1 X176.355 Y93.538 E227.09089
G1 X176.355 Y92.86 E227.10109
G1 X243.643 Y160.148 E228.5331
