;FLAVOR:Marlin
;TIME:56218
;Filament used: 0m, 7.97336m
;Layer height: 0.1
;MINX:168.28
;MINY:75.03
;MINZ:0.2
;MAXX:251.72
;MAXY:221.97
;MAXZ:34
;Generated with StratosEngine 1.5.5
T1
M82 ;absolute extrusion mode
;Machine Model: Sigmax R19 
;Materials used:  T1 PLA 
;Extruders used:  T1 0.4 
M141 S0 	;Set chamber temperature 
M140 S60 	;Heat build surface
M104 T1 S190	;Heat extruder 1
M190 S60 	;Wait until bed temperature reached 
M109 T1 S190	;Heat extruder 1 and wait
G21 		;metric values 
G90 		;absolute positioning 
M204 S600 	;set default acceleration 
M205 X12.5 Y12.5 ;set default jerk 
M107 		;start with the fan off 
G28 X0 Y0 	;move X/Y to min endstops 
G28 Z0 		;move Z to min endstops 
G1 Z5 F200 	;safety Z axis movement

T1
G92 E0 		;set zero the extruded length 
G1 E15 F30
G92 E0 
G4 S2 		;stabilize hotend 
G1 E-0.5 F1000 
G92 E0

G4 P1
G4 P2
G4 P3

G92 E0
;LAYER_COUNT:339
;LAYER:0
M107
M204 S580
M205 X9.38 Y9.38
G1 F600 Z0.4
G0 F2700 X172.659 Y221.97 Z0.4
M204 S435
;TYPE:SKIRT
G1 F600 Z0.2
G1 F1050 E0
G1 F900 X171.418 Y221.914 E0.01869
G1 X170.887 Y221.788 E0.02691
G1 X170.381 Y221.586 E0.03511
G1 X169.91 Y221.312 E0.04331
G1 X169.483 Y220.972 E0.05152
G1 X169.111 Y220.574 E0.05972
G1 X168.802 Y220.125 E0.06792
G1 X168.561 Y219.636 E0.07612
G1 X168.394 Y219.117 E0.08433
G1 X168.281 Y218.009 E0.10109
G1 X168.28 Y79.374 E2.18733
G1 X168.337 Y78.166 E2.20553
G1 X168.463 Y77.635 E2.21374
G1 X168.665 Y77.129 E2.22194
G1 X168.939 Y76.658 E2.23014
G1 X169.279 Y76.232 E2.23834
G1 X169.678 Y75.86 E2.24655
G1 X170.127 Y75.55 E2.25476
G1 X170.616 Y75.31 E2.26296
G1 X171.135 Y75.143 E2.27116
G1 X172.226 Y75.031 E2.28767
G1 X247.346 Y75.03 E3.41811
G1 X248.587 Y75.088 E3.4368
G1 X249.118 Y75.215 E3.44502
G1 X249.624 Y75.417 E3.45322
G1 X250.095 Y75.692 E3.46142
G1 X250.52 Y76.032 E3.46961
G1 X250.892 Y76.431 E3.47782
G1 X251.201 Y76.88 E3.48603
G1 X251.441 Y77.37 E3.49424
G1 X251.608 Y77.889 E3.50244
G1 X251.719 Y78.975 E3.51887
G1 X251.72 Y217.56 E5.60436
G1 X251.664 Y218.83 E5.62349
G1 X251.538 Y219.361 E5.6317
G1 X251.337 Y219.867 E5.63989
G1 X251.063 Y220.339 E5.64811
G1 X250.724 Y220.765 E5.6563
G1 X250.325 Y221.137 E5.66451
G1 X249.877 Y221.448 E5.67272
G1 X249.388 Y221.689 E5.68092
G1 X248.869 Y221.856 E5.68912
G1 X247.774 Y221.969 E5.70569
G1 X172.659 Y221.97 E6.83605
M204 S580
G0 F2700 X172.665 Y221.49
M204 S435
G1 F900 X171.461 Y221.434 E6.85419
G1 X170.968 Y221.309 E6.86185
G1 X170.5 Y221.108 E6.86951
G1 X170.07 Y220.837 E6.87716
G1 X169.688 Y220.501 E6.88481
G1 X169.362 Y220.11 E6.89248
G1 X169.102 Y219.673 E6.90013
G1 X168.914 Y219.2 E6.90779
G1 X168.802 Y218.704 E6.91544
G1 X168.76 Y217.908 E6.92743
G1 X168.76 Y79.38 E9.01206
G1 X168.816 Y78.209 E9.02971
G1 X168.942 Y77.716 E9.03736
G1 X169.143 Y77.248 E9.04503
G1 X169.415 Y76.818 E9.05269
G1 X169.75 Y76.436 E9.06033
G1 X170.142 Y76.111 E9.06799
G1 X170.579 Y75.852 E9.07564
G1 X171.052 Y75.664 E9.0833
G1 X171.548 Y75.552 E9.09095
G1 X172.33 Y75.51 E9.10273
G1 X247.339 Y75.51 E10.2315
G1 X248.544 Y75.568 E10.24966
G1 X249.037 Y75.693 E10.25731
G1 X249.504 Y75.895 E10.26497
G1 X249.934 Y76.167 E10.27263
G1 X250.316 Y76.503 E10.28028
G1 X250.64 Y76.895 E10.28793
G1 X250.9 Y77.333 E10.2956
G1 X251.087 Y77.805 E10.30324
G1 X251.198 Y78.302 E10.3109
G1 X251.24 Y79.08 E10.32263
G1 X251.24 Y217.554 E12.40645
G1 X251.185 Y218.788 E12.42503
G1 X251.06 Y219.281 E12.43269
G1 X250.859 Y219.748 E12.44034
G1 X250.588 Y220.179 E12.448
G1 X250.252 Y220.561 E12.45566
G1 X249.861 Y220.887 E12.46332
G1 X249.424 Y221.147 E12.47097
G1 X248.952 Y221.335 E12.47861
G1 X248.455 Y221.448 E12.48628
G1 X247.67 Y221.49 E12.49811
G1 X172.665 Y221.49 E13.62682
M204 S580
G1 F2100 E7.12682
;MESH:magic_deck_box-bottom.stl
G0 F2700 X172.704 Y217.546
G0 X246.47 Y216.72
M204 S435
;TYPE:WALL-INNER
G1 F1050 E13.62682
G1 F900 X173.53 Y216.72 E14.58725
G1 X173.53 Y80.28 E16.38381
G1 X246.47 Y80.28 E17.34424
G1 X246.47 Y216.72 E19.1408
M204 S580
G0 F2700 X246.89 Y217.14
M204 S435
G1 F900 X173.11 Y217.14 E20.11229
G1 X173.11 Y79.86 E21.91991
G1 X246.89 Y79.86 E22.8914
G1 X246.89 Y217.14 E24.69902
M204 S580
G0 F2700 X247.31 Y217.56
M204 S435
G1 F900 X172.69 Y217.56 E25.68157
G1 X172.69 Y79.44 E27.50025
G1 X247.31 Y79.44 E28.4828
G1 X247.31 Y217.56 E30.30148
M204 S580
G0 F2700 X247.76 Y218.01
M204 S435
;TYPE:WALL-OUTER
G1 F900 X172.24 Y218.01 E31.43794
G1 X172.24 Y78.99 E33.52997
G1 X247.76 Y78.99 E34.66643
G1 X247.76 Y218.01 E36.75847
M204 S580
G0 F2700 X247.56 Y218.01
G0 X247.232 Y217.482
G0 X247.21 Y217.482
G0 X246.03 Y216.28
M204 S435
;TYPE:SKIN
G1 F900 X173.97 Y216.28 E37.84286
G1 X173.97 Y80.72 E39.88282
G1 X246.03 Y80.72 E40.96721
G1 X246.03 Y216.28 E43.00718
M204 S580
G0 F2700 X174.356 Y215.893
M204 S435
G1 F900 X174.484 Y215.893 E43.00911
G1 X174.355 Y215.763 E43.01186
M204 S580
G0 F2700 X174.484 Y215.893
M204 S435
G1 F900 X175.163 Y215.893 E43.02208
G1 X174.355 Y215.084 E43.03929
G1 X174.355 Y214.406 E43.04949
G1 X175.842 Y215.893 E43.08114
G1 X176.521 Y215.893 E43.09135
G1 X174.355 Y213.727 E43.13745
G1 X174.355 Y213.048 E43.14767
G1 X177.2 Y215.893 E43.20822
G1 X177.879 Y215.893 E43.21843
G1 X174.355 Y212.369 E43.29343
G1 X174.355 Y211.69 E43.30365
G1 X178.557 Y215.893 E43.39308
G1 X179.236 Y215.893 E43.4033
G1 X174.355 Y211.011 E43.50719
G1 X174.355 Y210.333 E43.51739
G1 X179.915 Y215.893 E43.63572
G1 X180.594 Y215.893 E43.64594
G1 X174.355 Y209.654 E43.77871
G1 X174.355 Y208.975 E43.78893
G1 X181.273 Y215.893 E43.93616
G1 X181.952 Y215.893 E43.94638
G1 X174.355 Y208.296 E44.10805
G1 X174.355 Y207.617 E44.11827
G1 X182.63 Y215.893 E44.29439
G1 X183.309 Y215.893 E44.3046
G1 X174.355 Y206.939 E44.49516
G1 X174.355 Y206.26 E44.50538
G1 X183.988 Y215.893 E44.71039
G1 X184.667 Y215.893 E44.7206
G1 X174.355 Y205.581 E44.94006
G1 X174.355 Y204.902 E44.95028
G1 X185.346 Y215.893 E45.18419
G1 X186.024 Y215.893 E45.19439
G1 X174.355 Y204.223 E45.44274
G1 X174.355 Y203.544 E45.45295
G1 X186.703 Y215.893 E45.71575
G1 X187.382 Y215.893 E45.72597
G1 X174.355 Y202.866 E46.00321
G1 X174.355 Y202.187 E46.01342
G1 X188.061 Y215.893 E46.30511
G1 X188.74 Y215.893 E46.31533
G1 X174.355 Y201.508 E46.62147
G1 X174.355 Y200.829 E46.63168
G1 X189.419 Y215.893 E46.95227
G1 X190.097 Y215.893 E46.96247
G1 X174.355 Y200.15 E47.2975
G1 X174.355 Y199.471 E47.30772
G1 X190.776 Y215.893 E47.6572
G1 X191.455 Y215.893 E47.66742
G1 X174.355 Y198.793 E48.03133
G1 X174.355 Y198.114 E48.04155
G1 X192.134 Y215.893 E48.41992
G1 X192.813 Y215.893 E48.43014
G1 X174.355 Y197.435 E48.82295
G1 X174.355 Y196.756 E48.83317
G1 X193.491 Y215.893 E49.24043
G1 X194.17 Y215.893 E49.25065
G1 X174.355 Y196.077 E49.67236
G1 X174.355 Y195.399 E49.68256
G1 X194.849 Y215.893 E50.11871
G1 X195.528 Y215.893 E50.12892
G1 X174.355 Y194.72 E50.57952
G1 X174.355 Y194.041 E50.58974
G1 X196.207 Y215.893 E51.05479
G1 X196.886 Y215.893 E51.06501
G1 X174.355 Y193.362 E51.5445
G1 X174.355 Y192.683 E51.55472
G1 X197.564 Y215.893 E52.04866
G1 X198.243 Y215.893 E52.05888
G1 X174.355 Y192.004 E52.56727
G1 X174.355 Y191.326 E52.57747
G1 X198.922 Y215.893 E53.1003
G1 X199.601 Y215.893 E53.11051
G1 X174.355 Y190.647 E53.64779
G1 X174.355 Y189.968 E53.65801
G1 X200.28 Y215.893 E54.20974
G1 X200.959 Y215.893 E54.21996
G1 X174.355 Y189.289 E54.78614
G1 X174.355 Y188.61 E54.79635
G1 X201.637 Y215.893 E55.37697
G1 X202.316 Y215.893 E55.38719
G1 X174.355 Y187.932 E55.98225
G1 X174.355 Y187.253 E55.99247
G1 X202.995 Y215.893 E56.60197
G1 X203.674 Y215.893 E56.61219
G1 X174.355 Y186.574 E57.23615
G1 X174.355 Y185.895 E57.24637
G1 X204.353 Y215.893 E57.88478
G1 X205.031 Y215.893 E57.89498
G1 X174.355 Y185.216 E58.54783
G1 X174.355 Y184.537 E58.55805
G1 X205.71 Y215.893 E59.22535
G1 X206.389 Y215.893 E59.23556
G1 X174.355 Y183.859 E59.9173
G1 X174.355 Y183.18 E59.92752
G1 X207.068 Y215.893 E60.62371
G1 X207.747 Y215.893 E60.63393
G1 X174.355 Y182.501 E61.34457
G1 X174.355 Y181.822 E61.35478
G1 X208.426 Y215.893 E62.07987
G1 X209.104 Y215.893 E62.09008
G1 X174.355 Y181.143 E62.8296
G1 X174.355 Y180.464 E62.83982
G1 X209.783 Y215.893 E63.5938
G1 X210.462 Y215.893 E63.60402
G1 X174.355 Y179.786 E64.37244
G1 X174.355 Y179.107 E64.38266
G1 X211.141 Y215.893 E65.16553
G1 X211.82 Y215.893 E65.17574
G1 X174.355 Y178.428 E65.97306
G1 X174.355 Y177.749 E65.98328
G1 X212.499 Y215.893 E66.79505
G1 X213.177 Y215.893 E66.80525
G1 X174.355 Y177.07 E67.63146
G1 X174.355 Y176.392 E67.64167
G1 X213.856 Y215.893 E68.48231
G1 X214.535 Y215.893 E68.49253
G1 X174.355 Y175.713 E69.34763
G1 X174.355 Y175.034 E69.35785
G1 X215.214 Y215.893 E70.2274
G1 X215.893 Y215.893 E70.23762
G1 X174.355 Y174.355 E71.12162
G1 X174.355 Y173.676 E71.13183
G1 X216.571 Y215.893 E72.03027
G1 X217.25 Y215.893 E72.04049
G1 X174.355 Y172.997 E72.95338
G1 X174.355 Y172.319 E72.96359
G1 X217.929 Y215.893 E73.89091
G1 X218.608 Y215.893 E73.90113
G1 X174.355 Y171.64 E74.84291
G1 X174.355 Y170.961 E74.85313
G1 X219.287 Y215.893 E75.80936
G1 X219.966 Y215.893 E75.81958
G1 X174.355 Y170.282 E76.79026
G1 X174.355 Y169.603 E76.80048
G1 X220.644 Y215.893 E77.7856
G1 X221.323 Y215.893 E77.79581
G1 X174.355 Y168.924 E78.79538
G1 X174.355 Y168.246 E78.80559
G1 X222.002 Y215.893 E79.8196
G1 X222.681 Y215.893 E79.82981
G1 X174.355 Y167.567 E80.85828
G1 X174.355 Y166.888 E80.86849
G1 X223.36 Y215.893 E81.9114
G1 X224.039 Y215.893 E81.92162
G1 X174.355 Y166.209 E82.97898
G1 X174.355 Y165.53 E82.9892
G1 X224.717 Y215.893 E84.061
G1 X225.396 Y215.893 E84.07122
G1 X174.355 Y164.852 E85.15746
G1 X174.355 Y164.173 E85.16768
G1 X226.075 Y215.893 E86.26837
G1 X226.754 Y215.893 E86.27858
G1 X174.355 Y163.494 E87.39372
G1 X174.355 Y162.815 E87.40394
G1 X227.433 Y215.893 E88.53353
G1 X228.111 Y215.893 E88.54374
G1 X174.355 Y162.136 E89.68777
G1 X174.355 Y161.457 E89.69799
G1 X228.79 Y215.893 E90.85647
G1 X229.469 Y215.893 E90.86668
G1 X174.355 Y160.779 E92.0396
G1 X174.355 Y160.1 E92.04982
G1 X230.148 Y215.893 E93.23719
G1 X230.827 Y215.893 E93.24741
G1 X174.355 Y159.421 E94.44923
G1 X174.355 Y158.742 E94.45945
G1 X231.506 Y215.893 E95.67572
G1 X232.184 Y215.893 E95.68592
G1 X174.355 Y158.063 E96.91663
G1 X174.355 Y157.384 E96.92685
G1 X232.863 Y215.893 E98.17201
G1 X233.542 Y215.893 E98.18223
G1 X174.355 Y156.706 E99.44183
G1 X174.355 Y156.027 E99.45205
G1 X234.221 Y215.893 E100.7261
G1 X234.9 Y215.893 E100.73632
G1 X174.355 Y155.348 E102.02482
G1 X174.355 Y154.669 E102.03504
G1 X235.578 Y215.893 E103.33798
G1 X236.257 Y215.893 E103.3482
G1 X174.355 Y153.99 E104.66559
G1 X174.355 Y153.312 E104.67579
G1 X236.936 Y215.893 E106.00762
G1 X237.615 Y215.893 E106.01784
G1 X174.355 Y152.633 E107.36412
G1 X174.355 Y151.954 E107.37434
G1 X238.294 Y215.893 E108.73507
G1 X238.973 Y215.893 E108.74529
G1 X174.355 Y151.275 E110.12047
G1 X174.355 Y150.596 E110.13069
G1 X239.651 Y215.893 E111.52031
G1 X240.33 Y215.893 E111.53053
G1 X174.355 Y149.917 E112.9346
G1 X174.355 Y149.239 E112.9448
G1 X241.009 Y215.893 E114.36332
G1 X241.688 Y215.893 E114.37353
G1 X174.355 Y148.56 E115.80649
G1 X174.354 Y147.88 E115.81673
G1 X242.367 Y215.893 E117.26416
G1 X243.046 Y215.893 E117.27438
G1 X174.354 Y147.201 E118.73626
G1 X174.354 Y146.523 E118.74647
G1 X243.724 Y215.893 E120.22278
G1 X244.403 Y215.893 E120.233
G1 X174.354 Y145.844 E121.72376
G1 X174.354 Y145.165 E121.73398
G1 X245.082 Y215.893 E123.23919
G1 X245.643 Y215.893 E123.24763
G1 X245.643 Y215.775 E123.24941
G1 X174.354 Y144.486 E124.76656
G1 X174.354 Y143.807 E124.77678
G1 X245.643 Y215.096 E126.29393
G1 X245.643 Y214.417 E126.30415
G1 X174.354 Y143.129 E127.82129
G1 X174.354 Y142.45 E127.83151
G1 X245.643 Y213.738 E129.34865
G1 X245.643 Y213.059 E129.35887
G1 X174.354 Y141.771 E130.87601
G1 X174.354 Y141.092 E130.88623
G1 X245.643 Y212.38 E132.40337
G1 X245.643 Y211.702 E132.41357
G1 X174.354 Y140.413 E133.93072
G1 X174.354 Y139.734 E133.94094
G1 X245.643 Y211.023 E135.45809
G1 X245.643 Y210.344 E135.46831
G1 X174.354 Y139.056 E136.98545
G1 X174.354 Y138.377 E136.99567
G1 X245.643 Y209.665 E138.51281
G1 X245.643 Y208.986 E138.52303
G1 X174.354 Y137.698 E140.04017
G1 X174.354 Y137.019 E140.05039
G1 X245.643 Y208.308 E141.56754
G1 X245.643 Y207.629 E141.57776
G1 X174.354 Y136.34 E143.09491
G1 X174.354 Y135.661 E143.10513
G1 X245.643 Y206.95 E144.62228
G1 X245.643 Y206.271 E144.6325
G1 X174.354 Y134.983 E146.14964
G1 X174.354 Y134.304 E146.15986
G1 X245.643 Y205.592 E147.677
G1 X245.643 Y204.913 E147.68722
G1 X174.354 Y133.625 E149.20436
G1 X174.354 Y132.946 E149.21458
G1 X245.643 Y204.235 E150.73173
G1 X245.643 Y203.556 E150.74195
G1 X174.354 Y132.267 E152.2591
G1 X174.354 Y131.589 E152.2693
G1 X245.643 Y202.877 E153.78644
G1 X245.643 Y202.198 E153.79666
G1 X174.354 Y130.91 E155.3138
G1 X174.354 Y130.231 E155.32402
G1 X245.643 Y201.519 E156.84116
G1 X245.643 Y200.84 E156.85138
G1 X174.354 Y129.552 E158.36852
G1 X174.354 Y128.873 E158.37874
G1 X245.643 Y200.162 E159.89589
G1 X245.643 Y199.483 E159.90611
G1 X174.354 Y128.194 E161.42326
G1 X174.354 Y127.516 E161.43347
G1 X245.643 Y198.804 E162.95061
G1 X245.643 Y198.125 E162.96083
G1 X174.354 Y126.837 E164.47797
G1 X174.354 Y126.158 E164.48818
G1 X245.643 Y197.446 E166.00533
G1 X245.643 Y196.768 E166.01553
G1 X174.354 Y125.479 E167.53268
G1 X174.354 Y124.8 E167.5429
G1 X245.643 Y196.089 E169.06005
G1 X245.643 Y195.41 E169.07027
G1 X174.354 Y124.121 E170.58742
G1 X174.354 Y123.443 E170.59762
G1 X245.643 Y194.731 E172.11477
G1 X245.643 Y194.052 E172.12498
G1 X174.354 Y122.764 E173.64213
G1 X174.354 Y122.085 E173.65234
G1 X245.643 Y193.373 E175.16949
G1 X245.643 Y192.695 E175.17969
G1 X174.354 Y121.406 E176.69684
G1 X174.354 Y120.727 E176.70706
G1 X245.643 Y192.016 E178.22421
G1 X245.643 Y191.337 E178.23443
G1 X174.354 Y120.049 E179.75157
G1 X174.354 Y119.37 E179.76179
G1 X245.643 Y190.658 E181.27893
G1 X245.643 Y189.979 E181.28915
G1 X174.354 Y118.691 E182.80629
G1 X174.354 Y118.012 E182.81651
G1 X245.643 Y189.3 E184.33365
G1 X245.643 Y188.622 E184.34385
G1 X174.354 Y117.333 E185.861
G1 X174.354 Y116.654 E185.87122
G1 X245.643 Y187.943 E187.38837
G1 X245.643 Y187.264 E187.39859
G1 X174.354 Y115.976 E188.91573
G1 X174.354 Y115.297 E188.92595
G1 X245.643 Y186.585 E190.44309
G1 X245.643 Y185.906 E190.45331
G1 X174.354 Y114.618 E191.97045
G1 X174.354 Y113.939 E191.98067
G1 X245.643 Y185.228 E193.49782
G1 X245.643 Y184.549 E193.50804
G1 X174.354 Y113.26 E195.02519
G1 X174.354 Y112.582 E195.03539
G1 X245.643 Y183.87 E196.55254
G1 X245.643 Y183.191 E196.56275
G1 X174.354 Y111.903 E198.0799
G1 X174.354 Y111.224 E198.09011
G1 X245.643 Y182.512 E199.60726
G1 X245.643 Y181.833 E199.61747
G1 X174.354 Y110.545 E201.13461
G1 X174.354 Y109.866 E201.14483
G1 X245.643 Y181.155 E202.66198
G1 X245.643 Y180.476 E202.6722
G1 X174.354 Y109.187 E204.18935
G1 X174.354 Y108.509 E204.19956
G1 X245.643 Y179.797 E205.7167
G1 X245.643 Y179.118 E205.72692
G1 X174.354 Y107.83 E207.24406
G1 X174.354 Y107.151 E207.25428
G1 X245.643 Y178.439 E208.77142
G1 X245.643 Y177.76 E208.78164
G1 X174.354 Y106.472 E210.29878
G1 X174.354 Y105.793 E210.309
G1 X245.643 Y177.082 E211.82615
G1 X245.643 Y176.403 E211.83637
G1 X174.354 Y105.114 E213.35352
G1 X174.354 Y104.436 E213.36372
G1 X245.643 Y175.724 E214.88086
G1 X245.643 Y175.045 E214.89108
G1 X174.354 Y103.757 E216.40822
G1 X174.354 Y103.078 E216.41844
G1 X245.643 Y174.366 E217.93558
G1 X245.643 Y173.688 E217.94578
G1 X174.354 Y102.399 E219.46294
G1 X174.354 Y101.72 E219.47315
G1 X245.643 Y173.009 E220.99031
G1 X245.643 Y172.33 E221.00052
G1 X174.354 Y101.042 E222.51767
G1 X174.354 Y100.363 E222.52788
G1 X245.643 Y171.651 E224.04503
G1 X245.643 Y170.972 E224.05524
G1 X174.354 Y99.684 E225.57238
G1 X174.354 Y99.005 E225.5826
G1 X245.643 Y170.293 E227.09974
G1 X245.643 Y169.615 E227.10995
G1 X174.354 Y98.326 E228.6271
G1 X174.354 Y97.647 E228.63732
G1 X245.643 Y168.936 E230.15447
G1 X245.643 Y168.257 E230.16469
G1 X174.354 Y96.969 E231.68183
G1 X174.354 Y96.29 E231.69205
G1 X245.643 Y167.578 E233.20919
G1 X245.643 Y166.899 E233.21941
G1 X174.354 Y95.611 E234.73655
G1 X174.354 Y94.932 E234.74677
G1 X245.643 Y166.221 E236.26392
