;FLAVOR:Marlin
;TIME:30521
;Filament used: 0m, 4.19099m
;Layer height: 0.1
;MINX:170.28
;MINY:97.78
;MINZ:0.2
;MAXX:249.72
;MAXY:199.22
;MAXZ:32
;Generated with StratosEngine 1.5.5
T1
M82 ;absolute extrusion mode
;Machine Model: Sigmax R19 
;Materials used:  T1 PLA 
;Extruders used:  T1 0.4 
M141 S0 	;Set chamber temperature 
M140 S60 	;Heat build surface
M104 T1 S190	;Heat extruder 1
M190 S60 	;Wait until bed temperature reached 
M109 T1 S190	;Heat extruder 1 and wait
G21 		;metric values 
G90 		;absolute positioning 
M204 S600 	;set default acceleration 
M205 X12.5 Y12.5 ;set default jerk 
M107 		;start with the fan off 
G28 X0 Y0 	;move X/Y to min endstops 
G28 Z0 		;move Z to min endstops 
G1 Z5 F200 	;safety Z axis movement

T1
G92 E0 		;set zero the extruded length 
G1 E15 F30
G92 E0 
G4 S2 		;stabilize hotend 
G1 E-0.5 F1000 
G92 E0

G4 P1
G4 P2
G4 P3

G92 E0
;LAYER_COUNT:319
;LAYER:0
M107
M204 S580
M205 X9.38 Y9.38
G1 F600 Z0.4
G0 F2700 X174.659 Y199.22 Z0.4
M204 S435
;TYPE:SKIRT
G1 F600 Z0.2
G1 F1050 E0
G1 F900 X173.418 Y199.164 E0.01869
G1 X172.887 Y199.038 E0.02691
G1 X172.381 Y198.836 E0.03511
G1 X171.91 Y198.562 E0.04331
G1 X171.483 Y198.222 E0.05152
G1 X171.111 Y197.824 E0.05972
G1 X170.802 Y197.375 E0.06792
G1 X170.561 Y196.886 E0.07612
G1 X170.394 Y196.367 E0.08433
G1 X170.281 Y195.259 E0.10109
G1 X170.28 Y102.124 E1.50263
G1 X170.337 Y100.916 E1.52082
G1 X170.463 Y100.385 E1.52904
G1 X170.665 Y99.879 E1.53724
G1 X170.939 Y99.408 E1.54544
G1 X171.279 Y98.982 E1.55364
G1 X171.678 Y98.61 E1.56185
G1 X172.127 Y98.3 E1.57006
G1 X172.616 Y98.06 E1.57825
G1 X173.135 Y97.893 E1.58646
G1 X174.226 Y97.781 E1.60296
G1 X245.346 Y97.78 E2.67321
G1 X246.587 Y97.838 E2.6919
G1 X247.118 Y97.965 E2.70012
G1 X247.624 Y98.167 E2.70832
G1 X248.095 Y98.442 E2.71653
G1 X248.52 Y98.782 E2.72472
G1 X248.892 Y99.181 E2.73293
G1 X249.201 Y99.63 E2.74113
G1 X249.441 Y100.12 E2.74934
G1 X249.608 Y100.639 E2.75754
G1 X249.719 Y101.725 E2.77397
G1 X249.72 Y194.81 E4.17476
G1 X249.664 Y196.08 E4.19389
G1 X249.538 Y196.611 E4.2021
G1 X249.337 Y197.117 E4.21029
G1 X249.063 Y197.589 E4.2185
G1 X248.724 Y198.015 E4.2267
G1 X248.325 Y198.387 E4.23491
G1 X247.877 Y198.698 E4.24311
G1 X247.388 Y198.939 E4.25132
G1 X246.869 Y199.106 E4.25952
G1 X245.774 Y199.219 E4.27609
G1 X174.659 Y199.22 E5.34626
M204 S580
G0 F2700 X174.665 Y198.74
M204 S435
G1 F900 X173.461 Y198.684 E5.3644
G1 X172.968 Y198.559 E5.37205
G1 X172.5 Y198.358 E5.37971
G1 X172.07 Y198.087 E5.38736
G1 X171.688 Y197.751 E5.39502
G1 X171.362 Y197.36 E5.40268
G1 X171.102 Y196.923 E5.41033
G1 X170.914 Y196.45 E5.41799
G1 X170.802 Y195.954 E5.42564
G1 X170.76 Y195.158 E5.43764
G1 X170.76 Y102.13 E6.83756
G1 X170.816 Y100.959 E6.85521
G1 X170.942 Y100.466 E6.86286
G1 X171.143 Y99.998 E6.87053
G1 X171.415 Y99.568 E6.87819
G1 X171.75 Y99.186 E6.88583
G1 X172.142 Y98.861 E6.89349
G1 X172.579 Y98.602 E6.90114
G1 X173.052 Y98.414 E6.9088
G1 X173.548 Y98.302 E6.91645
G1 X174.33 Y98.26 E6.92823
G1 X245.339 Y98.26 E7.99681
G1 X246.544 Y98.318 E8.01496
G1 X247.037 Y98.443 E8.02262
G1 X247.504 Y98.645 E8.03027
G1 X247.934 Y98.917 E8.03793
G1 X248.316 Y99.253 E8.04559
G1 X248.64 Y99.645 E8.05324
G1 X248.9 Y100.083 E8.06091
G1 X249.087 Y100.555 E8.06855
G1 X249.198 Y101.052 E8.07621
G1 X249.24 Y101.83 E8.08793
G1 X249.24 Y194.804 E9.48705
G1 X249.185 Y196.038 E9.50564
G1 X249.06 Y196.531 E9.51329
G1 X248.859 Y196.998 E9.52094
G1 X248.588 Y197.429 E9.5286
G1 X248.252 Y197.811 E9.53626
G1 X247.861 Y198.137 E9.54392
G1 X247.424 Y198.397 E9.55157
G1 X246.952 Y198.585 E9.55922
G1 X246.455 Y198.698 E9.56689
G1 X245.67 Y198.74 E9.57872
G1 X174.665 Y198.74 E10.64723
M204 S580
G1 F2100 E4.14723
;MESH:magic_card_holder.stl
G0 F2700 X174.704 Y194.796
G0 X244.47 Y193.97
M204 S435
;TYPE:WALL-INNER
G1 F1050 E10.64723
G1 F900 X175.53 Y193.97 E11.55499
G1 X175.53 Y103.03 E12.75243
G1 X244.47 Y103.03 E13.66019
G1 X244.47 Y193.97 E14.85764
M204 S580
G0 F2700 X244.89 Y194.39
M204 S435
G1 F900 X175.11 Y194.39 E15.77646
G1 X175.11 Y102.61 E16.98496
G1 X244.89 Y102.61 E17.90378
G1 X244.89 Y194.39 E19.11228
M204 S580
G0 F2700 X245.31 Y194.81
M204 S435
G1 F900 X174.69 Y194.81 E20.04216
G1 X174.69 Y102.19 E21.26173
G1 X245.31 Y102.19 E22.19161
G1 X245.31 Y194.81 E23.41117
M204 S580
G0 F2700 X245.76 Y195.26
M204 S435
;TYPE:WALL-OUTER
G1 F900 X174.24 Y195.26 E24.48744
G1 X174.24 Y101.74 E25.89477
G1 X245.76 Y101.74 E26.97103
G1 X245.76 Y195.26 E28.37836
M204 S580
G0 F2700 X245.56 Y195.26
G0 X245.232 Y194.732
G0 X245.21 Y194.732
G0 X244.03 Y193.53
M204 S435
;TYPE:SKIN
G1 F900 X175.97 Y193.53 E29.40256
G1 X175.97 Y103.47 E30.75782
G1 X244.03 Y103.47 E31.78202
G1 X244.03 Y193.53 E33.13728
M204 S580
G0 F2700 X176.355 Y193.142
M204 S435
G1 F900 X176.85 Y193.142 E33.14473
G1 X176.355 Y192.646 E33.15528
G1 X176.355 Y191.968 E33.16548
G1 X177.529 Y193.142 E33.19046
G1 X178.208 Y193.142 E33.20068
G1 X176.355 Y191.289 E33.24012
G1 X176.355 Y190.61 E33.25033
G1 X178.887 Y193.142 E33.30422
G1 X179.566 Y193.142 E33.31444
G1 X176.355 Y189.931 E33.38277
G1 X176.355 Y189.252 E33.39299
G1 X180.245 Y193.142 E33.47578
G1 X180.923 Y193.142 E33.48598
G1 X176.355 Y188.574 E33.5832
G1 X176.355 Y187.895 E33.59341
G1 X181.602 Y193.142 E33.70508
G1 X182.281 Y193.142 E33.7153
G1 X176.355 Y187.216 E33.84141
G1 X176.355 Y186.537 E33.85163
G1 X182.96 Y193.142 E33.9922
G1 X183.639 Y193.142 E34.00241
G1 X176.355 Y185.858 E34.15743
G1 X176.355 Y185.179 E34.16765
G1 X184.317 Y193.142 E34.3371
G1 X184.996 Y193.142 E34.34732
G1 X176.355 Y184.501 E34.53122
G1 X176.355 Y183.822 E34.54143
G1 X185.675 Y193.142 E34.73978
G1 X186.354 Y193.142 E34.75
G1 X176.355 Y183.143 E34.96279
G1 X176.355 Y182.464 E34.97301
G1 X187.033 Y193.142 E35.20026
G1 X187.712 Y193.142 E35.21048
G1 X176.355 Y181.785 E35.45217
G1 X176.355 Y181.107 E35.46237
G1 X188.39 Y193.142 E35.7185
G1 X189.069 Y193.142 E35.72872
G1 X176.355 Y180.428 E35.99929
G1 X176.355 Y179.749 E36.00951
G1 X189.748 Y193.142 E36.29454
G1 X190.427 Y193.142 E36.30476
G1 X176.355 Y179.07 E36.60423
G1 X176.355 Y178.391 E36.61445
G1 X191.106 Y193.142 E36.92838
G1 X191.785 Y193.142 E36.93859
G1 X176.355 Y177.712 E37.26697
G1 X176.355 Y177.034 E37.27717
G1 X192.463 Y193.142 E37.61998
G1 X193.142 Y193.142 E37.6302
G1 X176.355 Y176.355 E37.98745
G1 X176.355 Y175.676 E37.99767
G1 X193.821 Y193.142 E38.36938
G1 X194.5 Y193.142 E38.3796
G1 X176.355 Y174.997 E38.76575
G1 X176.355 Y174.318 E38.77597
G1 X195.179 Y193.142 E39.17658
G1 X195.857 Y193.142 E39.18678
G1 X176.355 Y173.639 E39.60183
G1 X176.355 Y172.961 E39.61203
G1 X196.536 Y193.142 E40.04152
G1 X197.215 Y193.142 E40.05173
G1 X176.355 Y172.282 E40.49567
G1 X176.355 Y171.603 E40.50589
G1 X197.894 Y193.142 E40.96428
G1 X198.573 Y193.142 E40.97449
G1 X176.355 Y170.924 E41.44733
G1 X176.355 Y170.245 E41.45755
G1 X199.252 Y193.142 E41.94484
G1 X199.93 Y193.142 E41.95504
G1 X176.355 Y169.567 E42.45675
G1 X176.355 Y168.888 E42.46697
G1 X200.609 Y193.142 E42.98314
G1 X201.288 Y193.142 E42.99336
G1 X176.355 Y168.209 E43.52397
G1 X176.355 Y167.53 E43.53419
G1 X201.967 Y193.142 E44.07926
G1 X202.646 Y193.142 E44.08948
G1 X176.355 Y166.851 E44.649
G1 X176.355 Y166.172 E44.65921
G1 X203.325 Y193.142 E45.23318
G1 X204.003 Y193.142 E45.24338
G1 X176.355 Y165.494 E45.83178
G1 X176.355 Y164.815 E45.842
G1 X204.682 Y193.142 E46.44485
G1 X205.361 Y193.142 E46.45506
G1 X176.355 Y164.136 E47.07236
G1 X176.355 Y163.457 E47.08258
G1 X206.04 Y193.142 E47.71433
G1 X206.719 Y193.142 E47.72454
G1 X176.355 Y162.778 E48.37074
G1 X176.355 Y162.099 E48.38096
G1 X207.397 Y193.142 E49.0416
G1 X208.076 Y193.142 E49.05182
G1 X176.355 Y161.421 E49.72689
G1 X176.355 Y160.742 E49.73711
G1 X208.755 Y193.142 E50.42664
G1 X209.434 Y193.142 E50.43686
G1 X176.355 Y160.063 E51.14083
G1 X176.355 Y159.384 E51.15105
G1 X210.113 Y193.143 E51.86949
G1 X210.792 Y193.143 E51.87971
G1 X176.355 Y158.705 E52.6126
G1 X176.355 Y158.027 E52.6228
G1 X211.471 Y193.143 E53.37013
G1 X212.15 Y193.143 E53.38035
G1 X176.355 Y157.348 E54.14213
G1 X176.355 Y156.669 E54.15234
G1 X212.829 Y193.143 E54.92857
G1 X213.508 Y193.143 E54.93879
G1 X176.355 Y155.99 E55.72947
G1 X176.355 Y155.311 E55.73969
G1 X214.186 Y193.143 E56.54481
G1 X214.865 Y193.143 E56.55503
G1 X176.355 Y154.632 E57.3746
G1 X176.355 Y153.954 E57.3848
G1 X215.544 Y193.143 E58.21881
G1 X216.223 Y193.143 E58.22903
G1 X176.355 Y153.275 E59.07749
G1 X176.355 Y152.596 E59.0877
G1 X216.902 Y193.143 E59.95061
G1 X217.58 Y193.143 E59.96082
G1 X176.355 Y151.917 E60.83816
G1 X176.355 Y151.238 E60.84838
G1 X218.259 Y193.143 E61.74018
G1 X218.938 Y193.143 E61.7504
G1 X176.355 Y150.56 E62.65664
G1 X176.355 Y149.881 E62.66686
G1 X219.617 Y193.143 E63.58755
G1 X220.296 Y193.143 E63.59776
G1 X176.355 Y149.202 E64.5329
G1 X176.355 Y148.523 E64.54312
G1 X220.975 Y193.143 E65.49271
G1 X221.653 Y193.143 E65.50292
G1 X176.355 Y147.844 E66.46695
G1 X176.355 Y147.165 E66.47716
G1 X222.332 Y193.143 E67.45564
G1 X223.011 Y193.143 E67.46586
G1 X176.355 Y146.487 E68.45878
G1 X176.355 Y145.808 E68.469
G1 X223.69 Y193.143 E69.47637
G1 X224.369 Y193.143 E69.48659
G1 X176.355 Y145.129 E70.50841
G1 X176.355 Y144.45 E70.51862
G1 X225.048 Y193.143 E71.5549
G1 X225.726 Y193.143 E71.5651
G1 X176.355 Y143.771 E72.61581
G1 X176.355 Y143.092 E72.62603
G1 X226.405 Y193.143 E73.69119
G1 X227.084 Y193.143 E73.7014
G1 X176.355 Y142.414 E74.781
G1 X176.355 Y141.735 E74.79122
G1 X227.763 Y193.143 E75.88527
G1 X228.442 Y193.143 E75.89549
G1 X176.355 Y141.056 E77.00399
G1 X176.355 Y140.377 E77.01421
G1 X229.12 Y193.143 E78.13715
G1 X229.799 Y193.143 E78.14737
G1 X176.355 Y139.698 E79.28476
G1 X176.355 Y139.02 E79.29496
G1 X230.478 Y193.143 E80.44679
G1 X231.157 Y193.143 E80.45701
G1 X176.355 Y138.341 E81.62329
G1 X176.355 Y137.662 E81.63351
G1 X231.836 Y193.143 E82.81424
G1 X232.515 Y193.143 E82.82446
G1 X176.355 Y136.983 E84.01964
G1 X176.355 Y136.304 E84.02986
G1 X233.193 Y193.143 E85.23948
G1 X233.872 Y193.143 E85.24969
G1 X176.355 Y135.625 E86.47377
G1 X176.355 Y134.947 E86.48397
G1 X234.551 Y193.143 E87.72248
G1 X235.23 Y193.143 E87.7327
G1 X176.355 Y134.268 E88.98566
G1 X176.355 Y133.589 E88.99588
G1 X235.909 Y193.143 E90.26329
G1 X236.588 Y193.143 E90.27351
G1 X176.355 Y132.91 E91.55537
G1 X176.355 Y132.231 E91.56558
G1 X237.266 Y193.143 E92.86189
G1 X237.945 Y193.143 E92.8721
G1 X176.355 Y131.552 E94.18286
G1 X176.355 Y130.874 E94.19306
G1 X238.624 Y193.143 E95.51825
G1 X239.303 Y193.143 E95.52847
G1 X176.355 Y130.195 E96.86811
G1 X176.355 Y129.516 E96.87833
G1 X239.982 Y193.143 E98.23242
G1 X240.66 Y193.143 E98.24262
G1 X176.355 Y128.837 E99.61115
G1 X176.355 Y128.158 E99.62137
G1 X241.339 Y193.143 E101.00435
G1 X242.018 Y193.143 E101.01457
G1 X176.355 Y127.48 E102.41199
G1 X176.355 Y126.801 E102.42221
G1 X242.697 Y193.143 E103.83408
G1 X243.376 Y193.143 E103.8443
G1 X176.355 Y126.122 E105.27062
G1 X176.355 Y125.443 E105.28084
G1 X243.643 Y192.731 E106.71284
G1 X243.643 Y192.053 E106.72304
G1 X176.355 Y124.764 E108.15506
G1 X176.355 Y124.085 E108.16528
G1 X243.643 Y191.374 E109.59729
G1 X243.643 Y190.695 E109.60751
G1 X176.355 Y123.407 E111.03951
G1 X176.355 Y122.728 E111.04973
G1 X243.643 Y190.016 E112.48174
G1 X243.643 Y189.337 E112.49195
G1 X176.355 Y122.049 E113.92396
G1 X176.355 Y121.37 E113.93418
G1 X243.643 Y188.658 E115.36618
G1 X243.643 Y187.98 E115.37638
G1 X176.355 Y120.691 E116.8084
G1 X176.355 Y120.012 E116.81862
G1 X243.643 Y187.301 E118.25063
G1 X243.643 Y186.622 E118.26085
G1 X176.355 Y119.334 E119.69285
G1 X176.355 Y118.655 E119.70307
G1 X243.643 Y185.943 E121.13507
G1 X243.643 Y185.264 E121.14529
G1 X176.355 Y117.976 E122.5773
G1 X176.355 Y117.297 E122.58751
G1 X243.643 Y184.585 E124.01952
G1 X243.643 Y183.907 E124.02972
G1 X176.355 Y116.618 E125.46174
G1 X176.355 Y115.94 E125.47194
G1 X243.643 Y183.228 E126.90394
G1 X243.643 Y182.549 E126.91416
G1 X176.355 Y115.261 E128.34616
G1 X176.355 Y114.582 E128.35638
G1 X243.643 Y181.87 E129.78839
G1 X243.643 Y181.191 E129.7986
G1 X176.355 Y113.903 E131.23061
G1 X176.355 Y113.224 E131.24083
G1 X243.643 Y180.513 E132.67284
G1 X243.643 Y179.834 E132.68306
G1 X176.355 Y112.545 E134.11507
G1 X176.355 Y111.867 E134.12528
G1 X243.643 Y179.155 E135.55728
G1 X243.643 Y178.476 E135.5675
G1 X176.355 Y111.188 E136.9995
G1 X176.355 Y110.509 E137.00972
G1 X243.643 Y177.797 E138.44172
G1 X243.643 Y177.118 E138.45194
G1 X176.355 Y109.83 E139.88395
G1 X176.355 Y109.151 E139.89416
G1 X243.643 Y176.44 E141.32618
G1 X243.643 Y175.761 E141.3364
G1 X176.355 Y108.473 E142.7684
G1 X176.355 Y107.794 E142.77862
G1 X243.643 Y175.082 E144.21062
G1 X243.643 Y174.403 E144.22084
G1 X176.355 Y107.115 E145.65284
G1 X176.355 Y106.436 E145.66306
G1 X243.643 Y173.724 E147.09507
G1 X243.643 Y173.045 E147.10528
G1 X176.355 Y105.757 E148.53729
G1 X176.355 Y105.078 E148.54751
G1 X243.643 Y172.367 E149.97952
G1 X243.643 Y171.688 E149.98974
G1 X176.355 Y104.4 E151.42174
G1 X176.355 Y103.855 E151.42994
G1 X176.489 Y103.855 E151.43196
G1 X243.643 Y171.009 E152.86111
G1 X243.643 Y170.33 E152.87133
G1 X177.168 Y103.855 E154.28603
G1 X177.847 Y103.855 E154.29625
G1 X243.643 Y169.651 E155.6965
G1 X243.643 Y168.973 E155.70671
G1 X178.526 Y103.855 E157.09252
G1 X179.204 Y103.855 E157.10272
G1 X243.643 Y168.294 E158.47409
G1 X243.643 Y167.615 E158.48431
G1 X179.883 Y103.855 E159.84123
G1 X180.562 Y103.855 E159.85145
G1 X243.643 Y166.936 E161.19392
G1 X243.643 Y166.257 E161.20414
G1 X181.241 Y103.855 E162.53216
G1 X181.92 Y103.855 E162.54238
G1 X243.643 Y165.578 E163.85595
G1 X243.643 Y164.9 E163.86615
G1 X182.599 Y103.855 E165.16529
G1 X183.277 Y103.855 E165.17549
G1 X243.643 Y164.221 E166.46018
G1 X243.643 Y163.542 E166.4704
G1 X183.956 Y103.855 E167.74064
G1 X184.635 Y103.855 E167.75086
G1 X243.643 Y162.863 E169.00665
G1 X243.643 Y162.184 E169.01687
G1 X185.314 Y103.855 E170.25821
G1 X185.993 Y103.855 E170.26843
G1 X243.643 Y161.506 E171.49533
G1 X243.643 Y160.827 E171.50555
G1 X186.671 Y103.855 E172.71801
G1 X187.35 Y103.855 E172.72823
G1 X243.643 Y160.148 E173.92624
G1 X243.643 Y159.469 E173.93646
G1 X188.029 Y103.855 E175.12002
G1 X188.708 Y103.855 E175.13023
G1 X243.643 Y158.79 E176.29935
G1 X243.643 Y158.111 E176.30956
G1 X189.387 Y103.855 E177.46422
G1 X190.066 Y103.855 E177.47444
G1 X243.643 Y157.433 E178.61466
G1 X243.643 Y156.754 E178.62488
G1 X190.744 Y103.855 E179.75066
G1 X191.423 Y103.855 E179.76088
G1 X243.643 Y156.075 E180.87221
G1 X243.643 Y155.396 E180.88243
G1 X192.102 Y103.855 E181.97931
G1 X192.781 Y103.855 E181.98953
G1 X243.643 Y154.717 E183.07196
G1 X243.643 Y154.038 E183.08218
G1 X193.46 Y103.855 E184.15016
G1 X194.138 Y103.855 E184.16036
G1 X243.643 Y153.36 E185.21391
G1 X243.643 Y152.681 E185.22413
G1 X194.817 Y103.855 E186.26323
G1 X195.496 Y103.855 E186.27345
G1 X243.643 Y152.002 E187.2981
G1 X243.643 Y151.323 E187.30832
G1 X196.175 Y103.855 E188.31852
G1 X196.854 Y103.855 E188.32874
G1 X243.643 Y150.644 E189.32449
G1 X243.643 Y149.966 E189.33469
G1 X197.533 Y103.855 E190.316
G1 X198.211 Y103.855 E190.3262
G1 X243.643 Y149.287 E191.29307
G1 X243.643 Y148.608 E191.30329
G1 X198.89 Y103.855 E192.25571
G1 X199.569 Y103.855 E192.26593
G1 X243.643 Y147.929 E193.2039
G1 X243.643 Y147.25 E193.21412
G1 X200.248 Y103.855 E194.13764
G1 X200.927 Y103.855 E194.14786
G1 X243.643 Y146.571 E195.05693
G1 X243.643 Y145.893 E195.06713
G1 X201.606 Y103.855 E195.96176
G1 X202.284 Y103.855 E195.97196
G1 X243.643 Y145.214 E196.85215
G1 X243.643 Y144.535 E196.86237
G1 X202.963 Y103.855 E197.72811
G1 X203.642 Y103.855 E197.73833
G1 X243.643 Y143.856 E198.58962
G1 X243.643 Y143.177 E198.59984
G1 X204.321 Y103.855 E199.43667
G1 X205 Y103.855 E199.44689
G1 X243.643 Y142.498 E200.26928
G1 X243.643 Y141.82 E200.27948
G1 X205.678 Y103.855 E201.08745
G1 X206.357 Y103.855 E201.09766
G1 X243.643 Y141.141 E201.89117
G1 X243.643 Y140.462 E201.90139
G1 X207.036 Y103.855 E202.68045
G1 X207.715 Y103.855 E202.69067
G1 X243.643 Y139.783 E203.45528
G1 X243.643 Y139.104 E203.4655
G1 X208.394 Y103.855 E204.21566
G1 X209.073 Y103.855 E204.22587
G1 X243.643 Y138.426 E204.96159
