;FLAVOR:Marlin
;TIME:1669
;Filament used: 1.47243m
;Layer height: 0.2
;Generated with Cura_SteamEngine 4.0.0
M140 S60
M105
M190 S60
M104 S205
M105
M109 S205
M82 ;absolute extrusion mode
; Ender 3 Custom Start G-code
G28 ; Home all axes
G92 E0 ; Reset Extruder
G1 Z2.0 F3000 ; Move Z Axis up little to prevent scratching of Heat Bed
G1 X0.1 Y20 Z0.3 F5000.0 ; Move to start position
G1 X0.1 Y200.0 Z0.3 F1500.0 E15 ; Draw the first line
G1 X0.4 Y200.0 Z0.3 F5000.0 ; Move to side a little
G1 X0.4 Y20 Z0.3 F1500.0 E30 ; Draw the second line
G92 E0 ; Reset Extruder
G1 Z2.0 F3000 ; Move Z Axis up little to prevent scratching of Heat Bed
M117 CHEPCUBE Layer:1
; End of custom start GCode
G92 E0
G1 F1500 E-6
;LAYER_COUNT:101
;LAYER:0
M107
G0 F3600 X102.695 Y102.877 Z0.2
;TYPE:SKIRT
G1 F1500 E0
G1 X103.23 Y102.379 E0.02917
G1 X103.816 Y101.943 E0.05832
G1 X104.446 Y101.573 E0.08748
G1 X105.113 Y101.273 E0.11667
G1 X105.808 Y101.049 E0.14582
G1 X106.524 Y100.902 E0.17499
G1 X107.509 Y100.829 E0.21441
G1 X127.491 Y100.83 E1.01194
G1 X128.221 Y100.87 E1.04112
G1 X128.942 Y100.989 E1.07028
G1 X129.645 Y101.187 E1.09943
G1 X130.323 Y101.46 E1.12861
G1 X130.967 Y101.806 E1.15778
G1 X131.569 Y102.22 E1.18694
G1 X132.123 Y102.697 E1.21612
G1 X132.621 Y103.231 E1.24527
G1 X133.058 Y103.817 E1.27444
G1 X133.428 Y104.448 E1.30364
G1 X133.727 Y105.114 E1.33277
G1 X133.951 Y105.81 E1.36196
G1 X134.098 Y106.526 E1.39113
G1 X134.171 Y107.51 E1.43051
G1 X134.171 Y127.491 E2.228
G1 X134.131 Y128.221 E2.25717
G1 X134.012 Y128.942 E2.28634
G1 X133.814 Y129.645 E2.31549
G1 X133.541 Y130.323 E2.34466
G1 X133.195 Y130.967 E2.37384
G1 X132.782 Y131.569 E2.40298
G1 X132.305 Y132.123 E2.43216
G1 X131.77 Y132.621 E2.46133
G1 X131.184 Y133.057 E2.49048
G1 X130.554 Y133.427 E2.51964
G1 X129.887 Y133.727 E2.54883
G1 X129.192 Y133.951 E2.57798
G1 X128.476 Y134.098 E2.60715
G1 X127.491 Y134.171 E2.64657
G1 X107.509 Y134.171 E3.4441
G1 X106.779 Y134.131 E3.47327
G1 X106.058 Y134.012 E3.50244
G1 X105.355 Y133.814 E3.53159
G1 X104.677 Y133.541 E3.56076
G1 X104.033 Y133.195 E3.58994
G1 X103.431 Y132.782 E3.61908
G1 X102.877 Y132.305 E3.64826
G1 X102.379 Y131.77 E3.67743
G1 X101.943 Y131.184 E3.70658
G1 X101.573 Y130.554 E3.73574
G1 X101.273 Y129.887 E3.76493
G1 X101.049 Y129.192 E3.79408
G1 X100.902 Y128.476 E3.82325
G1 X100.829 Y127.491 E3.86267
G1 X100.829 Y107.509 E4.66019
G1 X100.869 Y106.779 E4.68937
G1 X100.988 Y106.058 E4.71854
G1 X101.186 Y105.355 E4.74769
G1 X101.459 Y104.677 E4.77686
G1 X101.805 Y104.033 E4.80604
G1 X102.218 Y103.431 E4.83518
G1 X102.695 Y102.877 E4.86436
G0 F3600 X103.168 Y103.082
G1 F1500 X103.698 Y102.618 E4.89247
G1 X104.277 Y102.218 E4.92056
G1 X104.898 Y101.886 E4.94866
G1 X105.552 Y101.626 E4.97675
G1 X106.232 Y101.442 E5.00487
G1 X106.928 Y101.336 E5.03297
G1 X107.509 Y101.309 E5.05618
G1 X127.491 Y101.31 E5.85371
G1 X128.194 Y101.35 E5.88181
G1 X128.888 Y101.469 E5.90991
G1 X129.564 Y101.667 E5.93803
G1 X130.213 Y101.939 E5.96611
G1 X130.827 Y102.284 E5.99422
G1 X131.398 Y102.696 E6.02233
G1 X131.918 Y103.17 E6.05041
G1 X132.382 Y103.699 E6.07849
G1 X132.782 Y104.278 E6.10658
G1 X133.114 Y104.899 E6.13469
G1 X133.374 Y105.553 E6.16278
G1 X133.558 Y106.233 E6.19089
G1 X133.664 Y106.929 E6.21899
G1 X133.691 Y107.51 E6.24221
G1 X133.691 Y127.491 E7.03969
G1 X133.651 Y128.194 E7.06779
G1 X133.532 Y128.888 E7.0959
G1 X133.334 Y129.563 E7.12397
G1 X133.062 Y130.212 E7.15206
G1 X132.717 Y130.826 E7.18017
G1 X132.306 Y131.397 E7.20825
G1 X131.832 Y131.918 E7.23636
G1 X131.302 Y132.382 E7.26448
G1 X130.723 Y132.782 E7.29256
G1 X130.102 Y133.114 E7.32067
G1 X129.448 Y133.374 E7.34876
G1 X128.768 Y133.558 E7.37687
G1 X128.072 Y133.664 E7.40497
G1 X127.491 Y133.691 E7.42819
G1 X107.509 Y133.691 E8.22571
G1 X106.806 Y133.651 E8.25382
G1 X106.112 Y133.532 E8.28192
G1 X105.437 Y133.334 E8.31
G1 X104.788 Y133.062 E8.33808
G1 X104.174 Y132.717 E8.36619
G1 X103.603 Y132.306 E8.39427
G1 X103.082 Y131.832 E8.42238
G1 X102.618 Y131.302 E8.4505
G1 X102.218 Y130.723 E8.47859
G1 X101.886 Y130.102 E8.50669
G1 X101.626 Y129.448 E8.53478
G1 X101.442 Y128.768 E8.5629
G1 X101.336 Y128.072 E8.591
G1 X101.309 Y127.491 E8.61421
G1 X101.309 Y107.509 E9.41173
G1 X101.349 Y106.806 E9.43984
G1 X101.468 Y106.112 E9.46794
G1 X101.666 Y105.437 E9.49602
G1 X101.938 Y104.788 E9.5241
G1 X102.283 Y104.174 E9.55221
G1 X102.694 Y103.603 E9.58029
G1 X103.168 Y103.082 E9.6084
G0 F3600 X103.17 Y103.782
G1 F1500 X103.64 Y103.296 E9.63539
G1 X104.164 Y102.869 E9.66237
G1 X104.735 Y102.507 E9.68935
G1 X105.345 Y102.214 E9.71636
G1 X105.985 Y101.996 E9.74335
G1 X106.646 Y101.854 E9.77033
G1 X107.509 Y101.789 E9.80487
G1 X127.491 Y101.79 E10.6024
G1 X128.166 Y101.83 E10.62938
G1 X128.832 Y101.949 E10.65639
G1 X129.479 Y102.146 E10.68338
G1 X130.098 Y102.418 E10.71037
G1 X130.68 Y102.762 E10.73735
G1 X131.218 Y103.171 E10.76432
G1 X131.704 Y103.641 E10.79131
G1 X132.131 Y104.166 E10.81832
G1 X132.494 Y104.736 E10.84529
G1 X132.786 Y105.346 E10.87228
G1 X133.004 Y105.986 E10.89926
G1 X133.146 Y106.647 E10.92625
G1 X133.211 Y107.51 E10.96079
G1 X133.211 Y127.491 E11.75828
G1 X133.171 Y128.166 E11.78526
G1 X133.052 Y128.832 E11.81227
G1 X132.855 Y129.478 E11.83922
G1 X132.583 Y130.097 E11.86621
G1 X132.24 Y130.68 E11.8932
G1 X131.83 Y131.218 E11.9202
G1 X131.36 Y131.704 E11.94719
G1 X130.836 Y132.131 E11.97416
G1 X130.265 Y132.493 E12.00115
G1 X129.655 Y132.786 E12.02816
G1 X129.015 Y133.004 E12.05514
G1 X128.354 Y133.146 E12.08213
G1 X127.491 Y133.211 E12.11667
G1 X107.509 Y133.211 E12.91419
G1 X106.834 Y133.171 E12.94118
G1 X106.168 Y133.052 E12.96818
G1 X105.522 Y132.855 E12.99514
G1 X104.903 Y132.583 E13.02212
G1 X104.32 Y132.24 E13.04912
G1 X103.782 Y131.83 E13.07612
G1 X103.296 Y131.36 E13.1031
G1 X102.869 Y130.836 E13.13008
G1 X102.507 Y130.265 E13.15707
G1 X102.214 Y129.655 E13.18407
G1 X101.996 Y129.015 E13.21106
G1 X101.854 Y128.354 E13.23804
G1 X101.789 Y127.491 E13.27259
G1 X101.789 Y107.509 E14.07011
G1 X101.829 Y106.834 E14.0971
G1 X101.948 Y106.168 E14.1241
G1 X102.145 Y105.522 E14.15106
G1 X102.417 Y104.903 E14.17804
G1 X102.76 Y104.32 E14.20504
G1 X103.17 Y103.782 E14.23204
G0 F3600 X103.645 Y103.97
G1 F1500 X104.11 Y103.521 E14.25784
G1 X104.628 Y103.132 E14.28369
G1 X105.189 Y102.81 E14.30951
G1 X105.786 Y102.56 E14.33534
G1 X106.409 Y102.386 E14.36116
G1 X107.049 Y102.289 E14.38699
G1 X107.509 Y102.269 E14.40537
G1 X127.491 Y102.27 E15.20289
G1 X128.137 Y102.31 E15.22873
G1 X128.773 Y102.429 E15.25455
G1 X129.39 Y102.626 E15.2804
G1 X129.977 Y102.897 E15.30621
G1 X130.527 Y103.239 E15.33206
G1 X131.03 Y103.646 E15.35788
G1 X131.48 Y104.112 E15.38374
G1 X131.868 Y104.629 E15.40953
G1 X132.19 Y105.191 E15.43539
G1 X132.44 Y105.788 E15.46122
G1 X132.614 Y106.411 E15.48704
G1 X132.711 Y107.051 E15.51287
G1 X132.731 Y107.51 E15.53121
G1 X132.731 Y127.491 E16.32869
G1 X132.691 Y128.137 E16.35453
G1 X132.572 Y128.773 E16.38035
G1 X132.375 Y129.389 E16.40616
G1 X132.104 Y129.977 E16.432
G1 X131.762 Y130.527 E16.45785
G1 X131.355 Y131.03 E16.48368
G1 X130.89 Y131.479 E16.50948
G1 X130.372 Y131.868 E16.53533
G1 X129.811 Y132.19 E16.56115
G1 X129.214 Y132.44 E16.58698
G1 X128.591 Y132.614 E16.6128
G1 X127.951 Y132.711 E16.63863
G1 X127.491 Y132.731 E16.65701
G1 X107.509 Y132.731 E17.45454
G1 X106.863 Y132.691 E17.48037
G1 X106.227 Y132.572 E17.50619
G1 X105.611 Y132.375 E17.53201
G1 X105.023 Y132.104 E17.55785
G1 X104.473 Y131.762 E17.5837
G1 X103.97 Y131.355 E17.60952
G1 X103.521 Y130.89 E17.63532
G1 X103.132 Y130.372 E17.66117
G1 X102.81 Y129.811 E17.68699
G1 X102.56 Y129.214 E17.71282
G1 X102.386 Y128.591 E17.73864
G1 X102.289 Y127.951 E17.76448
G1 X102.269 Y127.491 E17.78285
G1 X102.269 Y107.509 E18.58038
G1 X102.309 Y106.863 E18.60621
G1 X102.428 Y106.227 E18.63204
G1 X102.625 Y105.611 E18.65785
G1 X102.896 Y105.023 E18.68369
G1 X103.238 Y104.473 E18.70954
G1 X103.645 Y103.97 E18.73536
G1 F1500 E12.73536
;MESH:CHEPCalibrationCube.stl
G0 F3600 X127.26 Y127.26
;TYPE:WALL-OUTER
G1 F1500 E18.73536
G1 X107.74 Y127.26 E19.51445
G1 X107.74 Y107.74 E20.29353
G1 X127.26 Y107.74 E21.07262
G1 X127.26 Y127.26 E21.8517
G0 F3600 X127.06 Y127.26
G0 X126.78 Y126.78
;TYPE:WALL-INNER
G1 F1500 X108.22 Y126.78 E22.59247
G1 X108.22 Y108.22 E23.33324
G1 X126.78 Y108.22 E24.07401
G1 X126.78 Y126.78 E24.81478
G0 F3600 X126.3 Y126.3
G1 F1500 X108.7 Y126.3 E25.51724
G1 X108.7 Y108.7 E26.21969
G1 X126.3 Y108.7 E26.92215
G1 X126.3 Y126.3 E27.6246
G0 F3600 X125.83 Y125.83
;TYPE:SKIN
G1 F1500 X109.17 Y125.83 E28.28954
G1 X109.17 Y109.17 E28.95447
G1 X125.83 Y109.17 E29.61941
G1 X125.83 Y125.83 E30.28435
G1 F1500 E24.28435
G0 F3600 X117.69 Y117.69
G1 F1500 E30.28435
G1 X117.31 Y117.69 E30.29951
G1 X117.31 Y117.31 E30.31468
G1 X117.69 Y117.31 E30.32985
G1 X117.69 Y117.69 E30.34501
G0 F3600 X118.17 Y118.17
G1 F1500 X116.83 Y118.17 E30.3985
G1 X116.83 Y116.83 E30.45198
G1 X118.17 Y116.83 E30.50546
G1 X118.17 Y118.17 E30.55894
G0 F3600 X118.65 Y118.65
G1 F1500 X116.35 Y118.65 E30.65074
G1 X116.35 Y116.35 E30.74254
G1 X118.65 Y116.35 E30.83434
G1 X118.65 Y118.65 E30.92613
G0 F3600 X119.13 Y119.13
G1 F1500 X115.87 Y119.13 E31.05625
G1 X115.87 Y115.87 E31.18636
G1 X119.13 Y115.87 E31.31647
G1 X119.13 Y119.13 E31.44659
G0 F3600 X119.61 Y119.61
G1 F1500 X115.39 Y119.61 E31.61502
G1 X115.39 Y115.39 E31.78345
G1 X119.61 Y115.39 E31.95188
G1 X119.61 Y119.61 E32.12031
G0 F3600 X120.09 Y120.09
G1 F1500 X114.91 Y120.09 E32.32705
G1 X114.91 Y114.91 E32.5338
G1 X120.09 Y114.91 E32.74054
G1 X120.09 Y120.09 E32.94729
G0 F3600 X120.57 Y120.57
G1 F1500 X114.43 Y120.57 E33.19235
G1 X114.43 Y114.43 E33.43741
G1 X120.57 Y114.43 E33.68247
G1 X120.57 Y120.57 E33.92753
G0 F3600 X121.05 Y121.05
G1 F1500 X113.95 Y121.05 E34.2109
G1 X113.95 Y113.95 E34.49428
G1 X121.05 Y113.95 E34.77766
G1 X121.05 Y121.05 E35.06103
G0 F3600 X121.53 Y121.53
G1 F1500 X113.47 Y121.53 E35.38273
G1 X113.47 Y113.47 E35.70442
G1 X121.53 Y113.47 E36.02611
G1 X121.53 Y121.53 E36.3478
G0 F3600 X122.01 Y122.01
G1 F1500 X112.99 Y122.01 E36.70781
G1 X112.99 Y112.99 E37.06782
G1 X122.01 Y112.99 E37.42783
G1 X122.01 Y122.01 E37.78783
G0 F3600 X122.49 Y122.49
G1 F1500 X112.51 Y122.49 E38.18616
G1 X112.51 Y112.51 E38.58448
G1 X122.49 Y112.51 E38.9828
G1 X122.49 Y122.49 E39.38113
G0 F3600 X122.97 Y122.97
G1 F1500 X112.03 Y122.97 E39.81777
G1 X112.03 Y112.03 E40.2544
G1 X122.97 Y112.03 E40.69104
G1 X122.97 Y122.97 E41.12768
G0 F3600 X123.45 Y123.45
G1 F1500 X111.55 Y123.45 E41.60264
G1 X111.55 Y111.55 E42.07759
G1 X123.45 Y111.55 E42.55255
G1 X123.45 Y123.45 E43.0275
G0 F3600 X123.93 Y123.93
G1 F1500 X111.07 Y123.93 E43.54077
G1 X111.07 Y111.07 E44.05404
G1 X123.93 Y111.07 E44.56731
G1 X123.93 Y123.93 E45.08058
G0 F3600 X124.41 Y124.41
G1 F1500 X110.59 Y124.41 E45.63217
G1 X110.59 Y110.59 E46.18376
G1 X124.41 Y110.59 E46.73534
G1 X124.41 Y124.41 E47.28693
G0 F3600 X124.89 Y124.89
G1 F1500 X110.11 Y124.89 E47.87683
G1 X110.11 Y110.11 E48.46673
G1 X124.89 Y110.11 E49.05663
G1 X124.89 Y124.89 E49.64653
G0 F3600 X125.37 Y125.37
G1 F1500 X109.63 Y125.37 E50.27475
G1 X109.63 Y109.63 E50.90297
G1 X125.37 Y109.63 E51.53119
G1 X125.37 Y125.37 E52.1594
G1 F1500 E46.1594
;MESH:NONMESH
G0 F3600 X127.3 Y127.3
;TIME_ELAPSED:62.960089
;LAYER:1
M140 S60
M106 S255
;MESH:CHEPCalibrationCube.stl
G0 F5400 X127.3 Y127.3 Z0.4
;TYPE:WALL-OUTER
G1 F1500 E52.1594
G1 X107.7 Y127.3 E52.8113
G1 X107.7 Y107.7 E53.4632
G1 X127.3 Y107.7 E54.1151
G1 X127.3 Y127.3 E54.767
G0 F5400 X127.1 Y127.3
G0 X126.9 Y126.9
;TYPE:WALL-INNER
G1 F2250 X108.1 Y126.9 E55.39229
G1 X108.1 Y108.1 E56.01758
G1 X126.9 Y108.1 E56.64287
G1 X126.9 Y126.9 E57.26816
G0 F5400 X126.5 Y126.5
G1 F2250 X108.5 Y126.5 E57.86684
G1 X108.5 Y108.5 E58.46553
G1 X126.5 Y108.5 E59.06421
G1 X126.5 Y126.5 E59.66289
G0 F5400 X126.11 Y126.11
;TYPE:SKIN
G1 F1500 X108.89 Y126.11 E60.23563
G1 X108.89 Y108.89 E60.80837
G1 X126.11 Y108.89 E61.38111
G1 X126.11 Y126.11 E61.95385
G0 F5400 X125.8 Y125.929
G1 F1500 X125.929 Y125.8 E61.95992
G0 F5400 X125.929 Y125.234
G1 F1500 X125.234 Y125.929 E61.99261
G0 F5400 X124.669 Y125.929
G1 F1500 X125.929 Y124.669 E62.05187
G0 F5400 X125.929 Y124.103
G1 F1500 X124.103 Y125.929 E62.13776
G0 F5400 X123.537 Y125.929
G1 F1500 X125.929 Y123.537 E62.25028
G0 F5400 X125.929 Y122.972
G1 F1500 X122.972 Y125.929 E62.38936
G0 F5400 X122.406 Y125.929
G1 F1500 X125.929 Y122.406 E62.55507
G0 F5400 X125.929 Y121.84
G1 F1500 X121.84 Y125.929 E62.74741
G0 F5400 X121.275 Y125.929
G1 F1500 X125.929 Y121.275 E62.96632
G0 F5400 X125.929 Y120.709
G1 F1500 X120.709 Y125.929 E63.21185
G0 F5400 X120.143 Y125.929
G1 F1500 X125.929 Y120.143 E63.48401
G0 F5400 X125.929 Y119.578
G1 F1500 X119.578 Y125.929 E63.78274
G0 F5400 X119.012 Y125.929
G1 F1500 X125.929 Y119.012 E64.10809
G0 F5400 X125.929 Y118.446
G1 F1500 X118.446 Y125.929 E64.46007
G0 F5400 X117.881 Y125.929
G1 F1500 X125.929 Y117.881 E64.83862
G0 F5400 X125.929 Y117.315
G1 F1500 X117.315 Y125.929 E65.2438
G0 F5400 X116.749 Y125.929
G1 F1500 X125.929 Y116.749 E65.6756
G0 F5400 X125.929 Y116.184
G1 F1500 X116.184 Y125.929 E66.13397
G0 F5400 X115.618 Y125.929
G1 F1500 X125.929 Y115.618 E66.61897
G0 F5400 X125.929 Y115.052
G1 F1500 X115.052 Y125.929 E67.13059
G0 F5400 X114.486 Y125.929
G1 F1500 X125.929 Y114.486 E67.66884
G0 F5400 X125.929 Y113.921
G1 F1500 X113.921 Y125.929 E68.23366
G0 F5400 X113.355 Y125.929
G1 F1500 X125.929 Y113.355 E68.8251
G0 F5400 X125.929 Y112.789
G1 F1500 X112.789 Y125.929 E69.44316
G0 F5400 X112.224 Y125.929
G1 F1500 X125.929 Y112.224 E70.0878
G0 F5400 X125.929 Y111.658
G1 F1500 X111.658 Y125.929 E70.75907
G0 F5400 X111.092 Y125.929
G1 F1500 X125.929 Y111.092 E71.45696
G0 F5400 X125.929 Y110.527
G1 F1500 X110.527 Y125.929 E72.18142
G0 F5400 X109.961 Y125.929
G1 F1500 X125.929 Y109.961 E72.9325
G0 F5400 X125.929 Y109.395
G1 F1500 X109.395 Y125.929 E73.71021
G0 F5400 X109.07 Y125.688
G1 F1500 X125.689 Y109.069 E74.49192
G0 F5400 X125.123 Y109.069
G1 F1500 X109.07 Y125.123 E75.24703
G0 F5400 X109.07 Y124.557
G1 F1500 X124.558 Y109.069 E75.97554
G0 F5400 X123.992 Y109.069
G1 F1500 X109.07 Y123.991 E76.67742
G0 F5400 X109.07 Y123.426
G1 F1500 X123.426 Y109.069 E77.35271
G0 F5400 X122.861 Y109.069
G1 F1500 X109.07 Y122.86 E78.00139
G0 F5400 X109.07 Y122.294
G1 F1500 X122.295 Y109.069 E78.62346
G0 F5400 X121.729 Y109.069
G1 F1500 X109.07 Y121.729 E79.21892
G0 F5400 X109.07 Y121.163
G1 F1500 X121.164 Y109.069 E79.78778
G0 F5400 X120.598 Y109.069
G1 F1500 X109.07 Y120.597 E80.33003
G0 F5400 X109.07 Y120.032
G1 F1500 X120.032 Y109.069 E80.84567
G0 F5400 X119.467 Y109.069
G1 F1500 X109.07 Y119.466 E81.33471
G0 F5400 X109.07 Y118.9
G1 F1500 X118.901 Y109.069 E81.79713
G0 F5400 X118.335 Y109.069
G1 F1500 X109.07 Y118.335 E82.23295
G0 F5400 X109.07 Y117.769
G1 F1500 X117.77 Y109.069 E82.64217
G0 F5400 X117.204 Y109.069
G1 F1500 X109.07 Y117.203 E83.02477
G0 F5400 X109.07 Y116.637
G1 F1500 X116.638 Y109.069 E83.38075
G0 F5400 X116.072 Y109.069
G1 F1500 X109.07 Y116.072 E83.71012
G0 F5400 X109.07 Y115.506
G1 F1500 X115.507 Y109.069 E84.0129
G0 F5400 X114.941 Y109.069
G1 F1500 X109.07 Y114.94 E84.28905
G0 F5400 X109.07 Y114.375
G1 F1500 X114.375 Y109.069 E84.53861
G0 F5400 X113.81 Y109.069
G1 F1500 X109.07 Y113.809 E84.76156
G0 F5400 X109.07 Y113.243
G1 F1500 X113.244 Y109.069 E84.9579
G0 F5400 X112.678 Y109.069
G1 F1500 X109.07 Y112.678 E85.12763
G0 F5400 X109.07 Y112.112
G1 F1500 X112.113 Y109.069 E85.27076
G0 F5400 X111.547 Y109.069
G1 F1500 X109.07 Y111.546 E85.38727
G0 F5400 X109.07 Y110.981
G1 F1500 X110.981 Y109.069 E85.47718
G0 F5400 X110.416 Y109.069
G1 F1500 X109.07 Y110.415 E85.5405
G0 F5400 X109.07 Y109.849
G1 F1500 X109.85 Y109.069 E85.57718
G0 F5400 X109.284 Y109.069
G1 F1500 X109.07 Y109.284 E85.58727
G1 F1500 E79.58727
;MESH:NONMESH
G0 F5400 X127.3 Y127.3
;TIME_ELAPSED:103.226421
;LAYER:2
;MESH:CHEPCalibrationCube.stl
G0 F7200 X127.3 Y127.3 Z0.6
;TYPE:WALL-OUTER
G1 F1500 E85.58727
G1 X107.7 Y127.3 E86.23917
G1 X107.7 Y107.7 E86.89107
G1 X127.3 Y107.7 E87.54297
G1 X127.3 Y127.3 E88.19487
G0 F7200 X127.1 Y127.3
G0 X126.9 Y126.9
